my-rice/robotic-manipulator-Fanuc_M20IA35M/plotjuggler_configurations/TUNING/CSV_before_and_after_tuning_ziegler_nichols/after_corrections_csv_datarange_final.csv
__time,/joint_states/fanuc_m20ia_35m_joint1/position,/joint_states/fanuc_m20ia_35m_joint1/velocity,/joint_states/fanuc_m20ia_35m_joint2/position,/joint_states/fanuc_m20ia_35m_joint2/velocity,/joint_states/fanuc_m20ia_35m_joint3/position,/joint_states/fanuc_m20ia_35m_joint3/velocity,/joint_states/fanuc_m20ia_35m_joint4/position,/joint_states/fanuc_m20ia_35m_joint4/velocity,/joint_states/fanuc_m20ia_35m_joint5/position,/joint_states/fanuc_m20ia_35m_joint5/velocity,/joint_states/fanuc_m20ia_35m_joint6/position,/joint_states/fanuc_m20ia_35m_joint6/velocity,/joint_states/header/stamp,/joint_states/joint_world_to_slider/position,/joint_states/joint_world_to_slider/velocity
1707347314.860057,0.000135018,0.000000000,0.000661444,-0.000000000,-0.019495158,-0.000000000,0.001587149,0.000000000,0.019695528,-0.000000000,0.001071588,0.000000000,11.050000000,-0.000038029,0.000000000
1707347314.861240,0.000135018,0.000000000,0.000661444,-0.000000000,-0.019495158,-0.000000000,0.001587149,0.000000000,0.019695528,-0.000000000,0.001071588,0.000000000,11.051000000,-0.000038029,0.000000000
1707347314.862503,0.000135018,0.000000000,0.000661444,-0.000000000,-0.019495158,-0.000000000,0.001587149,0.000000000,0.019695528,-0.000000000,0.001071588,0.000000000,11.052000000,-0.000038029,0.000000000
1707347314.863660,0.000135018,0.000000000,0.000661444,-0.000000000,-0.019495158,-0.000000000,0.001587149,0.000000000,0.019695528,-0.000000000,0.001071588,0.000000000,11.053000000,-0.000038029,0.000000000
1707347314.864892,0.000135018,0.000000000,0.000661444,-0.000000000,-0.019495158,-0.000000000,0.001587149,0.000000000,0.019695528,-0.000000000,0.001071588,0.000000000,11.054000000,-0.000038029,0.000000000
1707347314.865415,0.000135018,0.000000000,0.000661444,-0.000000000,-0.019495158,-0.000000000,0.001587149,0.000000000,0.019695528,-0.000000000,0.001071588,0.000000000,11.055000000,-0.000038029,0.000000000
1707347314.866640,0.000135018,0.000000000,0.000661444,-0.000000000,-0.019495158,-0.000000000,0.001587149,0.000000000,0.019695528,-0.000000000,0.001071588,0.000000000,11.056000000,-0.000038029,0.000000000
1707347314.868091,0.000135018,0.000000000,0.000661444,-0.000000000,-0.019495158,-0.000000000,0.001587149,0.000000000,0.019695528,-0.000000000,0.001071588,0.000000000,11.057000000,-0.000038029,0.000000000
1707347314.869107,0.000135018,0.000000000,0.000661444,-0.000000000,-0.019495158,-0.000000000,0.001587149,0.000000000,0.019695528,-0.000000000,0.001071588,0.000000000,11.058000000,-0.000038029,0.000000000
1707347314.869770,0.000135018,0.000000000,0.000661444,-0.000000000,-0.019495158,-0.000000000,0.001587149,0.000000000,0.019695528,-0.000000000,0.001071588,0.000000000,11.059000000,-0.000038029,0.000000000
1707347314.870877,0.000135018,0.000000000,0.000661444,-0.000000000,-0.019495158,-0.000000000,0.001587149,0.000000000,0.019695528,-0.000000000,0.001071588,0.000000000,11.060000000,-0.000038029,0.000000000
1707347314.871440,0.000135018,0.000000000,0.000661444,-0.000000000,-0.019495158,-0.000000000,0.001587149,0.000000000,0.019695528,-0.000000000,0.001071588,0.000000000,11.061000000,-0.000038029,0.000000000
1707347314.872634,0.000135018,0.000000000,0.000661444,-0.000000000,-0.019495158,-0.000000000,0.001587149,0.000000000,0.019695528,-0.000000000,0.001071588,0.000000000,11.062000000,-0.000038029,0.000000000
1707347314.873827,0.000135018,0.000000000,0.000661444,-0.000000000,-0.019495158,-0.000000000,0.001587149,0.000000000,0.019695528,-0.000000000,0.001071588,0.000000000,11.063000000,-0.000038029,0.000000000
1707347314.874458,0.000135018,0.000000000,0.000661444,-0.000000000,-0.019495158,-0.000000000,0.001587149,0.000000000,0.019695528,-0.000000000,0.001071588,0.000000000,11.064000000,-0.000038029,0.000000000
1707347314.875600,0.000135018,0.000000000,0.000661444,-0.000000000,-0.019495158,-0.000000000,0.001587149,0.000000000,0.019695528,-0.000000000,0.001071588,0.000000000,11.065000000,-0.000038029,0.000000000
1707347314.876750,0.000135018,0.000000000,0.000661444,-0.000000000,-0.019495158,-0.000000000,0.001587149,0.000000000,0.019695528,-0.000000000,0.001071588,0.000000000,11.066000000,-0.000038029,0.000000000
1707347314.877340,0.000135018,0.000000000,0.000661444,-0.000000000,-0.019495158,-0.000000000,0.001587149,0.000000000,0.019695528,-0.000000000,0.001071588,0.000000000,11.067000000,-0.000038029,0.000000000
1707347314.878537,0.000135018,0.000000000,0.000661444,-0.000000000,-0.019495158,-0.000000000,0.001587149,0.000000000,0.019695528,-0.000000000,0.001071588,0.000000000,11.068000000,-0.000038029,0.000000000
1707347314.879777,0.000135018,0.000000000,0.000661444,-0.000000000,-0.019495158,-0.000000000,0.001587149,0.000000000,0.019695528,-0.000000000,0.001071588,0.000000000,11.069000000,-0.000038029,0.000000000
1707347314.881081,0.000135018,0.000000000,0.000661444,-0.000000000,-0.019495158,-0.000000000,0.001587149,0.000000000,0.019695528,-0.000000000,0.001071588,0.000000000,11.070000000,-0.000038029,0.000000000
1707347314.882337,0.000135018,0.000000000,0.000661444,-0.000000000,-0.019495158,-0.000000000,0.001587149,0.000000000,0.019695528,-0.000000000,0.001071588,0.000000000,11.071000000,-0.000038029,0.000000000
1707347314.883474,0.000135018,0.000000000,0.000661444,-0.000000000,-0.019495158,-0.000000000,0.001587149,0.000000000,0.019695528,-0.000000000,0.001071588,0.000000000,11.072000000,-0.000038029,0.000000000
1707347314.884618,0.000135018,0.000000000,0.000661444,-0.000000000,-0.019495158,-0.000000000,0.001587149,0.000000000,0.019695528,-0.000000000,0.001071588,0.000000000,11.073000000,-0.000038029,0.000000000
1707347314.885184,0.000135018,0.000000000,0.000661444,-0.000000000,-0.019495158,-0.000000000,0.001587149,0.000000000,0.019695528,-0.000000000,0.001071588,0.000000000,11.074000000,-0.000038029,0.000000000
1707347314.885781,0.000135018,0.000000000,0.000661444,-0.000000000,-0.019495158,-0.000000000,0.001587149,0.000000000,0.019695528,-0.000000000,0.001071588,0.000000000,11.075000000,-0.000038029,0.000000000
1707347314.886963,0.000135018,0.000000000,0.000661444,-0.000000000,-0.019495158,-0.000000000,0.001587149,0.000000000,0.019695528,-0.000000000,0.001071588,0.000000000,11.076000000,-0.000038029,0.000000000
1707347314.888102,0.000135018,0.000000000,0.000661444,-0.000000000,-0.019495158,-0.000000000,0.001587149,0.000000000,0.019695528,-0.000000000,0.001071588,0.000000000,11.077000000,-0.000038029,0.000000000
1707347314.888723,0.000135018,0.000000000,0.000661444,-0.000000000,-0.019495158,-0.000000000,0.001587149,0.000000000,0.019695528,-0.000000000,0.001071588,0.000000000,11.078000000,-0.000038029,0.000000000
1707347314.889854,0.000135018,0.000000000,0.000661444,-0.000000000,-0.019495158,-0.000000000,0.001587149,0.000000000,0.019695528,-0.000000000,0.001071588,0.000000000,11.079000000,-0.000038029,0.000000000
1707347314.891083,0.000135018,0.000000000,0.000661444,-0.000000000,-0.019495158,-0.000000000,0.001587149,0.000000000,0.019695528,-0.000000000,0.001071588,0.000000000,11.080000000,-0.000038029,0.000000000
1707347314.891695,0.000135018,0.000000000,0.000661444,-0.000000000,-0.019495158,-0.000000000,0.001587149,0.000000000,0.019695528,-0.000000000,0.001071588,0.000000000,11.081000000,-0.000038029,0.000000000
1707347314.892879,0.000135018,0.000000000,0.000661444,-0.000000000,-0.019495158,-0.000000000,0.001587149,0.000000000,0.019695528,-0.000000000,0.001071588,0.000000000,11.082000000,-0.000038029,0.000000000
1707347314.894097,0.000135018,0.000000000,0.000661444,-0.000000000,-0.019495158,-0.000000000,0.001587149,0.000000000,0.019695528,-0.000000000,0.001071588,0.000000000,11.083000000,-0.000038029,0.000000000
1707347314.895258,0.000135018,0.000000000,0.000661444,-0.000000000,-0.019495158,-0.000000000,0.001587149,0.000000000,0.019695528,-0.000000000,0.001071588,0.000000000,11.084000000,-0.000038029,0.000000000
1707347314.895830,0.000135018,0.000000000,0.000661444,-0.000000000,-0.019495158,-0.000000000,0.001587149,0.000000000,0.019695528,-0.000000000,0.001071588,0.000000000,11.085000000,-0.000038029,0.000000000
1707347314.896991,0.000135018,0.000000000,0.000661444,-0.000000000,-0.019495158,-0.000000000,0.001587149,0.000000000,0.019695528,-0.000000000,0.001071588,0.000000000,11.086000000,-0.000038029,0.000000000
1707347314.898156,0.000135018,0.000000000,0.000661444,-0.000000000,-0.019495158,-0.000000000,0.001587149,0.000000000,0.019695528,-0.000000000,0.001071588,0.000000000,11.087000000,-0.000038029,0.000000000
1707347314.898760,0.000135018,0.000000000,0.000661444,-0.000000000,-0.019495158,-0.000000000,0.001587149,0.000000000,0.019695528,-0.000000000,0.001071588,0.000000000,11.088000000,-0.000038029,0.000000000
1707347314.899968,0.000135018,0.000000000,0.000661444,-0.000000000,-0.019495158,-0.000000000,0.001587149,0.000000000,0.019695528,-0.000000000,0.001071588,0.000000000,11.089000000,-0.000038029,0.000000000
1707347314.901134,0.000135018,0.000000000,0.000661444,-0.000000000,-0.019495158,-0.000000000,0.001587149,0.000000000,0.019695528,-0.000000000,0.001071588,0.000000000,11.090000000,-0.000038029,0.000000000
1707347314.902303,0.000135018,0.000000000,0.000661444,-0.000000000,-0.019495158,-0.000000000,0.001587149,0.000000000,0.019695528,-0.000000000,0.001071588,0.000000000,11.091000000,-0.000038029,0.000000000
1707347314.902875,0.000135018,0.000000000,0.000661444,-0.000000000,-0.019495158,-0.000000000,0.001587149,0.000000000,0.019695528,-0.000000000,0.001071588,0.000000000,11.092000000,-0.000038029,0.000000000
1707347314.904077,0.000135018,0.000000000,0.000661444,-0.000000000,-0.019495158,-0.000000000,0.001587149,0.000000000,0.019695528,-0.000000000,0.001071588,0.000000000,11.093000000,-0.000038029,0.000000000
1707347314.905351,0.000135018,0.000000000,0.000661444,-0.000000000,-0.019495158,-0.000000000,0.001587149,0.000000000,0.019695528,-0.000000000,0.001071588,0.000000000,11.094000000,-0.000038029,0.000000000
1707347314.905841,0.000135018,0.000000000,0.000661444,-0.000000000,-0.019495158,-0.000000000,0.001587149,0.000000000,0.019695528,-0.000000000,0.001071588,0.000000000,11.095000000,-0.000038029,0.000000000
1707347314.906978,0.000135018,0.000000000,0.000661444,-0.000000000,-0.019495158,-0.000000000,0.001587149,0.000000000,0.019695528,-0.000000000,0.001071588,0.000000000,11.096000000,-0.000038029,0.000000000
1707347314.908132,0.000135018,0.000000000,0.000661444,-0.000000000,-0.019495158,-0.000000000,0.001587149,0.000000000,0.019695528,-0.000000000,0.001071588,0.000000000,11.097000000,-0.000038029,0.000000000
1707347314.908726,0.000135018,0.000000000,0.000661444,-0.000000000,-0.019495158,-0.000000000,0.001587149,0.000000000,0.019695528,-0.000000000,0.001071588,0.000000000,11.098000000,-0.000038029,0.000000000
1707347314.909866,0.000135018,0.000000000,0.000661444,-0.000000000,-0.019495158,-0.000000000,0.001587149,0.000000000,0.019695528,-0.000000000,0.001071588,0.000000000,11.099000000,-0.000038029,0.000000000
1707347314.911049,0.000135018,0.000000000,0.000661444,-0.000000000,-0.019495158,-0.000000000,0.001587149,0.000000000,0.019695528,-0.000000000,0.001071588,0.000000000,11.100000000,-0.000038029,0.000000000
1707347314.912432,0.000135018,0.000000000,0.000661444,-0.000000000,-0.019495158,-0.000000000,0.001587149,0.000000000,0.019695528,-0.000000000,0.001071588,0.000000000,11.101000000,-0.000038029,0.000000000
1707347314.913550,0.000135018,0.000000000,0.000661444,-0.000000000,-0.019495158,-0.000000000,0.001587149,0.000000000,0.019695528,-0.000000000,0.001071588,0.000000000,11.102000000,-0.000038029,0.000000000
1707347314.914727,0.000135018,0.000000000,0.000661444,-0.000000000,-0.019495158,-0.000000000,0.001587149,0.000000000,0.019695528,-0.000000000,0.001071588,0.000000000,11.103000000,-0.000038029,0.000000000
1707347314.915671,0.000135018,0.000000000,0.000661444,-0.000000000,-0.019495158,-0.000000000,0.001587149,0.000000000,0.019695528,-0.000000000,0.001071588,0.000000000,11.104000000,-0.000038029,0.000000000
1707347314.916907,0.000135018,0.000000000,0.000661444,-0.000000000,-0.019495158,-0.000000000,0.001587149,0.000000000,0.019695528,-0.000000000,0.001071588,0.000000000,11.105000000,-0.000038029,0.000000000
1707347314.917452,0.000135018,0.000000000,0.000661444,-0.000000000,-0.019495158,-0.000000000,0.001587149,0.000000000,0.019695528,-0.000000000,0.001071588,0.000000000,11.106000000,-0.000038029,0.000000000
1707347314.918725,0.000135018,0.000000000,0.000661444,-0.000000000,-0.019495158,-0.000000000,0.001587149,0.000000000,0.019695528,-0.000000000,0.001071588,0.000000000,11.107000000,-0.000038029,0.000000000
1707347314.920034,0.000135018,0.000000000,0.000661444,-0.000000000,-0.019495158,-0.000000000,0.001587149,0.000000000,0.019695528,-0.000000000,0.001071588,0.000000000,11.108000000,-0.000038029,0.000000000
1707347314.921451,0.000135018,0.000000000,0.000661444,-0.000000000,-0.019495158,-0.000000000,0.001587149,0.000000000,0.019695528,-0.000000000,0.001071588,0.000000000,11.109000000,-0.000038029,0.000000000
1707347314.922232,0.000135018,0.000000000,0.000661444,-0.000000000,-0.019495158,-0.000000000,0.001587149,0.000000000,0.019695528,-0.000000000,0.001071588,0.000000000,11.110000000,-0.000038029,0.000000000
1707347314.922813,0.000135018,0.000000000,0.000661444,-0.000000000,-0.019495158,-0.000000000,0.001587149,0.000000000,0.019695528,-0.000000000,0.001071588,0.000000000,11.111000000,-0.000038029,0.000000000
1707347314.923430,0.000135018,0.000000000,0.000661444,-0.000000000,-0.019495158,-0.000000000,0.001587149,0.000000000,0.019695528,-0.000000000,0.001071588,0.000000000,11.112000000,-0.000038029,0.000000000
1707347314.924634,0.000135018,0.000000000,0.000661444,-0.000000000,-0.019495158,-0.000000000,0.001587149,0.000000000,0.019695528,-0.000000000,0.001071588,0.000000000,11.113000000,-0.000038029,0.000000000
1707347314.925758,0.000135018,0.000000000,0.000661444,-0.000000000,-0.019495158,-0.000000000,0.001587149,0.000000000,0.019695528,-0.000000000,0.001071588,0.000000000,11.114000000,-0.000038029,0.000000000
1707347314.926927,0.000135018,0.000000000,0.000661444,-0.000000000,-0.019495158,-0.000000000,0.001587149,0.000000000,0.019695528,-0.000000000,0.001071588,0.000000000,11.115000000,-0.000038029,0.000000000
1707347314.927502,0.000135018,0.000000000,0.000661444,-0.000000000,-0.019495158,-0.000000000,0.001587149,0.000000000,0.019695528,-0.000000000,0.001071588,0.000000000,11.116000000,-0.000038029,0.000000000
1707347314.928609,0.000135018,0.000000000,0.000661444,-0.000000000,-0.019495158,-0.000000000,0.001587149,0.000000000,0.019695528,-0.000000000,0.001071588,0.000000000,11.117000000,-0.000038029,0.000000000
1707347314.929899,0.000135018,0.000000000,0.000661444,-0.000000000,-0.019495158,-0.000000000,0.001587149,0.000000000,0.019695528,-0.000000000,0.001071588,0.000000000,11.118000000,-0.000038029,0.000000000
1707347314.931396,0.000135018,0.000000000,0.000661444,-0.000000000,-0.019495158,-0.000000000,0.001587149,0.000000000,0.019695528,-0.000000000,0.001071588,0.000000000,11.119000000,-0.000038029,0.000000000
1707347314.932373,0.000135018,0.000000000,0.000661444,-0.000000000,-0.019495158,-0.000000000,0.001587149,0.000000000,0.019695528,-0.000000000,0.001071588,0.000000000,11.120000000,-0.000038029,0.000000000
1707347314.933615,0.000135018,0.000000000,0.000661444,-0.000000000,-0.019495158,-0.000000000,0.001587149,0.000000000,0.019695528,-0.000000000,0.001071588,0.000000000,11.121000000,-0.000038029,0.000000000
1707347314.934280,0.000135018,0.000000000,0.000661444,-0.000000000,-0.019495158,-0.000000000,0.001587149,0.000000000,0.019695528,-0.000000000,0.001071588,0.000000000,11.122000000,-0.000038029,0.000000000
1707347314.935658,0.000135018,0.000000000,0.000661444,-0.000000000,-0.019495158,-0.000000000,0.001587149,0.000000000,0.019695528,-0.000000000,0.001071588,0.000000000,11.123000000,-0.000038029,0.000000000
1707347314.936809,0.000135018,0.000000000,0.000661444,-0.000000000,-0.019495158,-0.000000000,0.001587149,0.000000000,0.019695528,-0.000000000,0.001071588,0.000000000,11.124000000,-0.000038029,0.000000000
1707347314.937452,0.000135018,0.000000000,0.000661444,-0.000000000,-0.019495158,-0.000000000,0.001587149,0.000000000,0.019695528,-0.000000000,0.001071588,0.000000000,11.125000000,-0.000038029,0.000000000
1707347314.939035,0.000135018,0.000000000,0.000661444,-0.000000000,-0.019495158,-0.000000000,0.001587149,0.000000000,0.019695528,-0.000000000,0.001071588,0.000000000,11.126000000,-0.000038029,0.000000000
1707347314.940159,0.000135018,0.000000000,0.000661444,-0.000000000,-0.019495158,-0.000000000,0.001587149,0.000000000,0.019695528,-0.000000000,0.001071588,0.000000000,11.127000000,-0.000038029,0.000000000
1707347314.940629,0.000135018,0.000000000,0.000661444,-0.000000000,-0.019495158,-0.000000000,0.001587149,0.000000000,0.019695528,-0.000000000,0.001071588,0.000000000,11.128000000,-0.000038029,0.000000000
1707347314.941853,0.000135018,0.000000000,0.000661444,-0.000000000,-0.019495158,-0.000000000,0.001587149,0.000000000,0.019695528,-0.000000000,0.001071588,0.000000000,11.129000000,-0.000038029,0.000000000
1707347314.943219,0.000135018,0.000000000,0.000661444,-0.000000000,-0.019495158,-0.000000000,0.001587149,0.000000000,0.019695528,-0.000000000,0.001071588,0.000000000,11.130000000,-0.000038029,0.000000000
1707347314.944026,0.000135018,0.000000000,0.000661444,-0.000000000,-0.019495158,-0.000000000,0.001587149,0.000000000,0.019695528,-0.000000000,0.001071588,0.000000000,11.131000000,-0.000038029,0.000000000
1707347314.945767,0.000135018,0.000000000,0.000661444,-0.000000000,-0.019495158,-0.000000000,0.001587149,0.000000000,0.019695528,-0.000000000,0.001071588,0.000000000,11.132000000,-0.000038029,0.000000000
1707347314.946359,0.000135018,0.000000000,0.000661444,-0.000000000,-0.019495158,-0.000000000,0.001587149,0.000000000,0.019695528,-0.000000000,0.001071588,0.000000000,11.133000000,-0.000038029,0.000000000
1707347314.947549,0.000135018,0.000000000,0.000661444,-0.000000000,-0.019495158,-0.000000000,0.001587149,0.000000000,0.019695528,-0.000000000,0.001071588,0.000000000,11.134000000,-0.000038029,0.000000000
1707347314.949182,0.000135018,0.000000000,0.000661444,-0.000000000,-0.019495158,-0.000000000,0.001587149,0.000000000,0.019695528,-0.000000000,0.001071588,0.000000000,11.135000000,-0.000038029,0.000000000
1707347314.949690,0.000135018,0.000000000,0.000661444,-0.000000000,-0.019495158,-0.000000000,0.001587149,0.000000000,0.019695528,-0.000000000,0.001071588,0.000000000,11.136000000,-0.000038029,0.000000000
1707347314.951039,0.000135018,0.000000000,0.000661444,-0.000000000,-0.019495158,-0.000000000,0.001587149,0.000000000,0.019695528,-0.000000000,0.001071588,0.000000000,11.137000000,-0.000038029,0.000000000
1707347314.952208,0.000135018,0.000000000,0.000661444,-0.000000000,-0.019495158,-0.000000000,0.001587149,0.000000000,0.019695528,-0.000000000,0.001071588,0.000000000,11.138000000,-0.000038029,0.000000000
1707347314.952805,0.000135018,0.000000000,0.000661444,-0.000000000,-0.019495158,-0.000000000,0.001587149,0.000000000,0.019695528,-0.000000000,0.001071588,0.000000000,11.139000000,-0.000038029,0.000000000
1707347314.954116,0.000135018,0.000000000,0.000661444,-0.000000000,-0.019495158,-0.000000000,0.001587149,0.000000000,0.019695528,-0.000000000,0.001071588,0.000000000,11.140000000,-0.000038029,0.000000000
1707347314.955250,0.000135018,0.000000000,0.000661444,-0.000000000,-0.019495158,-0.000000000,0.001587149,0.000000000,0.019695528,-0.000000000,0.001071588,0.000000000,11.141000000,-0.000038029,0.000000000
1707347314.956426,0.000135018,0.000000000,0.000661444,-0.000000000,-0.019495158,-0.000000000,0.001587149,0.000000000,0.019695528,-0.000000000,0.001071588,0.000000000,11.142000000,-0.000038029,0.000000000
1707347314.957056,0.000135018,0.000000000,0.000661444,-0.000000000,-0.019495158,-0.000000000,0.001587149,0.000000000,0.019695528,-0.000000000,0.001071588,0.000000000,11.143000000,-0.000038029,0.000000000
1707347314.958165,0.000135018,0.000000000,0.000661444,-0.000000000,-0.019495158,-0.000000000,0.001587149,0.000000000,0.019695528,-0.000000000,0.001071588,0.000000000,11.144000000,-0.000038029,0.000000000
1707347314.958974,0.000135018,0.000000000,0.000661444,-0.000000000,-0.019495158,-0.000000000,0.001587149,0.000000000,0.019695528,-0.000000000,0.001071588,0.000000000,11.145000000,-0.000038029,0.000000000
1707347314.960180,0.000135018,0.000000000,0.000661444,-0.000000000,-0.019495158,-0.000000000,0.001587149,0.000000000,0.019695528,-0.000000000,0.001071588,0.000000000,11.146000000,-0.000038029,0.000000000
1707347314.960897,0.000135018,0.000000000,0.000661444,-0.000000000,-0.019495158,-0.000000000,0.001587149,0.000000000,0.019695528,-0.000000000,0.001071588,0.000000000,11.147000000,-0.000038029,0.000000000
1707347314.962312,0.000135018,0.000000000,0.000661444,-0.000000000,-0.019495158,-0.000000000,0.001587149,0.000000000,0.019695528,-0.000000000,0.001071588,0.000000000,11.148000000,-0.000038029,0.000000000
1707347314.964104,0.000135018,0.000000000,0.000661444,-0.000000000,-0.019495158,-0.000000000,0.001587149,0.000000000,0.019695528,-0.000000000,0.001071588,0.000000000,11.149000000,-0.000038029,0.000000000
1707347314.965031,0.000135018,0.000000000,0.000661444,-0.000000000,-0.019495158,-0.000000000,0.001587149,0.000000000,0.019695528,-0.000000000,0.001071588,0.000000000,11.150000000,-0.000038029,0.000000000
1707347314.965084,0.000135018,0.000000000,0.000661444,-0.000000000,-0.019495158,-0.000000000,0.001587149,0.000000000,0.019695528,-0.000000000,0.001071588,0.000000000,11.151000000,-0.000038029,0.000000000
1707347314.966329,0.000135018,0.000000000,0.000661444,-0.000000000,-0.019495158,-0.000000000,0.001587149,0.000000000,0.019695528,-0.000000000,0.001071588,0.000000000,11.152000000,-0.000038029,0.000000000
1707347314.967467,0.000135018,0.000000000,0.000661444,-0.000000000,-0.019495158,-0.000000000,0.001587149,0.000000000,0.019695528,-0.000000000,0.001071588,0.000000000,11.153000000,-0.000038029,0.000000000
1707347314.968557,0.000135018,0.000000000,0.000661444,-0.000000000,-0.019495158,-0.000000000,0.001587149,0.000000000,0.019695528,-0.000000000,0.001071588,0.000000000,11.154000000,-0.000038029,0.000000000
1707347314.969382,0.000135018,0.000000000,0.000661444,-0.000000000,-0.019495158,-0.000000000,0.001587149,0.000000000,0.019695528,-0.000000000,0.001071588,0.000000000,11.155000000,-0.000038029,0.000000000
1707347314.970659,0.000135018,0.000000000,0.000661444,-0.000000000,-0.019495158,-0.000000000,0.001587149,0.000000000,0.019695528,-0.000000000,0.001071588,0.000000000,11.156000000,-0.000038029,0.000000000
1707347314.971815,0.000135018,0.000000000,0.000661444,-0.000000000,-0.019495158,-0.000000000,0.001587149,0.000000000,0.019695528,-0.000000000,0.001071588,0.000000000,11.157000000,-0.000038029,0.000000000
1707347314.972421,0.000135018,0.000000000,0.000661444,-0.000000000,-0.019495158,-0.000000000,0.001587149,0.000000000,0.019695528,-0.000000000,0.001071588,0.000000000,11.158000000,-0.000038029,0.000000000
1707347314.974040,0.000135018,0.000000000,0.000661444,-0.000000000,-0.019495158,-0.000000000,0.001587149,0.000000000,0.019695528,-0.000000000,0.001071588,0.000000000,11.159000000,-0.000038029,0.000000000
1707347314.975689,0.000135018,0.000000000,0.000661444,-0.000000000,-0.019495158,-0.000000000,0.001587149,0.000000000,0.019695528,-0.000000000,0.001071588,0.000000000,11.160000000,-0.000038029,0.000000000
1707347314.976809,0.000135018,0.000000000,0.000661444,-0.000000000,-0.019495158,-0.000000000,0.001587149,0.000000000,0.019695528,-0.000000000,0.001071588,0.000000000,11.162000000,-0.000038029,0.000000000
1707347314.978387,0.000135018,0.000000000,0.000661444,-0.000000000,-0.019495158,-0.000000000,0.001587149,0.000000000,0.019695528,-0.000000000,0.001071588,0.000000000,11.163000000,-0.000038029,0.000000000
1707347314.979462,0.000135018,0.000000000,0.000661444,-0.000000000,-0.019495158,-0.000000000,0.001587149,0.000000000,0.019695528,-0.000000000,0.001071588,0.000000000,11.164000000,-0.000038029,0.000000000
1707347314.980003,0.000135018,0.000000000,0.000661444,-0.000000000,-0.019495158,-0.000000000,0.001587149,0.000000000,0.019695528,-0.000000000,0.001071588,0.000000000,11.165000000,-0.000038029,0.000000000
1707347314.981272,0.000135018,0.000000000,0.000661444,-0.000000000,-0.019495158,-0.000000000,0.001587149,0.000000000,0.019695528,-0.000000000,0.001071588,0.000000000,11.166000000,-0.000038029,0.000000000
1707347314.982513,0.000135018,0.000000000,0.000661444,-0.000000000,-0.019495158,-0.000000000,0.001587149,0.000000000,0.019695528,-0.000000000,0.001071588,0.000000000,11.167000000,-0.000038029,0.000000000
1707347314.983783,0.000135018,0.000000000,0.000661444,-0.000000000,-0.019495158,-0.000000000,0.001587149,0.000000000,0.019695528,-0.000000000,0.001071588,0.000000000,11.168000000,-0.000038029,0.000000000
1707347314.984348,0.000135018,0.000000000,0.000661444,-0.000000000,-0.019495158,-0.000000000,0.001587149,0.000000000,0.019695528,-0.000000000,0.001071588,0.000000000,11.169000000,-0.000038029,0.000000000
1707347314.985891,0.000135018,0.000000000,0.000661444,-0.000000000,-0.019495158,-0.000000000,0.001587149,0.000000000,0.019695528,-0.000000000,0.001071588,0.000000000,11.170000000,-0.000038029,0.000000000
1707347314.986600,0.000135018,0.000000000,0.000661444,-0.000000000,-0.019495158,-0.000000000,0.001587149,0.000000000,0.019695528,-0.000000000,0.001071588,0.000000000,11.171000000,-0.000038029,0.000000000
1707347314.987587,0.000135018,0.000000000,0.000661444,-0.000000000,-0.019495158,-0.000000000,0.001587149,0.000000000,0.019695528,-0.000000000,0.001071588,0.000000000,11.172000000,-0.000038029,0.000000000
1707347314.988925,0.000135018,0.000000000,0.000661444,-0.000000000,-0.019495158,-0.000000000,0.001587149,0.000000000,0.019695528,-0.000000000,0.001071588,0.000000000,11.173000000,-0.000038029,0.000000000
1707347314.990007,0.000135018,0.000000000,0.000661444,-0.000000000,-0.019495158,-0.000000000,0.001587149,0.000000000,0.019695528,-0.000000000,0.001071588,0.000000000,11.174000000,-0.000038029,0.000000000
1707347314.990608,0.000135018,0.000000000,0.000661444,-0.000000000,-0.019495158,-0.000000000,0.001587149,0.000000000,0.019695528,-0.000000000,0.001071588,0.000000000,11.175000000,-0.000038029,0.000000000
1707347314.991976,0.000135018,0.000000000,0.000661444,-0.000000000,-0.019495158,-0.000000000,0.001587149,0.000000000,0.019695528,-0.000000000,0.001071588,0.000000000,11.176000000,-0.000038029,0.000000000
1707347314.993205,0.000135018,0.000000000,0.000661444,-0.000000000,-0.019495158,-0.000000000,0.001587149,0.000000000,0.019695528,-0.000000000,0.001071588,0.000000000,11.177000000,-0.000038029,0.000000000
1707347314.993705,0.000135018,0.000000000,0.000661444,-0.000000000,-0.019495158,-0.000000000,0.001587149,0.000000000,0.019695528,-0.000000000,0.001071588,0.000000000,11.178000000,-0.000038029,0.000000000
1707347314.994873,0.000135018,0.000000000,0.000661444,-0.000000000,-0.019495158,-0.000000000,0.001587149,0.000000000,0.019695528,-0.000000000,0.001071588,0.000000000,11.179000000,-0.000038029,0.000000000
1707347314.995620,0.000135018,0.000000000,0.000661444,-0.000000000,-0.019495158,-0.000000000,0.001587149,0.000000000,0.019695528,-0.000000000,0.001071588,0.000000000,11.180000000,-0.000038029,0.000000000
1707347314.996926,0.000135018,0.000000000,0.000661444,-0.000000000,-0.019495158,-0.000000000,0.001587149,0.000000000,0.019695528,-0.000000000,0.001071588,0.000000000,11.181000000,-0.000038029,0.000000000
1707347314.998142,0.000135018,0.000000000,0.000661444,-0.000000000,-0.019495158,-0.000000000,0.001587149,0.000000000,0.019695528,-0.000000000,0.001071588,0.000000000,11.182000000,-0.000038029,0.000000000
1707347314.999403,0.000135018,0.000000000,0.000661444,-0.000000000,-0.019495158,-0.000000000,0.001587149,0.000000000,0.019695528,-0.000000000,0.001071588,0.000000000,11.183000000,-0.000038029,0.000000000
1707347315.000435,0.000135018,0.000000000,0.000661444,-0.000000000,-0.019495158,-0.000000000,0.001587149,0.000000000,0.019695528,-0.000000000,0.001071588,0.000000000,11.184000000,-0.000038029,0.000000000
1707347315.001021,0.000135018,0.000000000,0.000661444,-0.000000000,-0.019495158,-0.000000000,0.001587149,0.000000000,0.019695528,-0.000000000,0.001071588,0.000000000,11.185000000,-0.000038029,0.000000000
1707347315.001608,0.000135018,0.000000000,0.000661444,-0.000000000,-0.019495158,-0.000000000,0.001587149,0.000000000,0.019695528,-0.000000000,0.001071588,0.000000000,11.186000000,-0.000038029,0.000000000
1707347315.002792,0.000135018,0.000000000,0.000661444,-0.000000000,-0.019495158,-0.000000000,0.001587149,0.000000000,0.019695528,-0.000000000,0.001071588,0.000000000,11.187000000,-0.000038029,0.000000000
1707347315.003938,0.000135018,0.000000000,0.000661444,-0.000000000,-0.019495158,-0.000000000,0.001587149,0.000000000,0.019695528,-0.000000000,0.001071588,0.000000000,11.188000000,-0.000038029,0.000000000
1707347315.004707,0.000135018,0.000000000,0.000661444,-0.000000000,-0.019495158,-0.000000000,0.001587149,0.000000000,0.019695528,-0.000000000,0.001071588,0.000000000,11.189000000,-0.000038029,0.000000000
1707347315.005915,0.000135018,0.000000000,0.000661444,-0.000000000,-0.019495158,-0.000000000,0.001587149,0.000000000,0.019695528,-0.000000000,0.001071588,0.000000000,11.190000000,-0.000038029,0.000000000
1707347315.007227,0.000135018,0.000000000,0.000661444,-0.000000000,-0.019495158,-0.000000000,0.001587149,0.000000000,0.019695528,-0.000000000,0.001071588,0.000000000,11.191000000,-0.000038029,0.000000000
1707347315.009063,0.000135018,0.000000000,0.000661444,-0.000000000,-0.019495158,-0.000000000,0.001587149,0.000000000,0.019695528,-0.000000000,0.001071588,0.000000000,11.192000000,-0.000038029,0.000000000
1707347315.010776,0.000135018,0.000000000,0.000661444,-0.000000000,-0.019495158,-0.000000000,0.001587149,0.000000000,0.019695528,-0.000000000,0.001071588,0.000000000,11.193000000,-0.000038029,0.000000000
1707347315.011459,0.000135018,0.000000000,0.000661444,-0.000000000,-0.019495158,-0.000000000,0.001587149,0.000000000,0.019695528,-0.000000000,0.001071588,0.000000000,11.194000000,-0.000038029,0.000000000
1707347315.013291,0.000135018,0.000000000,0.000661444,-0.000000000,-0.019495158,-0.000000000,0.001587149,0.000000000,0.019695528,-0.000000000,0.001071588,0.000000000,11.195000000,-0.000038029,0.000000000
1707347315.014239,0.000135018,0.000000000,0.000661444,-0.000000000,-0.019495158,-0.000000000,0.001587149,0.000000000,0.019695528,-0.000000000,0.001071588,0.000000000,11.196000000,-0.000038029,0.000000000
1707347315.015704,0.000135018,0.000000000,0.000661444,-0.000000000,-0.019495158,-0.000000000,0.001587149,0.000000000,0.019695528,-0.000000000,0.001071588,0.000000000,11.197000000,-0.000038029,0.000000000
1707347315.017685,0.000135018,0.000000000,0.000661444,-0.000000000,-0.019495158,-0.000000000,0.001587149,0.000000000,0.019695528,-0.000000000,0.001071588,0.000000000,11.198000000,-0.000038029,0.000000000
1707347315.017907,0.000135018,0.000000000,0.000661444,-0.000000000,-0.019495158,-0.000000000,0.001587149,0.000000000,0.019695528,-0.000000000,0.001071588,0.000000000,11.199000000,-0.000038029,0.000000000
1707347315.018751,0.000135018,0.000000000,0.000661444,-0.000000000,-0.019495158,-0.000000000,0.001587149,0.000000000,0.019695528,-0.000000000,0.001071588,0.000000000,11.200000000,-0.000038029,0.000000000
1707347315.019946,0.000135018,0.000000000,0.000661444,-0.000000000,-0.019495158,-0.000000000,0.001587149,0.000000000,0.019695528,-0.000000000,0.001071588,0.000000000,11.201000000,-0.000038029,0.000000000
1707347315.021210,0.000135018,0.000000000,0.000661444,-0.000000000,-0.019495158,-0.000000000,0.001587149,0.000000000,0.019695528,-0.000000000,0.001071588,0.000000000,11.202000000,-0.000038029,0.000000000
1707347315.023432,0.000135018,0.000000000,0.000661444,-0.000000000,-0.019495158,-0.000000000,0.001587149,0.000000000,0.019695528,-0.000000000,0.001071588,0.000000000,11.203000000,-0.000038029,0.000000000
1707347315.023676,0.000135018,0.000000000,0.000661444,-0.000000000,-0.019495158,-0.000000000,0.001587149,0.000000000,0.019695528,-0.000000000,0.001071588,0.000000000,11.204000000,-0.000038029,0.000000000
1707347315.025298,0.000135018,0.000000000,0.000661444,-0.000000000,-0.019495158,-0.000000000,0.001587149,0.000000000,0.019695528,-0.000000000,0.001071588,0.000000000,11.205000000,-0.000038029,0.000000000
1707347315.025805,0.000135018,0.000000000,0.000661444,-0.000000000,-0.019495158,-0.000000000,0.001587149,0.000000000,0.019695528,-0.000000000,0.001071588,0.000000000,11.206000000,-0.000038029,0.000000000
1707347315.027437,0.000135018,0.000000000,0.000661444,-0.000000000,-0.019495158,-0.000000000,0.001587149,0.000000000,0.019695528,-0.000000000,0.001071588,0.000000000,11.207000000,-0.000038029,0.000000000
1707347315.029544,0.000135018,0.000000000,0.000661444,-0.000000000,-0.019495158,-0.000000000,0.001587149,0.000000000,0.019695528,-0.000000000,0.001071588,0.000000000,11.208000000,-0.000038029,0.000000000
1707347315.030004,0.000135018,0.000000000,0.000661444,-0.000000000,-0.019495158,-0.000000000,0.001587149,0.000000000,0.019695528,-0.000000000,0.001071588,0.000000000,11.209000000,-0.000038029,0.000000000
1707347315.031316,0.000135018,0.000000000,0.000661444,-0.000000000,-0.019495158,-0.000000000,0.001587149,0.000000000,0.019695528,-0.000000000,0.001071588,0.000000000,11.210000000,-0.000038029,0.000000000
1707347315.033037,0.000135018,0.000000000,0.000661444,-0.000000000,-0.019495158,-0.000000000,0.001587149,0.000000000,0.019695528,-0.000000000,0.001071588,0.000000000,11.211000000,-0.000038029,0.000000000
1707347315.033574,0.000135018,0.000000000,0.000661444,-0.000000000,-0.019495158,-0.000000000,0.001587149,0.000000000,0.019695528,-0.000000000,0.001071588,0.000000000,11.212000000,-0.000038029,0.000000000
1707347315.034993,0.000135018,0.000000000,0.000661444,-0.000000000,-0.019495158,-0.000000000,0.001587149,0.000000000,0.019695528,-0.000000000,0.001071588,0.000000000,11.213000000,-0.000038029,0.000000000
1707347315.036344,0.000135018,0.000000000,0.000661444,-0.000000000,-0.019495158,-0.000000000,0.001587149,0.000000000,0.019695528,-0.000000000,0.001071588,0.000000000,11.214000000,-0.000038029,0.000000000
1707347315.037584,0.000135018,0.000000000,0.000661444,-0.000000000,-0.019495158,-0.000000000,0.001587149,0.000000000,0.019695528,-0.000000000,0.001071588,0.000000000,11.215000000,-0.000038029,0.000000000
1707347315.038759,0.000135018,0.000000000,0.000661444,-0.000000000,-0.019495158,-0.000000000,0.001587149,0.000000000,0.019695528,-0.000000000,0.001071588,0.000000000,11.216000000,-0.000038029,0.000000000
1707347315.039476,0.000135018,0.000000000,0.000661444,-0.000000000,-0.019495158,-0.000000000,0.001587149,0.000000000,0.019695528,-0.000000000,0.001071588,0.000000000,11.217000000,-0.000038029,0.000000000
1707347315.040596,0.000135018,0.000000000,0.000661444,-0.000000000,-0.019495158,-0.000000000,0.001587149,0.000000000,0.019695528,-0.000000000,0.001071588,0.000000000,11.218000000,-0.000038029,0.000000000
1707347315.041408,0.000135018,0.000000000,0.000661444,-0.000000000,-0.019495158,-0.000000000,0.001587149,0.000000000,0.019695528,-0.000000000,0.001071588,0.000000000,11.219000000,-0.000038029,0.000000000
1707347315.043460,0.000135018,0.000000000,0.000661444,-0.000000000,-0.019495158,-0.000000000,0.001587149,0.000000000,0.019695528,-0.000000000,0.001071588,0.000000000,11.220000000,-0.000038029,0.000000000
1707347315.043950,0.000135018,0.000000000,0.000661444,-0.000000000,-0.019495158,-0.000000000,0.001587149,0.000000000,0.019695528,-0.000000000,0.001071588,0.000000000,11.221000000,-0.000038029,0.000000000
1707347315.045796,0.000135018,0.000000000,0.000661444,-0.000000000,-0.019495158,-0.000000000,0.001587149,0.000000000,0.019695528,-0.000000000,0.001071588,0.000000000,11.222000000,-0.000038029,0.000000000
1707347315.046827,0.000135018,0.000000000,0.000661444,-0.000000000,-0.019495158,-0.000000000,0.001587149,0.000000000,0.019695528,-0.000000000,0.001071588,0.000000000,11.223000000,-0.000038029,0.000000000
1707347315.048782,0.000135018,0.000000000,0.000661444,-0.000000000,-0.019495158,-0.000000000,0.001587149,0.000000000,0.019695528,-0.000000000,0.001071588,0.000000000,11.224000000,-0.000038029,0.000000000
1707347315.050380,0.000135018,0.000000000,0.000661444,-0.000000000,-0.019495158,-0.000000000,0.001587149,0.000000000,0.019695528,-0.000000000,0.001071588,0.000000000,11.225000000,-0.000038029,0.000000000
1707347315.051654,0.000135018,0.000000000,0.000661444,-0.000000000,-0.019495158,-0.000000000,0.001587149,0.000000000,0.019695528,-0.000000000,0.001071588,0.000000000,11.226000000,-0.000038029,0.000000000
1707347315.052594,0.000135018,0.000000000,0.000661444,-0.000000000,-0.019495158,-0.000000000,0.001587149,0.000000000,0.019695528,-0.000000000,0.001071588,0.000000000,11.227000000,-0.000038029,0.000000000
1707347315.053740,0.000135018,0.000000000,0.000661444,-0.000000000,-0.019495158,-0.000000000,0.001587149,0.000000000,0.019695528,-0.000000000,0.001071588,0.000000000,11.228000000,-0.000038029,0.000000000
1707347315.055480,0.000135018,0.000000000,0.000661444,-0.000000000,-0.019495158,-0.000000000,0.001587149,0.000000000,0.019695528,-0.000000000,0.001071588,0.000000000,11.229000000,-0.000038029,0.000000000
1707347315.055613,0.000135018,0.000000000,0.000661444,-0.000000000,-0.019495158,-0.000000000,0.001587149,0.000000000,0.019695528,-0.000000000,0.001071588,0.000000000,11.230000000,-0.000038029,0.000000000
1707347315.057905,0.000135018,0.000000000,0.000661444,-0.000000000,-0.019495158,-0.000000000,0.001587149,0.000000000,0.019695528,-0.000000000,0.001071588,0.000000000,11.231000000,-0.000038029,0.000000000
1707347315.059508,0.000135018,0.000000000,0.000661444,-0.000000000,-0.019495158,-0.000000000,0.001587149,0.000000000,0.019695528,-0.000000000,0.001071588,0.000000000,11.232000000,-0.000038029,0.000000000
1707347315.061335,0.000135018,0.000000000,0.000661444,-0.000000000,-0.019495158,-0.000000000,0.001587149,0.000000000,0.019695528,-0.000000000,0.001071588,0.000000000,11.233000000,-0.000038029,0.000000000
1707347315.061891,0.000135018,0.000000000,0.000661444,-0.000000000,-0.019495158,-0.000000000,0.001587149,0.000000000,0.019695528,-0.000000000,0.001071588,0.000000000,11.234000000,-0.000038029,0.000000000
1707347315.062789,0.000135018,0.000000000,0.000661444,-0.000000000,-0.019495158,-0.000000000,0.001587149,0.000000000,0.019695528,-0.000000000,0.001071588,0.000000000,11.235000000,-0.000038029,0.000000000
1707347315.063956,0.000135018,0.000000000,0.000661444,-0.000000000,-0.019495158,-0.000000000,0.001587149,0.000000000,0.019695528,-0.000000000,0.001071588,0.000000000,11.236000000,-0.000038029,0.000000000
1707347315.065393,0.000135018,0.000000000,0.000661444,-0.000000000,-0.019495158,-0.000000000,0.001587149,0.000000000,0.019695528,-0.000000000,0.001071588,0.000000000,11.237000000,-0.000038029,0.000000000
1707347315.066921,0.000135018,0.000000000,0.000661444,-0.000000000,-0.019495158,-0.000000000,0.001587149,0.000000000,0.019695528,-0.000000000,0.001071588,0.000000000,11.238000000,-0.000038029,0.000000000
1707347315.068013,0.000135018,0.000000000,0.000661444,-0.000000000,-0.019495158,-0.000000000,0.001587149,0.000000000,0.019695528,-0.000000000,0.001071588,0.000000000,11.239000000,-0.000038029,0.000000000
1707347315.069182,0.000135018,0.000000000,0.000661444,-0.000000000,-0.019495158,-0.000000000,0.001587149,0.000000000,0.019695528,-0.000000000,0.001071588,0.000000000,11.240000000,-0.000038029,0.000000000
1707347315.069839,0.000135018,0.000000000,0.000661444,-0.000000000,-0.019495158,-0.000000000,0.001587149,0.000000000,0.019695528,-0.000000000,0.001071588,0.000000000,11.241000000,-0.000038029,0.000000000
1707347315.071550,0.000135018,0.000000000,0.000661444,-0.000000000,-0.019495158,-0.000000000,0.001587149,0.000000000,0.019695528,-0.000000000,0.001071588,0.000000000,11.242000000,-0.000038029,0.000000000
1707347315.072417,0.000135018,0.000000000,0.000661444,-0.000000000,-0.019495158,-0.000000000,0.001587149,0.000000000,0.019695528,-0.000000000,0.001071588,0.000000000,11.243000000,-0.000038029,0.000000000
1707347315.074350,0.000135018,0.000000000,0.000661444,-0.000000000,-0.019495158,-0.000000000,0.001587149,0.000000000,0.019695528,-0.000000000,0.001071588,0.000000000,11.244000000,-0.000038029,0.000000000
1707347315.075955,0.000135018,0.000000000,0.000661444,-0.000000000,-0.019495158,-0.000000000,0.001587149,0.000000000,0.019695528,-0.000000000,0.001071588,0.000000000,11.245000000,-0.000038029,0.000000000
1707347315.076528,0.000135018,0.000000000,0.000661444,-0.000000000,-0.019495158,-0.000000000,0.001587149,0.000000000,0.019695528,-0.000000000,0.001071588,0.000000000,11.246000000,-0.000038029,0.000000000
1707347315.077719,0.000135018,0.000000000,0.000661444,-0.000000000,-0.019495158,-0.000000000,0.001587149,0.000000000,0.019695528,-0.000000000,0.001071588,0.000000000,11.247000000,-0.000038029,0.000000000
1707347315.078307,0.000135018,0.000000000,0.000661444,-0.000000000,-0.019495158,-0.000000000,0.001587149,0.000000000,0.019695528,-0.000000000,0.001071588,0.000000000,11.248000000,-0.000038029,0.000000000
1707347315.079514,0.000135018,0.000000000,0.000661444,-0.000000000,-0.019495158,-0.000000000,0.001587149,0.000000000,0.019695528,-0.000000000,0.001071588,0.000000000,11.249000000,-0.000038029,0.000000000
1707347315.081001,0.000135018,0.000000000,0.000661444,-0.000000000,-0.019495158,-0.000000000,0.001587149,0.000000000,0.019695528,-0.000000000,0.001071588,0.000000000,11.250000000,-0.000038029,0.000000000
1707347315.082422,0.000135018,0.000000000,0.000661444,-0.000000000,-0.019495158,-0.000000000,0.001587149,0.000000000,0.019695528,-0.000000000,0.001071588,0.000000000,11.251000000,-0.000038029,0.000000000
1707347315.083786,0.000135018,0.000000000,0.000661444,-0.000000000,-0.019495158,-0.000000000,0.001587149,0.000000000,0.019695528,-0.000000000,0.001071588,0.000000000,11.252000000,-0.000038029,0.000000000
1707347315.085206,0.000135018,0.000000000,0.000661444,-0.000000000,-0.019495158,-0.000000000,0.001587149,0.000000000,0.019695528,-0.000000000,0.001071588,0.000000000,11.253000000,-0.000038029,0.000000000
1707347315.086379,0.000135018,0.000000000,0.000661444,-0.000000000,-0.019495158,-0.000000000,0.001587149,0.000000000,0.019695528,-0.000000000,0.001071588,0.000000000,11.254000000,-0.000038029,0.000000000
1707347315.086501,0.000135018,0.000000000,0.000661444,-0.000000000,-0.019495158,-0.000000000,0.001587149,0.000000000,0.019695528,-0.000000000,0.001071588,0.000000000,11.255000000,-0.000038029,0.000000000
1707347315.088121,0.000135018,0.000000000,0.000661444,-0.000000000,-0.019495158,-0.000000000,0.001587149,0.000000000,0.019695528,-0.000000000,0.001071588,0.000000000,11.256000000,-0.000038029,0.000000000
1707347315.088657,0.000135018,0.000000000,0.000661444,-0.000000000,-0.019495158,-0.000000000,0.001587149,0.000000000,0.019695528,-0.000000000,0.001071588,0.000000000,11.257000000,-0.000038029,0.000000000
1707347315.089279,0.000135018,0.000000000,0.000661444,-0.000000000,-0.019495158,-0.000000000,0.001587149,0.000000000,0.019695528,-0.000000000,0.001071588,0.000000000,11.258000000,-0.000038029,0.000000000
1707347315.090438,0.000135018,0.000000000,0.000661444,-0.000000000,-0.019495158,-0.000000000,0.001587149,0.000000000,0.019695528,-0.000000000,0.001071588,0.000000000,11.259000000,-0.000038029,0.000000000
1707347315.091853,0.000135018,0.000000000,0.000661444,-0.000000000,-0.019495158,-0.000000000,0.001587149,0.000000000,0.019695528,-0.000000000,0.001071588,0.000000000,11.260000000,-0.000038029,0.000000000
1707347315.093179,0.000135018,0.000000000,0.000661444,-0.000000000,-0.019495158,-0.000000000,0.001587149,0.000000000,0.019695528,-0.000000000,0.001071588,0.000000000,11.261000000,-0.000038029,0.000000000
1707347315.094395,0.000135018,0.000000000,0.000661444,-0.000000000,-0.019495158,-0.000000000,0.001587149,0.000000000,0.019695528,-0.000000000,0.001071588,0.000000000,11.262000000,-0.000038029,0.000000000
1707347315.095794,0.000135018,0.000000000,0.000661444,-0.000000000,-0.019495158,-0.000000000,0.001587149,0.000000000,0.019695528,-0.000000000,0.001071588,0.000000000,11.263000000,-0.000038029,0.000000000
1707347315.096607,0.000135018,0.000000000,0.000661444,-0.000000000,-0.019495158,-0.000000000,0.001587149,0.000000000,0.019695528,-0.000000000,0.001071588,0.000000000,11.264000000,-0.000038029,0.000000000
1707347315.097913,0.000135018,0.000000000,0.000661444,-0.000000000,-0.019495158,-0.000000000,0.001587149,0.000000000,0.019695528,-0.000000000,0.001071588,0.000000000,11.265000000,-0.000038029,0.000000000
1707347315.099064,0.000135018,0.000000000,0.000661444,-0.000000000,-0.019495158,-0.000000000,0.001587149,0.000000000,0.019695528,-0.000000000,0.001071588,0.000000000,11.266000000,-0.000038029,0.000000000
1707347315.099862,0.000135018,0.000000000,0.000661444,-0.000000000,-0.019495158,-0.000000000,0.001587149,0.000000000,0.019695528,-0.000000000,0.001071588,0.000000000,11.267000000,-0.000038029,0.000000000
1707347315.101504,0.000135018,0.000000000,0.000661444,-0.000000000,-0.019495158,-0.000000000,0.001587149,0.000000000,0.019695528,-0.000000000,0.001071588,0.000000000,11.268000000,-0.000038029,0.000000000
1707347315.102341,0.000135018,0.000000000,0.000661444,-0.000000000,-0.019495158,-0.000000000,0.001587149,0.000000000,0.019695528,-0.000000000,0.001071588,0.000000000,11.269000000,-0.000038029,0.000000000
1707347315.102937,0.000135018,0.000000000,0.000661444,-0.000000000,-0.019495158,-0.000000000,0.001587149,0.000000000,0.019695528,-0.000000000,0.001071588,0.000000000,11.270000000,-0.000038029,0.000000000
1707347315.104120,0.000135018,0.000000000,0.000661444,-0.000000000,-0.019495158,-0.000000000,0.001587149,0.000000000,0.019695528,-0.000000000,0.001071588,0.000000000,11.271000000,-0.000038029,0.000000000
1707347315.106018,0.000135018,0.000000000,0.000661444,-0.000000000,-0.019495158,-0.000000000,0.001587149,0.000000000,0.019695528,-0.000000000,0.001071588,0.000000000,11.272000000,-0.000038029,0.000000000
1707347315.107104,0.000135018,0.000000000,0.000661444,-0.000000000,-0.019495158,-0.000000000,0.001587149,0.000000000,0.019695528,-0.000000000,0.001071588,0.000000000,11.273000000,-0.000038029,0.000000000
1707347315.108218,0.000135018,0.000000000,0.000661444,-0.000000000,-0.019495158,-0.000000000,0.001587149,0.000000000,0.019695528,-0.000000000,0.001071588,0.000000000,11.274000000,-0.000038029,0.000000000
1707347315.108893,0.000135018,0.000000000,0.000661444,-0.000000000,-0.019495158,-0.000000000,0.001587149,0.000000000,0.019695528,-0.000000000,0.001071588,0.000000000,11.275000000,-0.000038029,0.000000000
1707347315.110138,0.000135018,0.000000000,0.000661444,-0.000000000,-0.019495158,-0.000000000,0.001587149,0.000000000,0.019695528,-0.000000000,0.001071588,0.000000000,11.276000000,-0.000038029,0.000000000
1707347315.111309,0.000135018,0.000000000,0.000661444,-0.000000000,-0.019495158,-0.000000000,0.001587149,0.000000000,0.019695528,-0.000000000,0.001071588,0.000000000,11.277000000,-0.000038029,0.000000000
1707347315.111965,0.000135018,0.000000000,0.000661444,-0.000000000,-0.019495158,-0.000000000,0.001587149,0.000000000,0.019695528,-0.000000000,0.001071588,0.000000000,11.278000000,-0.000038029,0.000000000
1707347315.113685,0.000135018,0.000000000,0.000661444,-0.000000000,-0.019495158,-0.000000000,0.001587149,0.000000000,0.019695528,-0.000000000,0.001071588,0.000000000,11.279000000,-0.000038029,0.000000000
1707347315.114773,0.000135018,0.000000000,0.000661444,-0.000000000,-0.019495158,-0.000000000,0.001587149,0.000000000,0.019695528,-0.000000000,0.001071588,0.000000000,11.281000000,-0.000038029,0.000000000
1707347315.115975,0.000135018,0.000000000,0.000661444,-0.000000000,-0.019495158,-0.000000000,0.001587149,0.000000000,0.019695528,-0.000000000,0.001071588,0.000000000,11.282000000,-0.000038029,0.000000000
1707347315.117224,0.000135018,0.000000000,0.000661444,-0.000000000,-0.019495158,-0.000000000,0.001587149,0.000000000,0.019695528,-0.000000000,0.001071588,0.000000000,11.283000000,-0.000038029,0.000000000
1707347315.118427,0.000135018,0.000000000,0.000661444,-0.000000000,-0.019495158,-0.000000000,0.001587149,0.000000000,0.019695528,-0.000000000,0.001071588,0.000000000,11.284000000,-0.000038029,0.000000000
1707347315.119045,0.000135018,0.000000000,0.000661444,-0.000000000,-0.019495158,-0.000000000,0.001587149,0.000000000,0.019695528,-0.000000000,0.001071588,0.000000000,11.285000000,-0.000038029,0.000000000
1707347315.120346,0.000135018,0.000000000,0.000661444,-0.000000000,-0.019495158,-0.000000000,0.001587149,0.000000000,0.019695528,-0.000000000,0.001071588,0.000000000,11.286000000,-0.000038029,0.000000000
1707347315.121576,0.000135018,0.000000000,0.000661444,-0.000000000,-0.019495158,-0.000000000,0.001587149,0.000000000,0.019695528,-0.000000000,0.001071588,0.000000000,11.287000000,-0.000038029,0.000000000
1707347315.122158,0.000135018,0.000000000,0.000661444,-0.000000000,-0.019495158,-0.000000000,0.001587149,0.000000000,0.019695528,-0.000000000,0.001071588,0.000000000,11.288000000,-0.000038029,0.000000000
1707347315.123499,0.000135018,0.000000000,0.000661444,-0.000000000,-0.019495158,-0.000000000,0.001587149,0.000000000,0.019695528,-0.000000000,0.001071588,0.000000000,11.289000000,-0.000038029,0.000000000
1707347315.124589,0.000135018,0.000000000,0.000661444,-0.000000000,-0.019495158,-0.000000000,0.001587149,0.000000000,0.019695528,-0.000000000,0.001071588,0.000000000,11.290000000,-0.000038029,0.000000000
1707347315.125867,0.000135018,0.000000000,0.000661444,-0.000000000,-0.019495158,-0.000000000,0.001587149,0.000000000,0.019695528,-0.000000000,0.001071588,0.000000000,11.291000000,-0.000038029,0.000000000
1707347315.127000,0.000135018,0.000000000,0.000661444,-0.000000000,-0.019495158,-0.000000000,0.001587149,0.000000000,0.019695528,-0.000000000,0.001071588,0.000000000,11.292000000,-0.000038029,0.000000000
1707347315.127602,0.000135018,0.000000000,0.000661444,-0.000000000,-0.019495158,-0.000000000,0.001587149,0.000000000,0.019695528,-0.000000000,0.001071588,0.000000000,11.293000000,-0.000038029,0.000000000
1707347315.129570,0.000135018,0.000000000,0.000661444,-0.000000000,-0.019495158,-0.000000000,0.001587149,0.000000000,0.019695528,-0.000000000,0.001071588,0.000000000,11.294000000,-0.000038029,0.000000000
1707347315.130088,0.000135018,0.000000000,0.000661444,-0.000000000,-0.019495158,-0.000000000,0.001587149,0.000000000,0.019695528,-0.000000000,0.001071588,0.000000000,11.295000000,-0.000038029,0.000000000
1707347315.131286,0.000135018,0.000000000,0.000661444,-0.000000000,-0.019495158,-0.000000000,0.001587149,0.000000000,0.019695528,-0.000000000,0.001071588,0.000000000,11.296000000,-0.000038029,0.000000000
1707347315.131823,0.000135018,0.000000000,0.000661444,-0.000000000,-0.019495158,-0.000000000,0.001587149,0.000000000,0.019695528,-0.000000000,0.001071588,0.000000000,11.297000000,-0.000038029,0.000000000
1707347315.133080,0.000135018,0.000000000,0.000661444,-0.000000000,-0.019495158,-0.000000000,0.001587149,0.000000000,0.019695528,-0.000000000,0.001071588,0.000000000,11.298000000,-0.000038029,0.000000000
1707347315.134290,0.000135018,0.000000000,0.000661444,-0.000000000,-0.019495158,-0.000000000,0.001587149,0.000000000,0.019695528,-0.000000000,0.001071588,0.000000000,11.299000000,-0.000038029,0.000000000
1707347315.135497,0.000135018,0.000000000,0.000661444,-0.000000000,-0.019495158,-0.000000000,0.001587149,0.000000000,0.019695528,-0.000000000,0.001071588,0.000000000,11.300000000,-0.000038029,0.000000000
1707347315.136739,0.000135018,0.000000000,0.000661444,-0.000000000,-0.019495158,-0.000000000,0.001587149,0.000000000,0.019695528,-0.000000000,0.001071588,0.000000000,11.301000000,-0.000038029,0.000000000
1707347315.137824,0.000135018,0.000000000,0.000661444,-0.000000000,-0.019495158,-0.000000000,0.001587149,0.000000000,0.019695528,-0.000000000,0.001071588,0.000000000,11.302000000,-0.000038029,0.000000000
1707347315.138366,0.000135018,0.000000000,0.000661444,-0.000000000,-0.019495158,-0.000000000,0.001587149,0.000000000,0.019695528,-0.000000000,0.001071588,0.000000000,11.303000000,-0.000038029,0.000000000
1707347315.139606,0.000135018,0.000000000,0.000661444,-0.000000000,-0.019495158,-0.000000000,0.001587149,0.000000000,0.019695528,-0.000000000,0.001071588,0.000000000,11.304000000,-0.000038029,0.000000000
1707347315.140810,0.000135018,0.000000000,0.000661444,-0.000000000,-0.019495158,-0.000000000,0.001587149,0.000000000,0.019695528,-0.000000000,0.001071588,0.000000000,11.305000000,-0.000038029,0.000000000
1707347315.141394,0.000135018,0.000000000,0.000661444,-0.000000000,-0.019495158,-0.000000000,0.001587149,0.000000000,0.019695528,-0.000000000,0.001071588,0.000000000,11.306000000,-0.000038029,0.000000000
1707347315.142659,0.000135018,0.000000000,0.000661444,-0.000000000,-0.019495158,-0.000000000,0.001587149,0.000000000,0.019695528,-0.000000000,0.001071588,0.000000000,11.307000000,-0.000038029,0.000000000
1707347315.143845,0.000135018,0.000000000,0.000661444,-0.000000000,-0.019495158,-0.000000000,0.001587149,0.000000000,0.019695528,-0.000000000,0.001071588,0.000000000,11.308000000,-0.000038029,0.000000000
1707347315.145453,0.000135018,0.000000000,0.000661444,-0.000000000,-0.019495158,-0.000000000,0.001587149,0.000000000,0.019695528,-0.000000000,0.001071588,0.000000000,11.309000000,-0.000038029,0.000000000
1707347315.145803,0.000135018,0.000000000,0.000661444,-0.000000000,-0.019495158,-0.000000000,0.001587149,0.000000000,0.019695528,-0.000000000,0.001071588,0.000000000,11.310000000,-0.000038029,0.000000000
1707347315.147858,0.000135018,0.000000000,0.000661444,-0.000000000,-0.019495158,-0.000000000,0.001587149,0.000000000,0.019695528,-0.000000000,0.001071588,0.000000000,11.311000000,-0.000038029,0.000000000
1707347315.148870,0.000135018,0.000000000,0.000661444,-0.000000000,-0.019495158,-0.000000000,0.001587149,0.000000000,0.019695528,-0.000000000,0.001071588,0.000000000,11.312000000,-0.000038029,0.000000000
1707347315.150005,0.000135018,0.000000000,0.000661444,-0.000000000,-0.019495158,-0.000000000,0.001587149,0.000000000,0.019695528,-0.000000000,0.001071588,0.000000000,11.314000000,-0.000038029,0.000000000
1707347315.151237,0.000135018,0.000000000,0.000661444,-0.000000000,-0.019495158,-0.000000000,0.001587149,0.000000000,0.019695528,-0.000000000,0.001071588,0.000000000,11.315000000,-0.000038029,0.000000000
1707347315.152542,0.000135018,0.000000000,0.000661444,-0.000000000,-0.019495158,-0.000000000,0.001587149,0.000000000,0.019695528,-0.000000000,0.001071588,0.000000000,11.316000000,-0.000038029,0.000000000
1707347315.153624,0.000135018,0.000000000,0.000661444,-0.000000000,-0.019495158,-0.000000000,0.001587149,0.000000000,0.019695528,-0.000000000,0.001071588,0.000000000,11.317000000,-0.000038029,0.000000000
1707347315.154155,0.000135018,0.000000000,0.000661444,-0.000000000,-0.019495158,-0.000000000,0.001587149,0.000000000,0.019695528,-0.000000000,0.001071588,0.000000000,11.318000000,-0.000038029,0.000000000
1707347315.155423,0.000135018,0.000000000,0.000661444,-0.000000000,-0.019495158,-0.000000000,0.001587149,0.000000000,0.019695528,-0.000000000,0.001071588,0.000000000,11.319000000,-0.000038029,0.000000000
1707347315.156597,0.000135018,0.000000000,0.000661444,-0.000000000,-0.019495158,-0.000000000,0.001587149,0.000000000,0.019695528,-0.000000000,0.001071588,0.000000000,11.320000000,-0.000038029,0.000000000
1707347315.157123,0.000135018,0.000000000,0.000661444,-0.000000000,-0.019495158,-0.000000000,0.001587149,0.000000000,0.019695528,-0.000000000,0.001071588,0.000000000,11.321000000,-0.000038029,0.000000000
1707347315.158731,0.000135018,0.000000000,0.000661444,-0.000000000,-0.019495158,-0.000000000,0.001587149,0.000000000,0.019695528,-0.000000000,0.001071588,0.000000000,11.322000000,-0.000038029,0.000000000
1707347315.160528,0.000135018,0.000000000,0.000661444,-0.000000000,-0.019495158,-0.000000000,0.001587149,0.000000000,0.019695528,-0.000000000,0.001071588,0.000000000,11.323000000,-0.000038029,0.000000000
1707347315.161169,0.000135018,0.000000000,0.000661444,-0.000000000,-0.019495158,-0.000000000,0.001587149,0.000000000,0.019695528,-0.000000000,0.001071588,0.000000000,11.324000000,-0.000038029,0.000000000
1707347315.162052,0.000135018,0.000000000,0.000661444,-0.000000000,-0.019495158,-0.000000000,0.001587149,0.000000000,0.019695528,-0.000000000,0.001071588,0.000000000,11.325000000,-0.000038029,0.000000000
1707347315.163046,0.000135018,0.000000000,0.000661444,-0.000000000,-0.019495158,-0.000000000,0.001587149,0.000000000,0.019695528,-0.000000000,0.001071588,0.000000000,11.326000000,-0.000038029,0.000000000
1707347315.164166,0.000135018,0.000000000,0.000661444,-0.000000000,-0.019495158,-0.000000000,0.001587149,0.000000000,0.019695528,-0.000000000,0.001071588,0.000000000,11.327000000,-0.000038029,0.000000000
1707347315.165118,0.000135018,0.000000000,0.000661444,-0.000000000,-0.019495158,-0.000000000,0.001587149,0.000000000,0.019695528,-0.000000000,0.001071588,0.000000000,11.328000000,-0.000038029,0.000000000
1707347315.165706,0.000135018,0.000000000,0.000661444,-0.000000000,-0.019495158,-0.000000000,0.001587149,0.000000000,0.019695528,-0.000000000,0.001071588,0.000000000,11.329000000,-0.000038029,0.000000000
1707347315.167523,0.000135018,0.000000000,0.000661444,-0.000000000,-0.019495158,-0.000000000,0.001587149,0.000000000,0.019695528,-0.000000000,0.001071588,0.000000000,11.330000000,-0.000038029,0.000000000
1707347315.168965,0.000135018,0.000000000,0.000661444,-0.000000000,-0.019495158,-0.000000000,0.001587149,0.000000000,0.019695528,-0.000000000,0.001071588,0.000000000,11.331000000,-0.000038029,0.000000000
1707347315.169947,0.000135018,0.000000000,0.000661444,-0.000000000,-0.019495158,-0.000000000,0.001587149,0.000000000,0.019695528,-0.000000000,0.001071588,0.000000000,11.332000000,-0.000038029,0.000000000
1707347315.170836,0.000135018,0.000000000,0.000661444,-0.000000000,-0.019495158,-0.000000000,0.001587149,0.000000000,0.019695528,-0.000000000,0.001071588,0.000000000,11.333000000,-0.000038029,0.000000000
1707347315.172843,0.000135018,0.000000000,0.000661444,-0.000000000,-0.019495158,-0.000000000,0.001587149,0.000000000,0.019695528,-0.000000000,0.001071588,0.000000000,11.335000000,-0.000038029,0.000000000
1707347315.173898,0.000135018,0.000000000,0.000661444,-0.000000000,-0.019495158,-0.000000000,0.001587149,0.000000000,0.019695528,-0.000000000,0.001071588,0.000000000,11.336000000,-0.000038029,0.000000000
1707347315.174920,0.000135018,0.000000000,0.000661444,-0.000000000,-0.019495158,-0.000000000,0.001587149,0.000000000,0.019695528,-0.000000000,0.001071588,0.000000000,11.338000000,-0.000038029,0.000000000
1707347315.176066,0.000135018,0.000000000,0.000661444,-0.000000000,-0.019495158,-0.000000000,0.001587149,0.000000000,0.019695528,-0.000000000,0.001071588,0.000000000,11.339000000,-0.000038029,0.000000000
1707347315.176668,0.000135018,0.000000000,0.000661444,-0.000000000,-0.019495158,-0.000000000,0.001587149,0.000000000,0.019695528,-0.000000000,0.001071588,0.000000000,11.340000000,-0.000038029,0.000000000
1707347315.177915,0.000135018,0.000000000,0.000661444,-0.000000000,-0.019495158,-0.000000000,0.001587149,0.000000000,0.019695528,-0.000000000,0.001071588,0.000000000,11.341000000,-0.000038029,0.000000000
1707347315.179137,0.000135018,0.000000000,0.000661444,-0.000000000,-0.019495158,-0.000000000,0.001587149,0.000000000,0.019695528,-0.000000000,0.001071588,0.000000000,11.342000000,-0.000038029,0.000000000
1707347315.180502,0.000135018,0.000000000,0.000661444,-0.000000000,-0.019495158,-0.000000000,0.001587149,0.000000000,0.019695528,-0.000000000,0.001071588,0.000000000,11.343000000,-0.000038029,0.000000000
1707347315.181532,0.000135018,0.000000000,0.000661444,-0.000000000,-0.019495158,-0.000000000,0.001587149,0.000000000,0.019695528,-0.000000000,0.001071588,0.000000000,11.344000000,-0.000038029,0.000000000
1707347315.182091,0.000135018,0.000000000,0.000661444,-0.000000000,-0.019495158,-0.000000000,0.001587149,0.000000000,0.019695528,-0.000000000,0.001071588,0.000000000,11.345000000,-0.000038029,0.000000000
1707347315.183544,0.000135018,0.000000000,0.000661444,-0.000000000,-0.019495158,-0.000000000,0.001587149,0.000000000,0.019695528,-0.000000000,0.001071588,0.000000000,11.346000000,-0.000038029,0.000000000
1707347315.184822,0.000135018,0.000000000,0.000661444,-0.000000000,-0.019495158,-0.000000000,0.001587149,0.000000000,0.019695528,-0.000000000,0.001071588,0.000000000,11.347000000,-0.000038029,0.000000000
1707347315.185986,0.000135018,0.000000000,0.000661444,-0.000000000,-0.019495158,-0.000000000,0.001587149,0.000000000,0.019695528,-0.000000000,0.001071588,0.000000000,11.348000000,-0.000038029,0.000000000
1707347315.187243,0.000135018,0.000000000,0.000661444,-0.000000000,-0.019495158,-0.000000000,0.001587149,0.000000000,0.019695528,-0.000000000,0.001071588,0.000000000,11.349000000,-0.000038029,0.000000000
1707347315.188285,0.000135018,0.000000000,0.000661444,-0.000000000,-0.019495158,-0.000000000,0.001587149,0.000000000,0.019695528,-0.000000000,0.001071588,0.000000000,11.350000000,-0.000038029,0.000000000
1707347315.188916,0.000135018,0.000000000,0.000661444,-0.000000000,-0.019495158,-0.000000000,0.001587149,0.000000000,0.019695528,-0.000000000,0.001071588,0.000000000,11.351000000,-0.000038029,0.000000000
1707347315.190056,0.000135018,0.000000000,0.000661444,-0.000000000,-0.019495158,-0.000000000,0.001587149,0.000000000,0.019695528,-0.000000000,0.001071588,0.000000000,11.352000000,-0.000038029,0.000000000
1707347315.191159,0.000135018,0.000000000,0.000661444,-0.000000000,-0.019495158,-0.000000000,0.001587149,0.000000000,0.019695528,-0.000000000,0.001071588,0.000000000,11.353000000,-0.000038029,0.000000000
1707347315.191724,0.000135018,0.000000000,0.000661444,-0.000000000,-0.019495158,-0.000000000,0.001587149,0.000000000,0.019695528,-0.000000000,0.001071588,0.000000000,11.354000000,-0.000038029,0.000000000
1707347315.192889,0.000135018,0.000000000,0.000661444,-0.000000000,-0.019495158,-0.000000000,0.001587149,0.000000000,0.019695528,-0.000000000,0.001071588,0.000000000,11.355000000,-0.000038029,0.000000000
1707347315.194060,0.000135018,0.000000000,0.000661444,-0.000000000,-0.019495158,-0.000000000,0.001587149,0.000000000,0.019695528,-0.000000000,0.001071588,0.000000000,11.356000000,-0.000038029,0.000000000
1707347315.194610,0.000135018,0.000000000,0.000661444,-0.000000000,-0.019495158,-0.000000000,0.001587149,0.000000000,0.019695528,-0.000000000,0.001071588,0.000000000,11.357000000,-0.000038029,0.000000000
1707347315.195845,0.000135018,0.000000000,0.000661444,-0.000000000,-0.019495158,-0.000000000,0.001587149,0.000000000,0.019695528,-0.000000000,0.001071588,0.000000000,11.358000000,-0.000038029,0.000000000
1707347315.197218,0.000135018,0.000000000,0.000661444,-0.000000000,-0.019495158,-0.000000000,0.001587149,0.000000000,0.019695528,-0.000000000,0.001071588,0.000000000,11.359000000,-0.000038029,0.000000000
1707347315.198587,0.000135018,0.000000000,0.000661444,-0.000000000,-0.019495158,-0.000000000,0.001587149,0.000000000,0.019695528,-0.000000000,0.001071588,0.000000000,11.360000000,-0.000038029,0.000000000
1707347315.199238,0.000135018,0.000000000,0.000661444,-0.000000000,-0.019495158,-0.000000000,0.001587149,0.000000000,0.019695528,-0.000000000,0.001071588,0.000000000,11.361000000,-0.000038029,0.000000000
1707347315.200135,0.000135018,0.000000000,0.000661444,-0.000000000,-0.019495158,-0.000000000,0.001587149,0.000000000,0.019695528,-0.000000000,0.001071588,0.000000000,11.362000000,-0.000038029,0.000000000
1707347315.201555,0.000135018,0.000000000,0.000661444,-0.000000000,-0.019495158,-0.000000000,0.001587149,0.000000000,0.019695528,-0.000000000,0.001071588,0.000000000,11.363000000,-0.000038029,0.000000000
1707347315.202666,0.000135018,0.000000000,0.000661444,-0.000000000,-0.019495158,-0.000000000,0.001587149,0.000000000,0.019695528,-0.000000000,0.001071588,0.000000000,11.364000000,-0.000038029,0.000000000
1707347315.203213,0.000135018,0.000000000,0.000661444,-0.000000000,-0.019495158,-0.000000000,0.001587149,0.000000000,0.019695528,-0.000000000,0.001071588,0.000000000,11.365000000,-0.000038029,0.000000000
1707347315.203810,0.000135018,0.000000000,0.000661444,-0.000000000,-0.019495158,-0.000000000,0.001587149,0.000000000,0.019695528,-0.000000000,0.001071588,0.000000000,11.366000000,-0.000038029,0.000000000
1707347315.204975,0.000135018,0.000000000,0.000661444,-0.000000000,-0.019495158,-0.000000000,0.001587149,0.000000000,0.019695528,-0.000000000,0.001071588,0.000000000,11.367000000,-0.000038029,0.000000000
1707347315.206179,0.000135018,0.000000000,0.000661444,-0.000000000,-0.019495158,-0.000000000,0.001587149,0.000000000,0.019695528,-0.000000000,0.001071588,0.000000000,11.368000000,-0.000038029,0.000000000
1707347315.206711,0.000135018,0.000000000,0.000661444,-0.000000000,-0.019495158,-0.000000000,0.001587149,0.000000000,0.019695528,-0.000000000,0.001071588,0.000000000,11.369000000,-0.000038029,0.000000000
1707347315.207916,0.000135018,0.000000000,0.000661444,-0.000000000,-0.019495158,-0.000000000,0.001587149,0.000000000,0.019695528,-0.000000000,0.001071588,0.000000000,11.370000000,-0.000038029,0.000000000
1707347315.209170,0.000135018,0.000000000,0.000661444,-0.000000000,-0.019495158,-0.000000000,0.001587149,0.000000000,0.019695528,-0.000000000,0.001071588,0.000000000,11.371000000,-0.000038029,0.000000000
1707347315.210419,0.000135018,0.000000000,0.000661444,-0.000000000,-0.019495158,-0.000000000,0.001587149,0.000000000,0.019695528,-0.000000000,0.001071588,0.000000000,11.372000000,-0.000038029,0.000000000
1707347315.211441,0.000135018,0.000000000,0.000661444,-0.000000000,-0.019495158,-0.000000000,0.001587149,0.000000000,0.019695528,-0.000000000,0.001071588,0.000000000,11.373000000,-0.000038029,0.000000000
1707347315.212000,0.000135018,0.000000000,0.000661444,-0.000000000,-0.019495158,-0.000000000,0.001587149,0.000000000,0.019695528,-0.000000000,0.001071588,0.000000000,11.374000000,-0.000038029,0.000000000
1707347315.213418,0.000135018,0.000000000,0.000661444,-0.000000000,-0.019495158,-0.000000000,0.001587149,0.000000000,0.019695528,-0.000000000,0.001071588,0.000000000,11.375000000,-0.000038029,0.000000000
1707347315.214487,0.000135018,0.000000000,0.000661444,-0.000000000,-0.019495158,-0.000000000,0.001587149,0.000000000,0.019695528,-0.000000000,0.001071588,0.000000000,11.376000000,-0.000038029,0.000000000
1707347315.215026,0.000135018,0.000000000,0.000661444,-0.000000000,-0.019495158,-0.000000000,0.001587149,0.000000000,0.019695528,-0.000000000,0.001071588,0.000000000,11.377000000,-0.000038029,0.000000000
1707347315.216175,0.000135018,0.000000000,0.000661444,-0.000000000,-0.019495158,-0.000000000,0.001587149,0.000000000,0.019695528,-0.000000000,0.001071588,0.000000000,11.378000000,-0.000038029,0.000000000
1707347315.217543,0.000135018,0.000000000,0.000661444,-0.000000000,-0.019495158,-0.000000000,0.001587149,0.000000000,0.019695528,-0.000000000,0.001071588,0.000000000,11.379000000,-0.000038029,0.000000000
1707347315.218499,0.000135018,0.000000000,0.000661444,-0.000000000,-0.019495158,-0.000000000,0.001587149,0.000000000,0.019695528,-0.000000000,0.001071588,0.000000000,11.380000000,-0.000038029,0.000000000
1707347315.219076,0.000135018,0.000000000,0.000661444,-0.000000000,-0.019495158,-0.000000000,0.001587149,0.000000000,0.019695528,-0.000000000,0.001071588,0.000000000,11.381000000,-0.000038029,0.000000000
1707347315.220207,0.000135018,0.000000000,0.000661444,-0.000000000,-0.019495158,-0.000000000,0.001587149,0.000000000,0.019695528,-0.000000000,0.001071588,0.000000000,11.382000000,-0.000038029,0.000000000
1707347315.221322,0.000135018,0.000000000,0.000661444,-0.000000000,-0.019495158,-0.000000000,0.001587149,0.000000000,0.019695528,-0.000000000,0.001071588,0.000000000,11.383000000,-0.000038029,0.000000000
1707347315.221906,0.000135018,0.000000000,0.000661444,-0.000000000,-0.019495158,-0.000000000,0.001587149,0.000000000,0.019695528,-0.000000000,0.001071588,0.000000000,11.384000000,-0.000038029,0.000000000
1707347315.223032,0.000135018,0.000000000,0.000661444,-0.000000000,-0.019495158,-0.000000000,0.001587149,0.000000000,0.019695528,-0.000000000,0.001071588,0.000000000,11.385000000,-0.000038029,0.000000000
1707347315.224156,0.000135018,0.000000000,0.000661444,-0.000000000,-0.019495158,-0.000000000,0.001587149,0.000000000,0.019695528,-0.000000000,0.001071588,0.000000000,11.386000000,-0.000038029,0.000000000
1707347315.225287,0.000135018,0.000000000,0.000661444,-0.000000000,-0.019495158,-0.000000000,0.001587149,0.000000000,0.019695528,-0.000000000,0.001071588,0.000000000,11.387000000,-0.000038029,0.000000000
1707347315.225857,0.000135018,0.000000000,0.000661444,-0.000000000,-0.019495158,-0.000000000,0.001587149,0.000000000,0.019695528,-0.000000000,0.001071588,0.000000000,11.388000000,-0.000038029,0.000000000
1707347315.227024,0.000135018,0.000000000,0.000661444,-0.000000000,-0.019495158,-0.000000000,0.001587149,0.000000000,0.019695528,-0.000000000,0.001071588,0.000000000,11.389000000,-0.000038029,0.000000000
1707347315.228228,0.000135018,0.000000000,0.000661444,-0.000000000,-0.019495158,-0.000000000,0.001587149,0.000000000,0.019695528,-0.000000000,0.001071588,0.000000000,11.390000000,-0.000038029,0.000000000
1707347315.229407,0.000135018,0.000000000,0.000661444,-0.000000000,-0.019495158,-0.000000000,0.001587149,0.000000000,0.019695528,-0.000000000,0.001071588,0.000000000,11.391000000,-0.000038029,0.000000000
1707347315.230502,0.000135018,0.000000000,0.000661444,-0.000000000,-0.019495158,-0.000000000,0.001587149,0.000000000,0.019695528,-0.000000000,0.001071588,0.000000000,11.392000000,-0.000038029,0.000000000
1707347315.231727,0.000135018,0.000000000,0.000661444,-0.000000000,-0.019495158,-0.000000000,0.001587149,0.000000000,0.019695528,-0.000000000,0.001071588,0.000000000,11.393000000,-0.000038029,0.000000000
1707347315.231979,0.000135018,0.000000000,0.000661444,-0.000000000,-0.019495158,-0.000000000,0.001587149,0.000000000,0.019695528,-0.000000000,0.001071588,0.000000000,11.394000000,-0.000038029,0.000000000
1707347315.233803,0.000135018,0.000000000,0.000661444,-0.000000000,-0.019495158,-0.000000000,0.001587149,0.000000000,0.019695528,-0.000000000,0.001071588,0.000000000,11.395000000,-0.000038029,0.000000000
1707347315.234324,0.000135018,0.000000000,0.000661444,-0.000000000,-0.019495158,-0.000000000,0.001587149,0.000000000,0.019695528,-0.000000000,0.001071588,0.000000000,11.396000000,-0.000038029,0.000000000
1707347315.235571,0.000135018,0.000000000,0.000661444,-0.000000000,-0.019495158,-0.000000000,0.001587149,0.000000000,0.019695528,-0.000000000,0.001071588,0.000000000,11.397000000,-0.000038029,0.000000000
1707347315.236744,0.000135018,0.000000000,0.000661444,-0.000000000,-0.019495158,-0.000000000,0.001587149,0.000000000,0.019695528,-0.000000000,0.001071588,0.000000000,11.398000000,-0.000038029,0.000000000
1707347315.237285,0.000135018,0.000000000,0.000661444,-0.000000000,-0.019495158,-0.000000000,0.001587149,0.000000000,0.019695528,-0.000000000,0.001071588,0.000000000,11.399000000,-0.000038029,0.000000000
1707347315.239287,0.000135018,0.000000000,0.000661444,-0.000000000,-0.019495158,-0.000000000,0.001587149,0.000000000,0.019695528,-0.000000000,0.001071588,0.000000000,11.400000000,-0.000038029,0.000000000
1707347315.239707,0.000135018,0.000000000,0.000661444,-0.000000000,-0.019495158,-0.000000000,0.001587149,0.000000000,0.019695528,-0.000000000,0.001071588,0.000000000,11.401000000,-0.000038029,0.000000000
1707347315.240293,0.000135018,0.000000000,0.000661444,-0.000000000,-0.019495158,-0.000000000,0.001587149,0.000000000,0.019695528,-0.000000000,0.001071588,0.000000000,11.402000000,-0.000038029,0.000000000
1707347315.241493,0.000135018,0.000000000,0.000661444,-0.000000000,-0.019495158,-0.000000000,0.001587149,0.000000000,0.019695528,-0.000000000,0.001071588,0.000000000,11.403000000,-0.000038029,0.000000000
1707347315.242596,0.000135018,0.000000000,0.000661444,-0.000000000,-0.019495158,-0.000000000,0.001587149,0.000000000,0.019695528,-0.000000000,0.001071588,0.000000000,11.404000000,-0.000038029,0.000000000
1707347315.243296,0.000135018,0.000000000,0.000661444,-0.000000000,-0.019495158,-0.000000000,0.001587149,0.000000000,0.019695528,-0.000000000,0.001071588,0.000000000,11.405000000,-0.000038029,0.000000000
1707347315.244483,0.000135018,0.000000000,0.000661444,-0.000000000,-0.019495158,-0.000000000,0.001587149,0.000000000,0.019695528,-0.000000000,0.001071588,0.000000000,11.406000000,-0.000038029,0.000000000
1707347315.245797,0.000135018,0.000000000,0.000661444,-0.000000000,-0.019495158,-0.000000000,0.001587149,0.000000000,0.019695528,-0.000000000,0.001071588,0.000000000,11.407000000,-0.000038029,0.000000000
1707347315.246985,0.000135018,0.000000000,0.000661444,-0.000000000,-0.019495158,-0.000000000,0.001587149,0.000000000,0.019695528,-0.000000000,0.001071588,0.000000000,11.408000000,-0.000038029,0.000000000
1707347315.248157,0.000135018,0.000000000,0.000661444,-0.000000000,-0.019495158,-0.000000000,0.001587149,0.000000000,0.019695528,-0.000000000,0.001071588,0.000000000,11.409000000,-0.000038029,0.000000000
1707347315.248668,0.000135018,0.000000000,0.000661444,-0.000000000,-0.019495158,-0.000000000,0.001587149,0.000000000,0.019695528,-0.000000000,0.001071588,0.000000000,11.410000000,-0.000038029,0.000000000
1707347315.249930,0.000135018,0.000000000,0.000661444,-0.000000000,-0.019495158,-0.000000000,0.001587149,0.000000000,0.019695528,-0.000000000,0.001071588,0.000000000,11.411000000,-0.000038029,0.000000000
1707347315.251152,0.000135018,0.000000000,0.000661444,-0.000000000,-0.019495158,-0.000000000,0.001587149,0.000000000,0.019695528,-0.000000000,0.001071588,0.000000000,11.412000000,-0.000038029,0.000000000
1707347315.252330,0.000135018,0.000000000,0.000661444,-0.000000000,-0.019495158,-0.000000000,0.001587149,0.000000000,0.019695528,-0.000000000,0.001071588,0.000000000,11.413000000,-0.000038029,0.000000000
1707347315.252908,0.000135018,0.000000000,0.000661444,-0.000000000,-0.019495158,-0.000000000,0.001587149,0.000000000,0.019695528,-0.000000000,0.001071588,0.000000000,11.414000000,-0.000038029,0.000000000
1707347315.254934,0.000135018,0.000000000,0.000661444,-0.000000000,-0.019495158,-0.000000000,0.001587149,0.000000000,0.019695528,-0.000000000,0.001071588,0.000000000,11.415000000,-0.000038029,0.000000000
1707347315.255362,0.000135018,0.000000000,0.000661444,-0.000000000,-0.019495158,-0.000000000,0.001587149,0.000000000,0.019695528,-0.000000000,0.001071588,0.000000000,11.416000000,-0.000038029,0.000000000
1707347315.256553,0.000135018,0.000000000,0.000661444,-0.000000000,-0.019495158,-0.000000000,0.001587149,0.000000000,0.019695528,-0.000000000,0.001071588,0.000000000,11.417000000,-0.000038029,0.000000000
1707347315.258379,0.000135018,0.000000000,0.000661444,-0.000000000,-0.019495158,-0.000000000,0.001587149,0.000000000,0.019695528,-0.000000000,0.001071588,0.000000000,11.419000000,-0.000038029,0.000000000
1707347315.259641,0.000135018,0.000000000,0.000661444,-0.000000000,-0.019495158,-0.000000000,0.001587149,0.000000000,0.019695528,-0.000000000,0.001071588,0.000000000,11.420000000,-0.000038029,0.000000000
1707347315.260076,0.000135018,0.000000000,0.000661444,-0.000000000,-0.019495158,-0.000000000,0.001587149,0.000000000,0.019695528,-0.000000000,0.001071588,0.000000000,11.421000000,-0.000038029,0.000000000
1707347315.261339,0.000135018,0.000000000,0.000661444,-0.000000000,-0.019495158,-0.000000000,0.001587149,0.000000000,0.019695528,-0.000000000,0.001071588,0.000000000,11.422000000,-0.000038029,0.000000000
1707347315.262552,0.000135018,0.000000000,0.000661444,-0.000000000,-0.019495158,-0.000000000,0.001587149,0.000000000,0.019695528,-0.000000000,0.001071588,0.000000000,11.423000000,-0.000038029,0.000000000
1707347315.263678,0.000135018,0.000000000,0.000661444,-0.000000000,-0.019495158,-0.000000000,0.001587149,0.000000000,0.019695528,-0.000000000,0.001071588,0.000000000,11.424000000,-0.000038029,0.000000000
1707347315.264224,0.000135018,0.000000000,0.000661444,-0.000000000,-0.019495158,-0.000000000,0.001587149,0.000000000,0.019695528,-0.000000000,0.001071588,0.000000000,11.425000000,-0.000038029,0.000000000
1707347315.266084,0.000135018,0.000000000,0.000661444,-0.000000000,-0.019495158,-0.000000000,0.001587149,0.000000000,0.019695528,-0.000000000,0.001071588,0.000000000,11.426000000,-0.000038029,0.000000000
1707347315.267749,0.000135018,0.000000000,0.000661444,-0.000000000,-0.019495158,-0.000000000,0.001587149,0.000000000,0.019695528,-0.000000000,0.001071588,0.000000000,11.427000000,-0.000038029,0.000000000
1707347315.268288,0.000135018,0.000000000,0.000661444,-0.000000000,-0.019495158,-0.000000000,0.001587149,0.000000000,0.019695528,-0.000000000,0.001071588,0.000000000,11.428000000,-0.000038029,0.000000000
1707347315.269467,0.000135018,0.000000000,0.000661444,-0.000000000,-0.019495158,-0.000000000,0.001587149,0.000000000,0.019695528,-0.000000000,0.001071588,0.000000000,11.429000000,-0.000038029,0.000000000
1707347315.270050,0.000135018,0.000000000,0.000661444,-0.000000000,-0.019495158,-0.000000000,0.001587149,0.000000000,0.019695528,-0.000000000,0.001071588,0.000000000,11.430000000,-0.000038029,0.000000000
1707347315.271307,0.000135018,0.000000000,0.000661444,-0.000000000,-0.019495158,-0.000000000,0.001587149,0.000000000,0.019695528,-0.000000000,0.001071588,0.000000000,11.431000000,-0.000038029,0.000000000
1707347315.272360,0.000135018,0.000000000,0.000661444,-0.000000000,-0.019495158,-0.000000000,0.001587149,0.000000000,0.019695528,-0.000000000,0.001071588,0.000000000,11.432000000,-0.000038029,0.000000000
1707347315.272957,0.000135018,0.000000000,0.000661444,-0.000000000,-0.019495158,-0.000000000,0.001587149,0.000000000,0.019695528,-0.000000000,0.001071588,0.000000000,11.433000000,-0.000038029,0.000000000
1707347315.274073,0.000135018,0.000000000,0.000661444,-0.000000000,-0.019495158,-0.000000000,0.001587149,0.000000000,0.019695528,-0.000000000,0.001071588,0.000000000,11.434000000,-0.000038029,0.000000000
1707347315.274663,0.000135018,0.000000000,0.000661444,-0.000000000,-0.019495158,-0.000000000,0.001587149,0.000000000,0.019695528,-0.000000000,0.001071588,0.000000000,11.435000000,-0.000038029,0.000000000
1707347315.275800,0.000135018,0.000000000,0.000661444,-0.000000000,-0.019495158,-0.000000000,0.001587149,0.000000000,0.019695528,-0.000000000,0.001071588,0.000000000,11.436000000,-0.000038029,0.000000000
1707347315.276937,0.000135018,0.000000000,0.000661444,-0.000000000,-0.019495158,-0.000000000,0.001587149,0.000000000,0.019695528,-0.000000000,0.001071588,0.000000000,11.437000000,-0.000038029,0.000000000
1707347315.278070,0.000135018,0.000000000,0.000661444,-0.000000000,-0.019495158,-0.000000000,0.001587149,0.000000000,0.019695528,-0.000000000,0.001071588,0.000000000,11.438000000,-0.000038029,0.000000000
1707347315.279211,0.000135018,0.000000000,0.000661444,-0.000000000,-0.019495158,-0.000000000,0.001587149,0.000000000,0.019695528,-0.000000000,0.001071588,0.000000000,11.439000000,-0.000038029,0.000000000
1707347315.279797,0.000135018,0.000000000,0.000661444,-0.000000000,-0.019495158,-0.000000000,0.001587149,0.000000000,0.019695528,-0.000000000,0.001071588,0.000000000,11.440000000,-0.000038029,0.000000000
1707347315.281097,0.000135018,0.000000000,0.000661444,-0.000000000,-0.019495158,-0.000000000,0.001587149,0.000000000,0.019695528,-0.000000000,0.001071588,0.000000000,11.441000000,-0.000038029,0.000000000
1707347315.282136,0.000135018,0.000000000,0.000661444,-0.000000000,-0.019495158,-0.000000000,0.001587149,0.000000000,0.019695528,-0.000000000,0.001071588,0.000000000,11.442000000,-0.000038029,0.000000000
1707347315.283290,0.000135018,0.000000000,0.000661444,-0.000000000,-0.019495158,-0.000000000,0.001587149,0.000000000,0.019695528,-0.000000000,0.001071588,0.000000000,11.443000000,-0.000038029,0.000000000
1707347315.283842,0.000135018,0.000000000,0.000661444,-0.000000000,-0.019495158,-0.000000000,0.001587149,0.000000000,0.019695528,-0.000000000,0.001071588,0.000000000,11.444000000,-0.000038029,0.000000000
1707347315.284988,0.000135018,0.000000000,0.000661444,-0.000000000,-0.019495158,-0.000000000,0.001587149,0.000000000,0.019695528,-0.000000000,0.001071588,0.000000000,11.445000000,-0.000038029,0.000000000
1707347315.286696,0.000135018,0.000000000,0.000661444,-0.000000000,-0.019495158,-0.000000000,0.001587149,0.000000000,0.019695528,-0.000000000,0.001071588,0.000000000,11.446000000,-0.000038029,0.000000000
1707347315.287285,0.000135018,0.000000000,0.000661444,-0.000000000,-0.019495158,-0.000000000,0.001587149,0.000000000,0.019695528,-0.000000000,0.001071588,0.000000000,11.447000000,-0.000038029,0.000000000
1707347315.289259,0.000135018,0.000000000,0.000661444,-0.000000000,-0.019495158,-0.000000000,0.001587149,0.000000000,0.019695528,-0.000000000,0.001071588,0.000000000,11.448000000,-0.000038029,0.000000000
1707347315.289834,0.000135018,0.000000000,0.000661444,-0.000000000,-0.019495158,-0.000000000,0.001587149,0.000000000,0.019695528,-0.000000000,0.001071588,0.000000000,11.449000000,-0.000038029,0.000000000
1707347315.291087,0.000135018,0.000000000,0.000661444,-0.000000000,-0.019495158,-0.000000000,0.001587149,0.000000000,0.019695528,-0.000000000,0.001071588,0.000000000,11.450000000,-0.000038029,0.000000000
1707347315.292983,0.000135018,0.000000000,0.000661444,-0.000000000,-0.019495158,-0.000000000,0.001587149,0.000000000,0.019695528,-0.000000000,0.001071588,0.000000000,11.451000000,-0.000038029,0.000000000
1707347315.294625,0.000135018,0.000000000,0.000661444,-0.000000000,-0.019495158,-0.000000000,0.001587149,0.000000000,0.019695528,-0.000000000,0.001071588,0.000000000,11.452000000,-0.000038029,0.000000000
1707347315.295227,0.000135018,0.000000000,0.000661444,-0.000000000,-0.019495158,-0.000000000,0.001587149,0.000000000,0.019695528,-0.000000000,0.001071588,0.000000000,11.453000000,-0.000038029,0.000000000
1707347315.295933,0.000135018,0.000000000,0.000661444,-0.000000000,-0.019495158,-0.000000000,0.001587149,0.000000000,0.019695528,-0.000000000,0.001071588,0.000000000,11.454000000,-0.000038029,0.000000000
1707347315.297339,0.000135018,0.000000000,0.000661444,-0.000000000,-0.019495158,-0.000000000,0.001587149,0.000000000,0.019695528,-0.000000000,0.001071588,0.000000000,11.455000000,-0.000038029,0.000000000
1707347315.297910,0.000135018,0.000000000,0.000661444,-0.000000000,-0.019495158,-0.000000000,0.001587149,0.000000000,0.019695528,-0.000000000,0.001071588,0.000000000,11.456000000,-0.000038029,0.000000000
1707347315.299217,0.000135018,0.000000000,0.000661444,-0.000000000,-0.019495158,-0.000000000,0.001587149,0.000000000,0.019695528,-0.000000000,0.001071588,0.000000000,11.457000000,-0.000038029,0.000000000
1707347315.300509,0.000135018,0.000000000,0.000661444,-0.000000000,-0.019495158,-0.000000000,0.001587149,0.000000000,0.019695528,-0.000000000,0.001071588,0.000000000,11.458000000,-0.000038029,0.000000000
1707347315.301262,0.000135018,0.000000000,0.000661444,-0.000000000,-0.019495158,-0.000000000,0.001587149,0.000000000,0.019695528,-0.000000000,0.001071588,0.000000000,11.459000000,-0.000038029,0.000000000
1707347315.302573,0.000135018,0.000000000,0.000661444,-0.000000000,-0.019495158,-0.000000000,0.001587149,0.000000000,0.019695528,-0.000000000,0.001071588,0.000000000,11.460000000,-0.000038029,0.000000000
1707347315.304015,0.000135018,0.000000000,0.000661444,-0.000000000,-0.019495158,-0.000000000,0.001587149,0.000000000,0.019695528,-0.000000000,0.001071588,0.000000000,11.461000000,-0.000038029,0.000000000
1707347315.304361,0.000135018,0.000000000,0.000661444,-0.000000000,-0.019495158,-0.000000000,0.001587149,0.000000000,0.019695528,-0.000000000,0.001071588,0.000000000,11.462000000,-0.000038029,0.000000000
1707347315.305688,0.000135018,0.000000000,0.000661444,-0.000000000,-0.019495158,-0.000000000,0.001587149,0.000000000,0.019695528,-0.000000000,0.001071588,0.000000000,11.463000000,-0.000038029,0.000000000
1707347315.306129,0.000135018,0.000000000,0.000661444,-0.000000000,-0.019495158,-0.000000000,0.001587149,0.000000000,0.019695528,-0.000000000,0.001071588,0.000000000,11.464000000,-0.000038029,0.000000000
1707347315.307482,0.000135018,0.000000000,0.000661444,-0.000000000,-0.019495158,-0.000000000,0.001587149,0.000000000,0.019695528,-0.000000000,0.001071588,0.000000000,11.465000000,-0.000038029,0.000000000
1707347315.308445,0.000135018,0.000000000,0.000661444,-0.000000000,-0.019495158,-0.000000000,0.001587149,0.000000000,0.019695528,-0.000000000,0.001071588,0.000000000,11.466000000,-0.000038029,0.000000000
1707347315.309039,0.000135018,0.000000000,0.000661444,-0.000000000,-0.019495158,-0.000000000,0.001587149,0.000000000,0.019695528,-0.000000000,0.001071588,0.000000000,11.467000000,-0.000038029,0.000000000
1707347315.310165,0.000135018,0.000000000,0.000661444,-0.000000000,-0.019495158,-0.000000000,0.001587149,0.000000000,0.019695528,-0.000000000,0.001071588,0.000000000,11.468000000,-0.000038029,0.000000000
1707347315.311299,0.000135018,0.000000000,0.000661444,-0.000000000,-0.019495158,-0.000000000,0.001587149,0.000000000,0.019695528,-0.000000000,0.001071588,0.000000000,11.469000000,-0.000038029,0.000000000
1707347315.311882,0.000135018,0.000000000,0.000661444,-0.000000000,-0.019495158,-0.000000000,0.001587149,0.000000000,0.019695528,-0.000000000,0.001071588,0.000000000,11.470000000,-0.000038029,0.000000000
1707347315.313024,0.000135018,0.000000000,0.000661444,-0.000000000,-0.019495158,-0.000000000,0.001587149,0.000000000,0.019695528,-0.000000000,0.001071588,0.000000000,11.471000000,-0.000038029,0.000000000
1707347315.314240,0.000135018,0.000000000,0.000661444,-0.000000000,-0.019495158,-0.000000000,0.001587149,0.000000000,0.019695528,-0.000000000,0.001071588,0.000000000,11.472000000,-0.000038029,0.000000000
1707347315.315350,0.000135018,0.000000000,0.000661444,-0.000000000,-0.019495158,-0.000000000,0.001587149,0.000000000,0.019695528,-0.000000000,0.001071588,0.000000000,11.473000000,-0.000038029,0.000000000
1707347315.315930,0.000135018,0.000000000,0.000661444,-0.000000000,-0.019495158,-0.000000000,0.001587149,0.000000000,0.019695528,-0.000000000,0.001071588,0.000000000,11.474000000,-0.000038029,0.000000000
1707347315.317078,0.000135018,0.000000000,0.000661444,-0.000000000,-0.019495158,-0.000000000,0.001587149,0.000000000,0.019695528,-0.000000000,0.001071588,0.000000000,11.475000000,-0.000038029,0.000000000
1707347315.318217,0.000135018,0.000000000,0.000661444,-0.000000000,-0.019495158,-0.000000000,0.001587149,0.000000000,0.019695528,-0.000000000,0.001071588,0.000000000,11.476000000,-0.000038029,0.000000000
1707347315.319124,0.000135018,0.000000000,0.000661444,-0.000000000,-0.019495158,-0.000000000,0.001587149,0.000000000,0.019695528,-0.000000000,0.001071588,0.000000000,11.477000000,-0.000038029,0.000000000
1707347315.320264,0.000135018,0.000000000,0.000661444,-0.000000000,-0.019495158,-0.000000000,0.001587149,0.000000000,0.019695528,-0.000000000,0.001071588,0.000000000,11.478000000,-0.000038029,0.000000000
1707347315.321652,0.000135018,0.000000000,0.000661444,-0.000000000,-0.019495158,-0.000000000,0.001587149,0.000000000,0.019695528,-0.000000000,0.001071588,0.000000000,11.479000000,-0.000038029,0.000000000
1707347315.322687,0.000135018,0.000000000,0.000661444,-0.000000000,-0.019495158,-0.000000000,0.001587149,0.000000000,0.019695528,-0.000000000,0.001071588,0.000000000,11.480000000,-0.000038029,0.000000000
1707347315.323292,0.000135018,0.000000000,0.000661444,-0.000000000,-0.019495158,-0.000000000,0.001587149,0.000000000,0.019695528,-0.000000000,0.001071588,0.000000000,11.481000000,-0.000038029,0.000000000
1707347315.324493,0.000135018,0.000000000,0.000661444,-0.000000000,-0.019495158,-0.000000000,0.001587149,0.000000000,0.019695528,-0.000000000,0.001071588,0.000000000,11.482000000,-0.000038029,0.000000000
1707347315.325674,0.000135018,0.000000000,0.000661444,-0.000000000,-0.019495158,-0.000000000,0.001587149,0.000000000,0.019695528,-0.000000000,0.001071588,0.000000000,11.483000000,-0.000038029,0.000000000
1707347315.326948,0.000135018,0.000000000,0.000661444,-0.000000000,-0.019495158,-0.000000000,0.001587149,0.000000000,0.019695528,-0.000000000,0.001071588,0.000000000,11.484000000,-0.000038029,0.000000000
1707347315.329318,0.000135018,0.000000000,0.000661444,-0.000000000,-0.019495158,-0.000000000,0.001587149,0.000000000,0.019695528,-0.000000000,0.001071588,0.000000000,11.485000000,-0.000038029,0.000000000
1707347315.331168,0.000135018,0.000000000,0.000661444,-0.000000000,-0.019495158,-0.000000000,0.001587149,0.000000000,0.019695528,-0.000000000,0.001071588,0.000000000,11.486000000,-0.000038029,0.000000000
1707347315.332311,0.000135018,0.000000000,0.000661444,-0.000000000,-0.019495158,-0.000000000,0.001587149,0.000000000,0.019695528,-0.000000000,0.001071588,0.000000000,11.487000000,-0.000038029,0.000000000
1707347315.334157,0.000135018,0.000000000,0.000661444,-0.000000000,-0.019495158,-0.000000000,0.001587149,0.000000000,0.019695528,-0.000000000,0.001071588,0.000000000,11.489000000,-0.000038029,0.000000000
1707347315.334862,0.000135018,0.000000000,0.000661444,-0.000000000,-0.019495158,-0.000000000,0.001587149,0.000000000,0.019695528,-0.000000000,0.001071588,0.000000000,11.490000000,-0.000038029,0.000000000
1707347315.335346,0.000135018,0.000000000,0.000661444,-0.000000000,-0.019495158,-0.000000000,0.001587149,0.000000000,0.019695528,-0.000000000,0.001071588,0.000000000,11.491000000,-0.000038029,0.000000000
1707347315.336647,0.000135018,0.000000000,0.000661444,-0.000000000,-0.019495158,-0.000000000,0.001587149,0.000000000,0.019695528,-0.000000000,0.001071588,0.000000000,11.492000000,-0.000038029,0.000000000
1707347315.338369,0.000135018,0.000000000,0.000661444,-0.000000000,-0.019495158,-0.000000000,0.001587149,0.000000000,0.019695528,-0.000000000,0.001071588,0.000000000,11.493000000,-0.000038029,0.000000000
1707347315.338459,0.000135018,0.000000000,0.000661444,-0.000000000,-0.019495158,-0.000000000,0.001587149,0.000000000,0.019695528,-0.000000000,0.001071588,0.000000000,11.494000000,-0.000038029,0.000000000
1707347315.339533,0.000135018,0.000000000,0.000661444,-0.000000000,-0.019495158,-0.000000000,0.001587149,0.000000000,0.019695528,-0.000000000,0.001071588,0.000000000,11.495000000,-0.000038029,0.000000000
1707347315.340759,0.000135018,0.000000000,0.000661444,-0.000000000,-0.019495158,-0.000000000,0.001587149,0.000000000,0.019695528,-0.000000000,0.001071588,0.000000000,11.496000000,-0.000038029,0.000000000
1707347315.342129,0.000135018,0.000000000,0.000661444,-0.000000000,-0.019495158,-0.000000000,0.001587149,0.000000000,0.019695528,-0.000000000,0.001071588,0.000000000,11.497000000,-0.000038029,0.000000000
1707347315.343034,0.000135018,0.000000000,0.000661444,-0.000000000,-0.019495158,-0.000000000,0.001587149,0.000000000,0.019695528,-0.000000000,0.001071588,0.000000000,11.498000000,-0.000038029,0.000000000
1707347315.343593,0.000135018,0.000000000,0.000661444,-0.000000000,-0.019495158,-0.000000000,0.001587149,0.000000000,0.019695528,-0.000000000,0.001071588,0.000000000,11.499000000,-0.000038029,0.000000000
1707347315.344759,0.000135018,0.000000000,0.000661444,-0.000000000,-0.019495158,-0.000000000,0.001587149,0.000000000,0.019695528,-0.000000000,0.001071588,0.000000000,11.500000000,-0.000038029,0.000000000
1707347315.345321,0.000135018,0.000000000,0.000661444,-0.000000000,-0.019495158,-0.000000000,0.001587149,0.000000000,0.019695528,-0.000000000,0.001071588,0.000000000,11.501000000,-0.000038029,0.000000000
1707347315.346447,0.000135018,0.000000000,0.000661444,-0.000000000,-0.019495158,-0.000000000,0.001587149,0.000000000,0.019695528,-0.000000000,0.001071588,0.000000000,11.502000000,-0.000038029,0.000000000
1707347315.347677,0.000135018,0.000000000,0.000661444,-0.000000000,-0.019495158,-0.000000000,0.001587149,0.000000000,0.019695528,-0.000000000,0.001071588,0.000000000,11.503000000,-0.000038029,0.000000000
1707347315.348766,0.000135018,0.000000000,0.000661444,-0.000000000,-0.019495158,-0.000000000,0.001587149,0.000000000,0.019695528,-0.000000000,0.001071588,0.000000000,11.504000000,-0.000038029,0.000000000
1707347315.349343,0.000135018,0.000000000,0.000661444,-0.000000000,-0.019495158,-0.000000000,0.001587149,0.000000000,0.019695528,-0.000000000,0.001071588,0.000000000,11.505000000,-0.000038029,0.000000000
1707347315.350482,0.000135018,0.000000000,0.000661444,-0.000000000,-0.019495158,-0.000000000,0.001587149,0.000000000,0.019695528,-0.000000000,0.001071588,0.000000000,11.506000000,-0.000038029,0.000000000
1707347315.351685,0.000135018,0.000000000,0.000661444,-0.000000000,-0.019495158,-0.000000000,0.001587149,0.000000000,0.019695528,-0.000000000,0.001071588,0.000000000,11.507000000,-0.000038029,0.000000000
1707347315.352299,0.000135018,0.000000000,0.000661444,-0.000000000,-0.019495158,-0.000000000,0.001587149,0.000000000,0.019695528,-0.000000000,0.001071588,0.000000000,11.508000000,-0.000038029,0.000000000
1707347315.353508,0.000135018,0.000000000,0.000661444,-0.000000000,-0.019495158,-0.000000000,0.001587149,0.000000000,0.019695528,-0.000000000,0.001071588,0.000000000,11.509000000,-0.000038029,0.000000000
1707347315.354736,0.000135018,0.000000000,0.000661444,-0.000000000,-0.019495158,-0.000000000,0.001587149,0.000000000,0.019695528,-0.000000000,0.001071588,0.000000000,11.510000000,-0.000038029,0.000000000
1707347315.355894,0.000135018,0.000000000,0.000661444,-0.000000000,-0.019495158,-0.000000000,0.001587149,0.000000000,0.019695528,-0.000000000,0.001071588,0.000000000,11.511000000,-0.000038029,0.000000000
1707347315.357224,0.000135018,0.000000000,0.000661444,-0.000000000,-0.019495158,-0.000000000,0.001587149,0.000000000,0.019695528,-0.000000000,0.001071588,0.000000000,11.512000000,-0.000038029,0.000000000
1707347315.358364,0.000135018,0.000000000,0.000661444,-0.000000000,-0.019495158,-0.000000000,0.001587149,0.000000000,0.019695528,-0.000000000,0.001071588,0.000000000,11.513000000,-0.000038029,0.000000000
1707347315.358869,0.000135018,0.000000000,0.000661444,-0.000000000,-0.019495158,-0.000000000,0.001587149,0.000000000,0.019695528,-0.000000000,0.001071588,0.000000000,11.514000000,-0.000038029,0.000000000
1707347315.360568,0.000135018,0.000000000,0.000661444,-0.000000000,-0.019495158,-0.000000000,0.001587149,0.000000000,0.019695528,-0.000000000,0.001071588,0.000000000,11.515000000,-0.000038029,0.000000000
1707347315.361900,0.000135018,0.000000000,0.000661444,-0.000000000,-0.019495158,-0.000000000,0.001587149,0.000000000,0.019695528,-0.000000000,0.001071588,0.000000000,11.516000000,-0.000038029,0.000000000
1707347315.362952,0.000135018,0.000000000,0.000661444,-0.000000000,-0.019495158,-0.000000000,0.001587149,0.000000000,0.019695528,-0.000000000,0.001071588,0.000000000,11.517000000,-0.000038029,0.000000000
1707347315.363542,0.000135018,0.000000000,0.000661444,-0.000000000,-0.019495158,-0.000000000,0.001587149,0.000000000,0.019695528,-0.000000000,0.001071588,0.000000000,11.518000000,-0.000038029,0.000000000
1707347315.364815,0.000135018,0.000000000,0.000661444,-0.000000000,-0.019495158,-0.000000000,0.001587149,0.000000000,0.019695528,-0.000000000,0.001071588,0.000000000,11.519000000,-0.000038029,0.000000000
1707347315.366290,0.000135018,0.000000000,0.000661444,-0.000000000,-0.019495158,-0.000000000,0.001587149,0.000000000,0.019695528,-0.000000000,0.001071588,0.000000000,11.520000000,-0.000038029,0.000000000
1707347315.366787,0.000135018,0.000000000,0.000661444,-0.000000000,-0.019495158,-0.000000000,0.001587149,0.000000000,0.019695528,-0.000000000,0.001071588,0.000000000,11.521000000,-0.000038029,0.000000000
1707347315.367706,0.000135018,0.000000000,0.000661444,-0.000000000,-0.019495158,-0.000000000,0.001587149,0.000000000,0.019695528,-0.000000000,0.001071588,0.000000000,11.522000000,-0.000038029,0.000000000
1707347315.368972,0.000135018,0.000000000,0.000661444,-0.000000000,-0.019495158,-0.000000000,0.001587149,0.000000000,0.019695528,-0.000000000,0.001071588,0.000000000,11.523000000,-0.000038029,0.000000000
1707347315.369552,0.000135018,0.000000000,0.000661444,-0.000000000,-0.019495158,-0.000000000,0.001587149,0.000000000,0.019695528,-0.000000000,0.001071588,0.000000000,11.524000000,-0.000038029,0.000000000
1707347315.370763,0.000135018,0.000000000,0.000661444,-0.000000000,-0.019495158,-0.000000000,0.001587149,0.000000000,0.019695528,-0.000000000,0.001071588,0.000000000,11.525000000,-0.000038029,0.000000000
1707347315.371893,0.000135018,0.000000000,0.000661444,-0.000000000,-0.019495158,-0.000000000,0.001587149,0.000000000,0.019695528,-0.000000000,0.001071588,0.000000000,11.526000000,-0.000038029,0.000000000
1707347315.373035,0.000135018,0.000000000,0.000661444,-0.000000000,-0.019495158,-0.000000000,0.001587149,0.000000000,0.019695528,-0.000000000,0.001071588,0.000000000,11.527000000,-0.000038029,0.000000000
1707347315.373554,0.000135018,0.000000000,0.000661444,-0.000000000,-0.019495158,-0.000000000,0.001587149,0.000000000,0.019695528,-0.000000000,0.001071588,0.000000000,11.528000000,-0.000038029,0.000000000
1707347315.374887,0.000135018,0.000000000,0.000661444,-0.000000000,-0.019495158,-0.000000000,0.001587149,0.000000000,0.019695528,-0.000000000,0.001071588,0.000000000,11.529000000,-0.000038029,0.000000000
1707347315.376090,0.000135018,0.000000000,0.000661444,-0.000000000,-0.019495158,-0.000000000,0.001587149,0.000000000,0.019695528,-0.000000000,0.001071588,0.000000000,11.530000000,-0.000038029,0.000000000
1707347315.377541,0.000135018,0.000000000,0.000661444,-0.000000000,-0.019495158,-0.000000000,0.001587149,0.000000000,0.019695528,-0.000000000,0.001071588,0.000000000,11.531000000,-0.000038029,0.000000000
1707347315.378425,0.000135018,0.000000000,0.000661444,-0.000000000,-0.019495158,-0.000000000,0.001587149,0.000000000,0.019695528,-0.000000000,0.001071588,0.000000000,11.532000000,-0.000038029,0.000000000
1707347315.379536,0.000135018,0.000000000,0.000661444,-0.000000000,-0.019495158,-0.000000000,0.001587149,0.000000000,0.019695528,-0.000000000,0.001071588,0.000000000,11.534000000,-0.000038029,0.000000000
1707347315.380752,0.000135018,0.000000000,0.000661444,-0.000000000,-0.019495158,-0.000000000,0.001587149,0.000000000,0.019695528,-0.000000000,0.001071588,0.000000000,11.535000000,-0.000038029,0.000000000
1707347315.381896,0.000135018,0.000000000,0.000661444,-0.000000000,-0.019495158,-0.000000000,0.001587149,0.000000000,0.019695528,-0.000000000,0.001071588,0.000000000,11.536000000,-0.000038029,0.000000000
1707347315.383053,0.000135018,0.000000000,0.000661444,-0.000000000,-0.019495158,-0.000000000,0.001587149,0.000000000,0.019695528,-0.000000000,0.001071588,0.000000000,11.537000000,-0.000038029,0.000000000
1707347315.383623,0.000135018,0.000000000,0.000661444,-0.000000000,-0.019495158,-0.000000000,0.001587149,0.000000000,0.019695528,-0.000000000,0.001071588,0.000000000,11.538000000,-0.000038029,0.000000000
1707347315.384776,0.000135018,0.000000000,0.000661444,-0.000000000,-0.019495158,-0.000000000,0.001587149,0.000000000,0.019695528,-0.000000000,0.001071588,0.000000000,11.539000000,-0.000038029,0.000000000
1707347315.386080,0.000135018,0.000000000,0.000661444,-0.000000000,-0.019495158,-0.000000000,0.001587149,0.000000000,0.019695528,-0.000000000,0.001071588,0.000000000,11.540000000,-0.000038029,0.000000000
1707347315.386658,0.000135018,0.000000000,0.000661444,-0.000000000,-0.019495158,-0.000000000,0.001587149,0.000000000,0.019695528,-0.000000000,0.001071588,0.000000000,11.541000000,-0.000038029,0.000000000
1707347315.387823,0.000135018,0.000000000,0.000661444,-0.000000000,-0.019495158,-0.000000000,0.001587149,0.000000000,0.019695528,-0.000000000,0.001071588,0.000000000,11.542000000,-0.000038029,0.000000000
1707347315.389049,0.000135018,0.000000000,0.000661444,-0.000000000,-0.019495158,-0.000000000,0.001587149,0.000000000,0.019695528,-0.000000000,0.001071588,0.000000000,11.543000000,-0.000038029,0.000000000
