my-rice/robotic-manipulator-Fanuc_M20IA35M/plotjuggler_configurations/TUNING/CSV_before_and_after_tuning_ziegler_nichols/before_tuning_csv_datarange_final.csv
__time,/joint_states/fanuc_m20ia_35m_joint1/position,/joint_states/fanuc_m20ia_35m_joint1/velocity,/joint_states/fanuc_m20ia_35m_joint2/position,/joint_states/fanuc_m20ia_35m_joint2/velocity,/joint_states/fanuc_m20ia_35m_joint3/position,/joint_states/fanuc_m20ia_35m_joint3/velocity,/joint_states/fanuc_m20ia_35m_joint4/position,/joint_states/fanuc_m20ia_35m_joint4/velocity,/joint_states/fanuc_m20ia_35m_joint5/position,/joint_states/fanuc_m20ia_35m_joint5/velocity,/joint_states/fanuc_m20ia_35m_joint6/position,/joint_states/fanuc_m20ia_35m_joint6/velocity,/joint_states/header/stamp,/joint_states/joint_world_to_slider/position,/joint_states/joint_world_to_slider/velocity
1707309211.221531,0.000069411,0.084096820,0.000181323,-0.046736697,-0.000033316,0.413029181,0.004751500,3.512732477,-0.003062308,-0.810562008,-0.009936584,-5.050122249,6.386000000,0.000055948,-0.048623727
1707309211.222583,0.000138690,0.069279194,0.000154757,-0.026566076,0.000292291,0.325606343,0.006379217,1.627716964,-0.003554881,-0.492573056,-0.012881087,-2.944503619,6.387000000,0.000008487,-0.047460518
1707309211.224440,0.000193521,0.054830616,0.000180825,0.026068762,0.000431323,0.139032461,0.005981070,-0.398147692,-0.003483992,0.070888998,-0.013588202,-0.707114960,6.388000000,-0.000037577,-0.046064279
1707309211.228616,0.000233054,0.039533002,0.000272845,0.092019293,0.000342424,-0.088899401,0.003508879,-2.472190425,-0.002746674,0.737317995,-0.012011700,1.576502226,6.389000000,-0.000081894,-0.044316738
1707309211.229487,0.000254489,0.021435671,0.000420723,0.147878873,0.000054726,-0.287697799,-0.000980169,-4.489047764,-0.001413624,1.333049961,-0.008198467,3.813233006,6.390000000,-0.000123922,-0.042028187
1707309211.231801,0.000251595,-0.002894366,0.000589835,0.169111710,-0.000314593,-0.369319305,-0.005035097,-4.054928054,0.000224134,1.637758583,-0.004562355,3.636111902,6.391000000,-0.000162840,-0.038918180
1707309211.233255,0.000224839,-0.026755921,0.000732817,0.142981844,-0.000619384,-0.304791137,-0.008427300,-3.392203755,0.001665958,1.441823946,-0.001356241,3.206114129,6.392000000,-0.000198438,-0.035597295
1707309211.233844,0.000174241,-0.050598092,0.000814645,0.081828202,-0.000753342,-0.133957663,-0.010993994,-2.566693945,0.002601200,0.935241386,0.001260659,2.616899919,6.393000000,-0.000230576,-0.032138676
1707309211.234988,0.000124717,-0.049523573,0.000818558,0.003913126,-0.000662588,0.090754251,-0.011457114,-0.463119544,0.002852870,0.251670032,0.001648501,0.387842525,6.394000000,-0.000261241,-0.030665048
1707309211.236238,0.000079209,-0.045508780,0.000753551,-0.065007317,-0.000374876,0.287711958,-0.009857784,1.599329418,0.002488431,-0.364439196,-0.000170319,-1.818820368,6.395000000,-0.000290746,-0.029504254
1707309211.237412,0.000027492,-0.051716524,0.000650404,-0.103146742,0.000014012,0.388887788,-0.007042877,2.814907062,0.001767226,-0.721204248,-0.003170824,-3.000504470,6.396000000,-0.000318410,-0.027664510
1707309211.238136,-0.000036705,-0.064196856,0.000550111,-0.100293680,0.000378156,0.364143705,-0.003753929,3.288948108,0.001016470,-0.750756546,-0.006488857,-3.318033887,6.397000000,-0.000343932,-0.025522216
1707309211.239574,-0.000108398,-0.071693394,0.000490074,-0.060036655,0.000604460,0.226304829,-0.000170237,3.583692742,0.000511516,-0.504954147,-0.009986346,-3.497488374,6.398000000,-0.000367949,-0.024016443
1707309211.241784,-0.000182809,-0.074411029,0.000494300,0.004225893,0.000617578,0.013117152,0.003156051,3.326287744,0.000435965,-0.075550295,-0.013145067,-3.158720996,6.399000000,-0.000391065,-0.023116386
1707309211.242263,-0.000255322,-0.072512682,0.000567319,0.073019047,0.000392289,-0.225288767,0.004362809,1.206757713,0.000852468,0.416502345,-0.014132744,-0.987676714,6.400000000,-0.000413808,-0.022743047
1707309211.244024,-0.000324911,-0.069589469,0.000685813,0.118494311,-0.000001167,-0.393456287,0.003580046,-0.782763358,0.001586914,0.734445835,-0.013079125,1.053618577,6.401000000,-0.000436321,-0.022513221
1707309211.244667,-0.000392503,-0.067592041,0.000809239,0.123425607,-0.000440484,-0.439316156,0.001009937,-2.570108348,0.002337211,0.750297790,-0.010172915,2.906210271,6.402000000,-0.000458519,-0.022197848
1707309211.245336,-0.000459496,-0.066992990,0.000892500,0.083261095,-0.000789346,-0.348862585,-0.003124257,-4.134193735,0.002766772,0.429560462,-0.005619353,4.553562090,6.403000000,-0.000480259,-0.021739851
1707309211.246600,-0.000527853,-0.068356899,0.000895943,0.003442614,-0.000913577,-0.124230601,-0.006347419,-3.223162329,0.002542573,-0.224198626,-0.001857103,3.762249161,6.404000000,-0.000501402,-0.021143076
1707309211.248029,-0.000595680,-0.067826920,0.000807379,-0.088563436,-0.000775783,0.137793631,-0.008605781,-2.258362211,0.001571863,-0.970709646,0.001059729,2.916832009,6.405000000,-0.000522197,-0.020795266
1707309211.251566,-0.000637394,-0.041713820,0.000639291,-0.168087753,-0.000409143,0.366639731,-0.008849521,-0.243740033,-0.000106472,-1.678334986,0.001720907,0.661177920,6.406000000,-0.000544870,-0.022672290
1707309211.251627,-0.000651878,-0.014483921,0.000441494,-0.197797452,0.000031109,0.440252826,-0.007227786,1.621735062,-0.001924339,-1.817867890,0.000273346,-1.447560256,6.407000000,-0.000569667,-0.024797098
1707309211.252721,-0.000645508,0.006369577,0.000261204,-0.180290351,0.000402269,0.371159601,-0.004455212,2.772573565,-0.003515964,-1.591624319,-0.002459438,-2.732784534,6.408000000,-0.000596194,-0.026527129
1707309211.253942,-0.000630530,0.014978761,0.000139170,-0.122033405,0.000580478,0.178209399,-0.001476783,2.978429321,-0.004550995,-1.035031782,-0.005330551,-2.871112229,6.409000000,-0.000623512,-0.027318426
1707309211.255112,-0.000605997,0.024532107,0.000094654,-0.044516408,0.000509297,-0.071181544,0.001618740,3.095523232,-0.004891182,-0.340186143,-0.008259013,-2.928462329,6.410000000,-0.000651634,-0.028121115
1707309211.256506,-0.000570638,0.035359407,0.000125249,0.030594822,0.000183280,-0.326016827,0.002566877,0.948136705,-0.004517955,0.373226387,-0.008980721,-0.721708458,6.411000000,-0.000680483,-0.028849367
1707309211.258252,-0.000528169,0.042468852,0.000198186,0.072937688,-0.000297411,-0.480690842,0.001546833,-1.020043563,-0.003675794,0.842161534,-0.007645767,1.334954107,6.412000000,-0.000709433,-0.028950562
1707309211.261600,-0.000484388,0.043780882,0.000264868,0.066681919,-0.000784852,-0.487441039,-0.001196731,-2.743563886,-0.002726737,0.949057051,-0.004458025,3.187742123,6.413000000,-0.000737608,-0.028174777
1707309211.261646,-0.000447462,0.036925862,0.000272079,0.007211194,-0.001102863,-0.318010902,-0.003119426,-1.922694932,-0.002106502,0.620234193,-0.001904210,2.553814623,6.414000000,-0.000763936,-0.026327285
1707309211.262284,-0.000421099,0.026363216,0.000188377,-0.083702117,-0.001154727,-0.051864588,-0.004071985,-0.952559034,-0.002051473,0.055029934,-0.000100615,1.803595830,6.415000000,-0.000787807,-0.023871415
1707309211.263475,-0.000395442,0.025656814,0.000008649,-0.179728500,-0.000921007,0.233720325,-0.003459552,0.612432546,-0.002630119,-0.578646162,0.000193251,0.293865426,6.416000000,-0.000809831,-0.022023953
1707309211.264652,-0.000367311,0.028131119,-0.000241890,-0.250539127,-0.000475084,0.445922973,-0.001272905,2.186647235,-0.003667444,-1.037325137,-0.001083853,-1.277104236,6.417000000,-0.000830196,-0.020365401
1707309211.265837,-0.000346268,0.021043143,-0.000514580,-0.272690084,0.000036588,0.511672521,0.001659840,2.932744780,-0.004782728,-1.115284045,-0.002949434,-1.865580552,6.418000000,-0.000848155,-0.017959200
1707309211.267838,-0.000328949,0.017319226,-0.000750838,-0.236257551,0.000425491,0.388902729,0.002673831,1.013991531,-0.005506113,-0.723385094,-0.002749501,0.199933455,6.419000000,-0.000864058,-0.015902953
1707309211.268633,-0.000312453,0.016495393,-0.000909037,-0.158198815,0.000568868,0.143376591,0.001593758,-1.080073738,-0.005537321,-0.031207958,-0.000329799,2.419701040,6.420000000,-0.000878186,-0.014127481
1707309211.270481,-0.000287282,0.025171869,-0.000973947,-0.064910276,0.000425057,-0.143810855,-0.001165464,-2.759221500,-0.004793231,0.744089537,0.003744789,4.074588814,6.421000000,-0.000891254,-0.013067778
1707309211.271352,-0.000243718,0.043563410,-0.000964763,0.009184448,0.000070865,-0.354192042,-0.002454373,-1.288908880,-0.003495770,1.297461032,0.006114980,2.370191150,6.422000000,-0.000903840,-0.012585876
1707309211.271957,-0.000185968,0.057750400,-0.000916707,0.048055311,-0.000385852,-0.456717154,-0.002115020,0.339353118,-0.001907528,1.588241954,0.006657666,0.542685792,6.423000000,-0.000915304,-0.011464065
1707309211.273397,-0.000119346,0.066621780,-0.000875627,0.041080636,-0.000805339,-0.419486677,0.000057863,2.172882469,-0.000368481,1.539047542,0.005215736,-1.441930099,6.424000000,-0.000924849,-0.009545182
1707309211.273921,-0.000047957,0.071389074,-0.000881015,-0.005387849,-0.001075254,-0.269914912,0.002865778,2.807915255,0.000850090,1.218570853,0.003023309,-2.192427131,6.425000000,-0.000931774,-0.006924858
1707309211.275104,0.000028805,0.076762353,-0.000969392,-0.088377575,-0.001082757,-0.007503194,0.005594319,2.728540805,0.001280326,0.430235756,0.000749084,-2.274224946,6.426000000,-0.000935800,-0.004026621
1707309211.276596,0.000102624,0.073819053,-0.001139680,-0.170287358,-0.000829928,0.252829063,0.007981664,2.387345100,0.000937372,-0.342954137,-0.001253130,-2.002213619,6.427000000,-0.000936009,-0.000208752
1707309211.277126,0.000154346,0.051721220,-0.001362642,-0.222962637,-0.000406339,0.423589087,0.008966406,0.984741733,0.000075750,-0.861621565,-0.001642585,-0.389455410,6.428000000,-0.000930738,0.005270817
1707309211.278417,0.000181411,0.027064943,-0.001584401,-0.221758809,0.000022486,0.428824735,0.008268452,-0.697953624,-0.000745543,-0.821292881,-0.000090393,1.552192412,6.429000000,-0.000919795,0.010943646
1707309211.279611,0.000196687,0.015276378,-0.001758286,-0.173885229,0.000318590,0.296104355,0.006258387,-2.010065032,-0.001165898,-0.420355397,0.002852561,2.942953729,6.430000000,-0.000904326,0.015468312
1707309211.280148,0.000214592,0.017905226,-0.001854096,-0.095809595,0.000395292,0.076701498,0.003459048,-2.799339573,-0.000997268,0.168630308,0.006449273,3.596712237,6.431000000,-0.000885607,0.018719057
1707309211.281390,0.000234883,0.020290682,-0.001863002,-0.008906197,0.000227584,-0.167707480,-0.000163081,-3.622128322,-0.000179057,0.818210661,0.010730157,4.280883282,6.432000000,-0.000863655,0.021951748
1707309211.282512,0.000253826,0.018943101,-0.001804825,0.058176922,-0.000112538,-0.340122020,-0.002695843,-2.532762692,0.001108761,1.287818209,0.013807001,3.076844650,6.433000000,-0.000838121,0.025534914
1707309211.283079,0.000272808,0.018982052,-0.001726437,0.078388049,-0.000473917,-0.361379123,-0.003444136,-0.748292086,0.002302886,1.194124969,0.014944560,1.137558546,6.434000000,-0.000809033,0.029087764
1707309211.284291,0.000289114,0.016306197,-0.001664586,0.061850590,-0.000745225,-0.271308334,-0.002253775,1.190360570,0.003131443,0.828556941,0.014019873,-0.924686891,6.435000000,-0.000776097,0.032935960
1707309211.285420,0.000300661,0.011546737,-0.001646875,0.017711191,-0.000842778,-0.097552923,0.000994227,3.248001654,0.003389651,0.258208285,0.010936891,-3.082981865,6.436000000,-0.000739122,0.036974571
1707309211.286001,0.000307698,0.007036536,-0.001678936,-0.032061266,-0.000763227,0.079551525,0.004037201,3.042973923,0.003072113,-0.317538140,0.007946397,-2.990494250,6.437000000,-0.000698179,0.040942816
1707309211.287128,0.000310511,0.002813493,-0.001752479,-0.073542610,-0.000531379,0.231847796,0.006837788,2.800586929,0.002239178,-0.832934767,0.005079192,-2.867205315,6.438000000,-0.000653434,0.044745935
1707309211.288358,0.000310732,0.000220642,-0.001843617,-0.091138282,-0.000219250,0.312128905,0.009285318,2.447530176,0.001067509,-1.171669024,0.002430661,-2.648530274,6.439000000,-0.000605240,0.048193325
1707309211.289448,0.000310866,0.000134419,-0.001920285,-0.076667661,0.000076349,0.295599021,0.011231007,1.945689100,-0.000205096,-1.272605673,0.000130519,-2.300141931,6.440000000,-0.000554078,0.051162233
1707309211.290007,0.000298586,-0.012280190,-0.001939437,-0.019152208,0.000217035,0.140685929,0.011911611,0.680603799,-0.001025961,-0.820864916,-0.000837606,-0.968125058,6.441000000,-0.000499245,0.054833369
1707309211.291142,0.000267494,-0.031092141,-0.001885998,0.053438872,0.000155352,-0.061682659,0.010820841,-1.090769139,-0.001262383,-0.236421741,0.000158234,0.995839332,6.442000000,-0.000440512,0.058732788
1707309211.292554,0.000227703,-0.039790791,-0.001767816,0.118182538,-0.000083890,-0.239242591,0.008467727,-2.353114860,-0.000993190,0.269193124,0.002463214,2.304980100,6.443000000,-0.000378969,0.061543242
1707309211.293702,0.000189462,-0.038241183,-0.001611311,0.156504642,-0.000419983,-0.336092548,0.005518295,-2.949431264,-0.000437180,0.556009827,0.005250240,2.787025734,6.444000000,-0.000315681,0.063287762
1707309211.294830,0.000151898,-0.037564243,-0.001451814,0.159496787,-0.000747631,-0.327648205,0.002138715,-3.379580112,0.000146188,0.583368506,0.008362473,3.112233708,6.445000000,-0.000250789,0.064892028
1707309211.295379,0.000116454,-0.035443510,-0.001329228,0.122586254,-0.000944902,-0.197270798,-0.001478004,-3.616719074,0.000366980,0.220791255,0.011585104,3.222631119,6.446000000,-0.000184632,0.066156948
1707309211.296562,0.000084272,-0.032182244,-0.001274846,0.054381742,-0.000901453,0.043448804,-0.002901296,-1.423292549,-0.000151123,-0.518102841,0.012474384,0.889279705,6.447000000,-0.000117578,0.067053647
1707309211.298405,0.000052658,-0.031613909,-0.001273464,0.001382315,-0.000670978,0.230475307,-0.002241243,0.660053703,-0.001083578,-0.932455158,0.011203151,-1.271233241,6.448000000,-0.000049742,0.067835967
1707309211.299337,0.000024387,-0.028271232,-0.001302265,-0.028800616,-0.000323787,0.347190888,0.000379345,2.620587413,-0.002258423,-1.174845018,0.007872227,-3.330924177,6.449000000,0.000018249,0.067991059
1707309211.299794,0.000004876,-0.019510185,-0.001322409,-0.020144658,0.000007440,0.331227230,0.002484104,2.104758972,-0.003347225,-1.088801172,0.004913565,-2.958662035,6.450000000,0.000085517,0.067268572
1707309211.301028,-0.000002172,-0.007048014,-0.001300889,0.021520774,0.000221627,0.214186390,0.003916282,1.432178355,-0.004102268,-0.755043007,0.002459177,-2.454387658,6.451000000,0.000151355,0.065837480
1707309211.301579,0.000005641,0.007812380,-0.001216781,0.084107453,0.000254087,0.032460206,0.004576845,0.660562698,-0.004364812,-0.262544545,0.000593466,-1.865710857,6.452000000,0.000215249,0.063893776
1707309211.302740,0.000022392,0.016751601,-0.001067347,0.149434156,0.000093495,-0.160592471,0.004121084,-0.455760872,-0.004094624,0.270188043,-0.000238134,-0.831599802,6.453000000,0.000277465,0.062215837
1707309211.303329,0.000039273,0.016880716,-0.000869683,0.197664344,-0.000212133,-0.305627740,0.002248321,-1.872762625,-0.003394524,0.700099695,0.000392909,0.631042278,6.454000000,0.000338607,0.061142269
1707309211.304729,0.000059111,0.019838345,-0.000657330,0.212352702,-0.000562852,-0.350719133,-0.000586334,-2.834655489,-0.002519739,0.874785875,0.001960946,1.568037626,6.455000000,0.000398414,0.059806786
1707309211.305879,0.000084617,0.025505888,-0.000472830,0.184500310,-0.000817109,-0.254256760,-0.001480533,-0.894198958,-0.001836047,0.683691232,0.001474370,-0.486575704,6.456000000,0.000456668,0.058254044
1707309211.306873,0.000113459,0.028842125,-0.000343731,0.129098706,-0.000894163,-0.077053504,-0.000324603,1.155930643,-0.001539520,0.296527133,-0.001151007,-2.625377356,6.457000000,0.000513526,0.056858803
1707309211.308206,0.000121970,0.008510800,-0.000276836,0.066894959,-0.000779787,0.114375137,0.001750158,2.074760637,-0.001620621,-0.081100546,-0.004420638,-3.269630953,6.458000000,0.000570796,0.057269264
1707309211.308653,0.000111395,-0.010575565,-0.000257434,0.019401504,-0.000534690,0.245097336,0.002301491,0.551332436,-0.001922617,-0.301995934,-0.005890368,-1.469730306,6.459000000,0.000628159,0.057362882
1707309211.309202,0.000084579,-0.026815338,-0.000261574,-0.004139219,-0.000232853,0.301836868,0.001230046,-1.071444740,-0.002263862,-0.341245683,-0.005483778,0.406589805,6.460000000,0.000685073,0.056914829
1707309211.310493,0.000045352,-0.039227735,-0.000259410,0.002164009,0.000033966,0.266819373,-0.001599651,-2.829696684,-0.002419505,-0.155642981,-0.003093654,2.390124749,6.461000000,0.000740847,0.055773601
1707309211.311675,-0.000004647,-0.049998433,-0.000228718,0.030691430,0.000211204,0.177238076,-0.004007607,-2.407956381,-0.002261023,0.158482020,-0.000913245,2.180408338,6.462000000,0.000794945,0.054097791
1707309211.312857,-0.000058210,-0.053562739,-0.000152763,0.075955293,0.000247375,0.036170779,-0.005882838,-1.875230367,-0.001671025,0.589998639,0.000861446,1.774691544,6.463000000,0.000846395,0.051450396
1707309211.313869,-0.000096849,-0.038639274,-0.000030740,0.122023240,0.000141091,-0.106284206,-0.006410068,-0.527230237,-0.000678119,0.992905801,0.001148171,0.286725073,6.464000000,0.000893379,0.046983780
1707309211.315022,-0.000117106,-0.020256825,0.000124960,0.155699634,-0.000071893,-0.212983881,-0.005419045,0.991022625,0.000625394,1.303513049,-0.000260978,-1.409149210,6.465000000,0.000935380,0.042000999
1707309211.316244,-0.000127455,-0.010349642,0.000281012,0.156051867,-0.000289216,-0.217323252,-0.003408663,2.010382326,0.001820665,1.195271220,-0.002722509,-2.461530986,6.466000000,0.000972921,0.037540972
1707309211.316768,-0.000138712,-0.011256339,0.000414922,0.133909932,-0.000446604,-0.157387555,-0.000781947,2.626715959,0.002769415,0.948749402,-0.005665740,-2.943231460,6.467000000,0.001006780,0.033859332
1707309211.317962,-0.000151569,-0.012857722,0.000509372,0.094450713,-0.000493494,-0.046890502,0.002535735,3.317681742,0.003347913,0.578498553,-0.009155866,-3.490125694,6.468000000,0.001036922,0.030141781
1707309211.318507,-0.000164346,-0.012777130,0.000562656,0.053283516,-0.000440308,0.053186568,0.004267291,1.731555824,0.003584066,0.236153044,-0.010938754,-1.782887673,6.469000000,0.001063103,0.026181108
1707309211.319665,-0.000176060,-0.011713166,0.000579338,0.016682419,-0.000302168,0.138139942,0.004397391,0.130100759,0.003514713,-0.069353840,-0.011009657,-0.070903476,6.470000000,0.001085109,0.022005827
1707309211.321003,-0.000184895,-0.008835261,0.000572859,-0.006479716,-0.000120716,0.181451837,0.002878078,-1.519313766,0.003241719,-0.272993837,-0.009336781,1.672876090,6.471000000,0.001102637,0.017528368
1707309211.322900,-0.000188873,-0.003977699,0.000561230,-0.011628562,0.000048696,0.169412422,-0.000368436,-3.246513213,0.002901106,-0.340612772,-0.005858056,3.478724779,6.472000000,0.001115375,0.012737649
1707309211.332162,-0.000188061,0.000811790,0.000557233,-0.003997335,0.000180723,0.132026321,-0.003116306,-2.747869943,0.002552856,-0.348249734,-0.002789933,3.068123613,6.473000000,0.001123202,0.007826635
1707309211.336944,-0.000181448,0.006613240,0.000573956,0.016723514,0.000235076,0.054353432,-0.005431685,-2.315379513,0.002295791,-0.257065190,-0.000076378,2.713554452,6.474000000,0.001125969,0.002767096
1707309211.338079,-0.000157405,0.024042389,0.000615280,0.041324065,0.000201412,-0.033663765,-0.006752329,-1.320643681,0.002133762,-0.162028671,0.001539514,1.615892320,6.475000000,0.001122754,-0.003214744
1707309211.341340,-0.000104545,0.052860395,0.000675976,0.060695966,0.000097072,-0.104340632,-0.006424349,0.327979829,0.002001415,-0.132347363,0.001216588,-0.322926310,6.476000000,0.001112754,-0.009999602
1707309211.344577,0.000051639,0.078301898,0.000809495,0.064498598,-0.000191340,-0.145956786,-0.001817841,2.633587570,0.001551871,-0.270371828,-0.003809735,-2.801192580,6.478000000,0.001076337,-0.020175606
1707309211.347030,0.000185805,0.062692446,0.000873021,0.018549249,-0.000354214,-0.057745786,0.002927982,1.536397689,0.000423520,-0.665886442,-0.008417375,-1.387969349,6.480000000,0.001027513,-0.025657412
1707309211.347661,0.000237145,0.051339942,0.000859196,-0.013825121,-0.000346546,0.007668114,0.002838264,-0.089717270,-0.000488550,-0.912069323,-0.008006078,0.411297499,6.481000000,0.000999873,-0.027639359
1707309211.348905,0.000270756,0.033610652,0.000825476,-0.033719964,-0.000317109,0.029437745,0.001060297,-1.777967565,-0.001344333,-0.855783534,-0.005651426,2.354651393,6.482000000,0.000971020,-0.028853463
1707309211.349442,0.000285727,0.014971514,0.000775186,-0.050289774,-0.000275372,0.041736404,-0.002410389,-3.470686145,-0.002119702,-0.775368704,-0.001343189,4.308237517,6.483000000,0.000941209,-0.029811110
1707309211.350618,0.000279749,-0.005978314,0.000708988,-0.066198090,-0.000208487,0.066884764,-0.005286745,-2.876355079,-0.002849877,-0.730174934,0.002648610,3.991798805,6.484000000,0.000910748,-0.030460697
1707309211.352371,0.000277235,-0.002514303,0.000631778,-0.077210096,-0.000125949,0.082538021,-0.006359992,-1.073247426,-0.003558381,-0.708504526,0.004731926,2.083315821,6.485000000,0.000877769,-0.032978823
1707309211.353010,0.000278445,0.001210272,0.000552774,-0.079003436,-0.000054477,0.071472247,-0.005684975,0.675016914,-0.004180358,-0.621976913,0.004955045,0.223118829,6.486000000,0.000842341,-0.035428582
1707309211.354021,0.000283332,0.004886807,0.000480128,-0.072646667,-0.000017446,0.037031515,-0.003312362,2.372613200,-0.004658912,-0.478553707,0.003365676,-1.589368670,6.487000000,0.000804568,-0.037772647
1707309211.355833,0.000291539,0.008207582,0.000418442,-0.061685898,-0.000027448,-0.010002897,0.000729438,4.041799868,-0.004963497,-0.304584754,-0.000007806,-3.373481970,6.488000000,0.000764608,-0.039959942
1707309211.357324,0.000275334,-0.017638257,0.000336902,-0.036068963,-0.000261107,-0.145838412,0.004474965,0.959637537,-0.004768364,0.222884878,-0.002025639,0.034048301,6.490000000,0.000682095,-0.041307583
1707309211.359485,0.000238098,-0.037235323,0.000296268,-0.040633713,-0.000421244,-0.160136090,0.003692550,-0.782415239,-0.004403205,0.365159084,0.000015235,2.040874788,6.491000000,0.000640867,-0.041227815
1707309211.360758,0.000193259,-0.044839963,0.000234428,-0.061839733,-0.000541454,-0.120210301,0.001889927,-1.802622800,-0.004054066,0.349139299,0.003150137,3.134901310,6.492000000,0.000598852,-0.042015233
1707309211.363123,0.000152956,-0.040302810,0.000139046,-0.095382401,-0.000580353,-0.038898985,-0.000259946,-2.149873087,-0.003846550,0.207515947,0.006519640,3.369503753,6.493000000,0.000555132,-0.043720249
1707309211.366059,0.000115958,-0.036998003,0.000003644,-0.135402297,-0.000502615,0.077737675,-0.000508243,-0.248297458,-0.003872380,-0.025829674,0.007883421,1.363780395,6.494000000,0.000509849,-0.045282947
1707309211.369147,0.000083850,-0.032107892,-0.000162351,-0.165994957,-0.000334023,0.168592207,0.001152600,1.660843574,-0.004069391,-0.197011033,0.007225763,-0.657657303,6.495000000,0.000462886,-0.046963253
1707309211.374307,0.000061010,-0.022839908,-0.000335918,-0.173566452,-0.000155611,0.178412088,0.002329949,1.177348913,-0.004235872,-0.166481352,0.006911284,-0.314479493,6.496000000,0.000413877,-0.049008905
1707309211.385553,0.000049509,-0.011500437,-0.000497126,-0.161208627,-0.000024864,0.130746630,0.002943159,0.613209982,-0.004232585,0.003287413,0.007004509,0.093225295,6.497000000,0.000362683,-0.051193885
1707309211.389400,0.000050444,0.000934718,-0.000630905,-0.133778870,0.000015396,0.040260414,0.002933670,-0.009489338,-0.003955424,0.277160469,0.007555395,0.550885833,6.498000000,0.000309308,-0.053374531
1707309211.389851,0.000088274,0.024470091,-0.000804141,-0.072599512,-0.000201786,-0.152267268,0.001026013,-1.257597658,-0.002517570,0.851475972,0.010053323,1.472903243,6.500000000,0.000196872,-0.057047471
1707309211.391882,0.000121446,0.033172482,-0.000862830,-0.058689515,-0.000396467,-0.194680902,-0.000763928,-1.789941264,-0.001511399,1.006170408,0.011912706,1.859383607,6.501000000,0.000138683,-0.058189385
1707309211.392080,0.000158204,0.036757730,-0.000930199,-0.067368814,-0.000549162,-0.152694999,-0.000702003,0.061925268,-0.000561105,0.950293820,0.011809501,-0.103205604,6.502000000,0.000080135,-0.058548076
1707309211.395852,0.000196043,0.037839042,-0.001020435,-0.090236268,-0.000614851,-0.065689453,0.001273117,1.975119349,0.000223838,0.784943175,0.009703786,-2.105715033,6.503000000,0.000021787,-0.058347782
1707309211.397742,0.000238038,0.041995436,-0.001143202,-0.122766832,-0.000571523,0.043328267,0.002932793,1.659676199,0.000651544,0.427705895,0.007772005,-1.931781058,6.504000000,-0.000036284,-0.058070371
1707309211.401762,0.000283720,0.045681571,-0.001295621,-0.152418522,-0.000423837,0.147686190,0.004273916,1.341122987,0.000682892,0.031348366,0.006004602,-1.767402558,6.505000000,-0.000093729,-0.057445781
1707309211.403185,0.000332071,0.048350521,-0.001461052,-0.165430782,-0.000219675,0.204161187,0.005225107,0.951190952,0.000435966,-0.246925761,0.004473511,-1.531091595,6.506000000,-0.000150186,-0.056456921
1707309211.405770,0.000382473,0.050402113,-0.001617120,-0.156068871,-0.000024321,0.195354122,0.005688360,0.463253530,0.000071470,-0.364495817,0.003274817,-1.198693628,6.507000000,-0.000205339,-0.055152221
1707309211.407439,0.000430693,0.048220579,-0.001733262,-0.116141779,0.000067143,0.091464840,0.005520377,-0.167983413,-0.000023640,-0.095110092,0.002606561,-0.668256163,6.508000000,-0.000258569,-0.053230056
1707309211.408635,0.000474479,0.043785549,-0.001796572,-0.063309836,0.000016389,-0.050754642,0.004665646,-0.854730585,0.000284770,0.308409761,0.002543278,-0.063282616,6.509000000,-0.000309397,-0.050828635
1707309211.411741,0.000515921,0.041442431,-0.001822280,-0.025708093,-0.000123080,-0.139468670,0.003221299,-1.444347094,0.000682302,0.397531950,0.002931347,0.388069269,6.510000000,-0.000357674,-0.048276342
1707309211.413647,0.000552397,0.036475419,-0.001824444,-0.002164218,-0.000307188,-0.184108553,0.001260315,-1.960984230,0.001051638,0.369335945,0.003711198,0.779850285,6.511000000,-0.000402845,-0.045171610
1707309211.415433,0.000580946,0.028549158,-0.001821293,0.003151539,-0.000479840,-0.172652076,-0.001126365,-2.386680048,0.001255633,0.203995175,0.004811271,1.100072912,6.512000000,-0.000444344,-0.041498443
1707309211.416718,0.000597263,0.016317666,-0.001833985,-0.012692242,-0.000562200,-0.082359669,-0.001561435,-0.435069772,0.001098899,-0.156734128,0.003893250,-0.918020094,6.513000000,-0.000481541,-0.037197466
1707309211.419571,0.000599940,0.002676511,-0.001870419,-0.036433680,-0.000529768,0.032432054,-0.000020672,1.540762974,0.000521782,-0.577117391,0.000944197,-2.949053919,6.514000000,-0.000514118,-0.032577083
1707309211.419705,0.000586161,-0.013779174,-0.001924616,-0.054196844,-0.000407204,0.122563737,0.002233141,2.253812687,-0.000407868,-0.929649702,-0.002730833,-3.675030038,6.515000000,-0.000541743,-0.027625156
1707309211.422113,0.000532808,-0.053353062,-0.001967683,-0.043067254,-0.000298906,0.108298412,0.002763295,0.530154734,-0.001200369,-0.792501409,-0.004322752,-1.591918873,6.516000000,-0.000562539,-0.020795934
1707309211.422718,0.000443062,-0.089745757,-0.001988361,-0.020678225,-0.000238479,0.060427268,0.001536391,-1.226904828,-0.001773959,-0.573589256,-0.003816653,0.506099382,6.517000000,-0.000576897,-0.014357349
1707309211.424141,0.000320838,-0.122224298,-0.001980465,0.007895905,-0.000244512,-0.006033791,-0.001466576,-3.002966862,-0.002084762,-0.310803391,-0.001215050,2.601602730,6.518000000,-0.000585384,-0.008487410
1707309211.425711,0.000169484,-0.151353287,-0.001948908,0.031557297,-0.000288077,-0.043564193,-0.003878944,-2.412367769,-0.002212522,-0.127759557,0.001090351,2.305400807,6.519000000,-0.000588618,-0.003233704
1707309211.426412,0.000014913,-0.154570888,-0.001900642,0.048266098,-0.000344900,-0.056823055,-0.004599201,-0.720256822,-0.002260327,-0.047805268,0.001643140,0.552789271,6.520000000,-0.000589106,-0.000488003
1707309211.427302,-0.000135775,-0.150688611,-0.001842059,0.058583163,-0.000396187,-0.051287686,-0.003514986,1.084214352,-0.002281374,-0.021047272,0.000275250,-1.367889486,6.521000000,-0.000587877,0.001229160
1707309211.428570,-0.000286894,-0.151118452,-0.001777915,0.064143374,-0.000430352,-0.034164423,-0.001100578,2.414408302,-0.002289361,-0.007986793,-0.002416197,-2.691447259,6.522000000,-0.000585039,0.002837467
1707309211.429295,-0.000447743,-0.160849305,-0.001710804,0.067111509,-0.000443460,-0.013108437,0.001895553,2.996130871,-0.002269463,0.019897686,-0.005480167,-3.063969994,6.523000000,-0.000580318,0.004721054
1707309211.432819,-0.000610325,-0.162582240,-0.001638737,0.072067044,-0.000456968,-0.013507955,0.003178527,1.282973952,-0.002168555,0.100907802,-0.006668256,-1.188088785,6.524000000,-0.000574865,0.005453180
1707309211.433996,-0.000768494,-0.158169262,-0.001563986,0.074750869,-0.000465450,-0.008482133,0.002773437,-0.405090065,-0.002003870,0.164685650,-0.006040119,0.628136804,6.525000000,-0.000569681,0.005183590
1707309211.435155,-0.000916433,-0.147938489,-0.001488310,0.075675818,-0.000465150,0.000300067,0.000693907,-2.079529370,-0.001788386,0.215483610,-0.003641898,2.398220693,6.526000000,-0.000565731,0.003949896
1707309211.435726,-0.001048736,-0.132303618,-0.001412663,0.075646738,-0.000454796,0.010354170,-0.003050297,-3.744204365,-0.001528872,0.259514663,0.000485691,4.127589661,6.527000000,-0.000563915,0.001816422
1707309211.436350,-0.001146207,-0.097470361,-0.001342923,0.069740368,-0.000401292,0.053504259,-0.005300530,-2.250232868,-0.001344903,0.183968693,0.002913971,2.428279259,6.528000000,-0.000566168,-0.002253369
1707309211.437526,-0.001197287,-0.051079710,-0.001275496,0.067426729,-0.000315971,0.085320800,-0.005702393,-0.401863132,-0.001224547,0.120356312,0.003149209,0.235238454,6.529000000,-0.000573718,-0.007549846
1707309211.438677,-0.001199612,-0.002325143,-0.001202790,0.072706242,-0.000223770,0.092201505,-0.004316510,1.385883234,-0.001106921,0.117625796,0.001238913,-1.910296233,6.530000000,-0.000586909,-0.013191010
1707309211.439262,-0.001153349,0.046262901,-0.001116561,0.086228470,-0.000151804,0.071966018,-0.001231959,3.084550909,-0.000923479,0.183441952,-0.002722085,-3.960997688,6.531000000,-0.000605712,-0.018802776
1707309211.440511,-0.001083173,0.070176158,-0.001008297,0.108264068,-0.000132251,0.019552521,0.002298073,3.530031901,-0.000548644,0.374835148,-0.007108989,-4.386904569,6.532000000,-0.000627974,-0.022262395
1707309211.441701,-0.000989572,0.093600459,-0.000873456,0.134841289,-0.000195189,-0.062937750,0.003966359,1.668286041,0.000097886,0.646530033,-0.009618673,-2.509683780,6.533000000,-0.000653364,-0.025389425
1707309211.443113,-0.000875168,0.114404597,-0.000723597,0.149859195,-0.000306180,-0.110991383,0.003841176,-0.125183069,0.000876601,0.778714731,-0.010320332,-0.701658630,6.534000000,-0.000681257,-0.027892881
1707309211.443779,-0.000741989,0.133179090,-0.000579909,0.143688335,-0.000399169,-0.092989118,0.002042750,-1.798425404,0.001492199,0.615598058,-0.009358543,0.961788964,6.535000000,-0.000710992,-0.029735068
1707309211.445127,-0.000596011,0.145977618,-0.000453580,0.126328323,-0.000442577,-0.043407622,-0.001370848,-3.413598820,0.001870718,0.378518609,-0.006760341,2.598201608,6.536000000,-0.000741531,-0.030539735
1707309211.446282,-0.000444914,0.151097227,-0.000354742,0.098837999,-0.000393962,0.048614379,-0.004068628,-2.697779839,0.001909560,0.038842005,-0.004803944,1.956396956,6.537000000,-0.000771693,-0.030161678
1707309211.446818,-0.000293913,0.151000620,-0.000279943,0.074799597,-0.000265996,0.127966858,-0.006075370,-2.006741418,0.001645150,-0.264409933,-0.003436388,1.367555784,6.538000000,-0.000800503,-0.028809434
1707309211.447508,-0.000147691,0.146221592,-0.000217584,0.062358667,-0.000095931,0.170064240,-0.007454150,-1.378780292,0.001173697,-0.471452703,-0.002573629,0.862759298,6.539000000,-0.000827060,-0.026557757
1707309211.448659,-0.000010504,0.137187611,-0.000151734,0.065849851,0.000065897,0.161828499,-0.008288103,-0.833952993,0.000623104,-0.550592892,-0.002116772,0.456857432,6.540000000,-0.000850536,-0.023475864
1707309211.449813,0.000113635,0.124138525,-0.000067311,0.084423108,0.000171727,0.105829863,-0.008655852,-0.367748796,0.000114533,-0.508571584,-0.001973205,0.143566391,6.541000000,-0.000870153,-0.019616370
1707309211.451018,0.000217517,0.103881893,0.000052401,0.119711785,0.000164855,-0.006871698,-0.008657012,-0.001160207,-0.000084646,-0.199178924,-0.001980768,-0.007562616,6.542000000,-0.000884897,-0.014744869
1707309211.451790,0.000295369,0.077852094,0.000209203,0.156802544,0.000035326,-0.129529718,-0.008315091,0.341921144,0.000121963,0.206609266,-0.002070215,-0.089447414,6.543000000,-0.000893920,-0.009022396
1707309211.453204,0.000345099,0.049729856,0.000383732,0.174528499,-0.000158454,-0.193779607,-0.007540145,0.774945357,0.000520021,0.398058086,-0.002332592,-0.262376361,6.544000000,-0.000896737,-0.002817364
1707309211.455299,0.000366350,0.021251940,0.000547331,0.163599096,-0.000328601,-0.170147361,-0.006196007,1.344138406,0.000776836,0.256814423,-0.002921965,-0.589373384,6.545000000,-0.000893106,0.003630958
1707309211.456158,0.000357030,-0.009320165,0.000681016,0.133685141,-0.000420181,-0.091579184,-0.004201152,1.994855411,0.000759317,-0.017518424,-0.003902507,-0.980542192,6.546000000,-0.000882751,0.010355002
1707309211.456731,0.000316672,-0.040358617,0.000774005,0.092988838,-0.000402911,0.017269410,-0.001512936,2.688215107,0.000393421,-0.365895885,-0.005312367,-1.409859730,6.547000000,-0.000865664,0.017087575
1707309211.458703,0.000246739,-0.069932520,0.000826785,0.052780300,-0.000280418,0.122493174,0.001858113,3.371049115,-0.000312856,-0.706276944,-0.007151937,-1.839570227,6.548000000,-0.000842144,0.023519899
1707309211.459849,0.000148032,-0.098706834,0.000866466,0.039681020,-0.000156735,0.123683032,0.003489290,1.631176938,-0.000909372,-0.596516147,-0.006972514,0.179422812,6.549000000,-0.000812573,0.029570639
1707309211.461063,0.000025731,-0.122301273,0.000904762,0.038296266,-0.000068844,0.087890501,0.003334917,-0.154372756,-0.001307775,-0.398403029,-0.004757661,2.214853856,6.550000000,-0.000777814,0.034758885
1707309211.463005,-0.000259618,-0.145097220,0.001002947,0.053061797,-0.000082076,-0.039157520,-0.002040047,-3.402797067,-0.001338331,0.108771085,0.005245307,5.751721146,6.552000000,-0.000697293,0.041553923
1707309211.463548,-0.000389953,-0.130335039,0.001053493,0.050546554,-0.000138601,-0.056524630,-0.003693863,-1.653815340,-0.001137095,0.201236318,0.009048008,3.802701624,6.553000000,-0.000655281,0.042012044
1707309211.464801,-0.000500812,-0.110858965,0.001095333,0.041839798,-0.000194600,-0.055998989,-0.003585943,0.107920291,-0.000889718,0.247377034,0.010867022,1.819013730,6.554000000,-0.000613709,0.041572884
1707309211.465376,-0.000588325,-0.087512401,0.001122441,0.027108183,-0.000232500,-0.037900388,-0.001705355,1.880587240,-0.000640974,0.248743183,0.010675649,-0.191372686,6.555000000,-0.000573348,0.040360876
1707309211.467685,-0.000649334,-0.061009162,0.001130764,0.008322229,-0.000240448,-0.007948546,0.001955014,3.660369320,-0.000421223,0.219751937,0.008453405,-2.222243847,6.556000000,-0.000534849,0.038498806
1707309211.469102,-0.000679607,-0.030272816,0.001123593,-0.007170301,-0.000242473,-0.002024265,0.005089895,3.134880636,-0.000168771,0.252451940,0.006478860,-1.974545064,6.557000000,-0.000498875,0.035973835
1707309211.470344,-0.000677828,0.001778523,0.001100876,-0.022717247,-0.000238197,0.004275377,0.007701932,2.612036944,0.000115000,0.283770881,0.004742840,-1.736020354,6.558000000,-0.000465741,0.033134483
1707309211.471655,-0.000642194,0.035634214,0.001059185,-0.041690566,-0.000214539,0.023658168,0.009815344,2.113412461,0.000329001,0.214000368,0.003195224,-1.547615619,6.559000000,-0.000435703,0.030037800
1707309211.474246,-0.000570855,0.071338644,0.000993990,-0.065195028,-0.000153016,0.061522797,0.011463990,1.648645597,0.000305155,-0.023845438,0.001761957,-1.433266853,6.560000000,-0.000408917,0.026785851
1707309211.475487,-0.000341026,0.124847234,0.000831932,-0.080286989,-0.000035084,0.038386318,0.012806679,0.186947496,-0.000006488,-0.099984023,0.000012015,-0.468846330,6.562000000,-0.000362995,0.022121660
1707309211.476209,-0.000205789,0.135237706,0.000761619,-0.070312552,-0.000064506,-0.029422006,0.011781101,-1.025578136,0.000134988,0.141475791,0.000705992,0.693976839,6.563000000,-0.000341506,0.021489254
1707309211.477587,-0.000057093,0.148696180,0.000693577,-0.068041922,-0.000132860,-0.068354447,0.009919339,-1.861761038,0.000355131,0.220142295,0.002085080,1.379088270,6.564000000,-0.000320546,0.020960309
1707309211.478232,0.000107161,0.164253236,0.000614649,-0.078928298,-0.000193904,-0.061043481,0.007582653,-2.336686863,0.000422537,0.067405999,0.003694322,1.609242203,6.565000000,-0.000299879,0.020667268
1707309211.479854,0.000280610,0.173449821,0.000519815,-0.094833677,-0.000230447,-0.036543245,0.004802502,-2.780150409,0.000298487,-0.124049882,0.005538629,1.844306804,6.566000000,-0.000278548,0.021330614
1707309211.480442,0.000456779,0.176168531,0.000406698,-0.113117008,-0.000233093,-0.002646081,0.001598318,-3.204184409,-0.000036257,-0.334743820,0.007635874,2.097244409,6.567000000,-0.000255573,0.022974863
1707309211.481743,0.000624848,0.168068777,0.000288050,-0.118647946,-0.000244144,-0.011051303,-0.002094786,-3.693104195,-0.000282034,-0.245776980,0.010156278,2.520404645,6.568000000,-0.000229627,0.025945653
1707309211.483746,0.000776800,0.151952033,0.000160245,-0.127805076,-0.000236054,0.008090767,-0.003971844,-1.877057218,-0.000506676,-0.224642040,0.010845475,0.689196421,6.569000000,-0.000199644,0.029983702
1707309211.484558,0.000907144,0.130343941,0.000025780,-0.134464827,-0.000213736,0.022317124,-0.004053010,-0.081165907,-0.000695153,-0.188476944,0.009754565,-1.090910163,6.570000000,-0.000164821,0.034822840
1707309211.486671,0.001011358,0.104214606,-0.000111352,-0.137132445,-0.000186571,0.027165558,-0.002363836,1.689173937,-0.000822161,-0.127007899,0.006933760,-2.820804844,6.571000000,-0.000124527,0.040294134
1707309211.488590,0.001085915,0.074557119,-0.000246649,-0.135297221,-0.000165438,0.021133053,0.001071602,3.435437641,-0.000859315,-0.037153925,0.002426923,-4.506836699,6.572000000,-0.000078313,0.046213505
1707309211.489821,0.001130385,0.044469740,-0.000372180,-0.125530607,-0.000185577,-0.020139723,0.003934797,2.863195259,-0.000715951,0.143364384,-0.001449574,-3.876497280,6.573000000,-0.000026095,0.052218398
1707309211.491400,0.001119665,-0.010720361,-0.000485650,-0.113470378,-0.000255615,-0.070037822,0.004993751,1.058953719,-0.000325530,0.390420297,-0.003079407,-1.629832605,6.574000000,0.000034081,0.060176235
1707309211.492538,0.001054292,-0.065372469,-0.000592509,-0.106859172,-0.000356234,-0.100618387,0.004300724,-0.693027250,0.000263152,0.588682092,-0.002516701,0.562705637,6.575000000,0.000101954,0.067872951
1707309211.494580,0.000940327,-0.113965319,-0.000711407,-0.118897633,-0.000422879,-0.066645302,0.001972331,-2.328392578,0.000719539,0.456387441,0.000050294,2.566994926,6.576000000,0.000176625,0.074670911
1707309211.495193,0.000795040,-0.145286963,-0.000850129,-0.138722301,-0.000426107,-0.003228406,-0.001293582,-3.265913629,0.000919512,0.199973084,0.003698414,3.648119763,6.577000000,0.000256119,0.079493608
1707309211.497153,0.000634071,-0.160968775,-0.001012374,-0.162244902,-0.000335856,0.090251060,-0.002603433,-1.309850997,0.000760940,-0.158572424,0.005345682,1.647268420,6.578000000,0.000338449,0.082329837
1707309211.497875,0.000464560,-0.169511413,-0.001186936,-0.174561858,-0.000183352,0.152503916,-0.002024390,0.579043371,0.000316190,-0.444749684,0.005023673,-0.322008747,6.579000000,0.000422225,0.083776281
1707309211.507374,0.000294217,-0.170343077,-0.001356314,-0.169377759,-0.000018890,0.164462471,0.000355700,2.380090540,-0.000296455,-0.612645704,0.002776050,-2.247623528,6.580000000,0.000505958,0.083733196
1707309211.513198,0.000128003,-0.166213553,-0.001486209,-0.129895008,0.000036180,0.055070345,0.002077917,1.722216216,-0.000588319,-0.291863759,0.001068603,-1.707446911,6.581000000,0.000588382,0.082423410
1707309211.520237,-0.000029029,-0.157032293,-0.001569194,-0.082984923,-0.000038658,-0.074837913,0.003001794,0.923877191,-0.000510036,0.078282930,0.000039678,-1.028925174,6.582000000,0.000668258,0.079876049
1707309211.522755,-0.000180237,-0.151207504,-0.001610508,-0.041313867,-0.000227227,-0.188569558,0.002690246,-0.311548150,-0.000088468,0.421568044,0.000243813,0.204135075,6.583000000,0.000745106,0.076848887
1707309211.538909,-0.000319152,-0.138915246,-0.001628418,-0.017910718,-0.000472183,-0.244955985,0.001334944,-1.355302018,0.000527627,0.616094890,0.001440847,1.197034036,6.584000000,0.000817738,0.072631211
1707309211.541412,-0.000427860,-0.108708022,-0.001659504,-0.031086046,-0.000653349,-0.181166085,-0.000372100,-1.707044103,0.000827740,0.300113733,0.002703918,1.263071539,6.585000000,0.000884108,0.066370779
1707309211.543063,-0.000505130,-0.077270368,-0.001725259,-0.065754849,-0.000690226,-0.036876969,-0.000055279,0.316821799,0.000608526,-0.219214549,0.001668524,-1.035394208,6.586000000,0.000943610,0.059501140
1707309211.547275,-0.000547398,-0.042267432,-0.001826682,-0.101422604,-0.000583942,0.106284388,0.001370108,1.425386170,-0.000128404,-0.736930149,-0.000769042,-2.437566451,6.587000000,0.000995521,0.051911303
1707309211.548868,-0.000574579,-0.027181302,-0.001935759,-0.109077536,-0.000435803,0.148138598,0.001419131,0.049023666,-0.000905669,-0.777264420,-0.001785711,-1.016668668,6.588000000,0.001041097,0.045576412
1707309211.551602,-0.000589033,-0.014454505,-0.002035841,-0.100082043,-0.000295561,0.140242461,-0.000230555,-1.649686002,-0.001592543,-0.686874569,-0.000995790,0.789920630,6.589000000,0.001080221,0.039123519
1707309211.552311,-0.000587645,0.001388613,-0.002115841,-0.079999601,-0.000181942,0.113618285,-0.001370917,-1.140361865,-0.002152854,-0.560310818,-0.000652002,0.343788248,6.590000000,0.001112407,0.032186621
1707309211.552893,-0.000566651,0.020993578,-0.002164113,-0.048272186,-0.000127363,0.054579846,-0.001714660,-0.343743260,-0.002513773,-0.360918873,-0.001096084,-0.444081743,6.591000000,0.001137206,0.024798378
1707309211.554288,-0.000530336,0.036315128,-0.002174206,-0.010092823,-0.000151336,-0.023973046,-0.001505623,0.209037334,-0.002619690,-0.105917447,-0.002021287,-0.925203489,6.592000000,0.001154916,0.017710604
1707309211.555527,-0.000482280,0.048055751,-0.002148182,0.026024000,-0.000247688,-0.096352876,-0.000847019,0.658603847,-0.002481100,0.138590354,-0.003281811,-1.260523785,6.593000000,0.001165885,0.010968763
1707309211.556513,-0.000424938,0.057342554,-0.002095936,0.052245869,-0.000386514,-0.138825796,0.000306098,1.153116761,-0.002169885,0.311215319,-0.004905804,-1.623993206,6.594000000,0.001170455,0.004569997
1707309211.558661,-0.000359212,0.065726119,-0.002027824,0.068112086,-0.000550794,-0.164280128,-0.000269568,-0.575666033,-0.001722304,0.447581084,-0.004665734,0.240069997,6.595000000,0.001168916,-0.001539199
1707309211.561040,-0.000291040,0.068171253,-0.001965089,0.062734795,-0.000662933,-0.112138254,-0.000221086,0.048481603,-0.001330626,0.391677830,-0.004873805,-0.208070859,6.596000000,0.001162020,-0.006895831
1707309211.562706,-0.000223658,0.067382718,-0.001919310,0.045779019,-0.000689803,-0.026870537,0.000302315,0.523401557,-0.001073684,0.256942076,-0.005359949,-0.486143254,6.597000000,0.001150304,-0.011716542
1707309211.564446,-0.000157889,0.065768757,-0.001890050,0.029260026,-0.000646051,0.043752612,-0.000747504,-1.049819618,-0.000910588,0.163095801,-0.004077784,1.282164975,6.598000000,0.001134092,-0.016211187
1707309211.564792,-0.000097903,0.059985770,-0.001877534,0.012516312,-0.000517756,0.128294176,-0.001083167,-0.335662840,-0.000877373,0.033215115,-0.003288784,0.788999269,6.599000000,0.001113967,-0.020125350
1707309211.566339,-0.000045021,0.052882338,-0.001869264,0.008269953,-0.000343687,0.174069243,-0.000772901,0.310266628,-0.000877163,0.000210331,-0.002921875,0.366908969,6.600000000,0.001090245,-0.023722208
1707309211.566871,-0.000000005,0.045015813,-0.001848162,0.021101930,-0.000176604,0.167082960,0.000097056,0.869956769,-0.000779000,0.098162711,-0.002892724,0.029151683,6.601000000,0.001063174,-0.027071356
1707309211.569220,0.000037949,0.037953931,-0.001795233,0.052929309,-0.000084730,0.091874425,-0.000104535,-0.201591610,-0.000411849,0.367150780,-0.001584613,1.308111059,6.602000000,0.001032865,-0.030308250
1707309211.569947,0.000067248,0.029299341,-0.001703670,0.091562487,-0.000085110,-0.000380235,-0.000574885,-0.470349903,0.000265752,0.677601093,0.000206134,1.790746586,6.603000000,0.000999644,-0.033221677
1707309211.573648,0.000104062,0.036814060,-0.001587789,0.115881568,-0.000124102,-0.038992302,0.000183875,0.758760213,0.000924924,0.659172403,0.000712602,0.506468099,6.604000000,0.000962415,-0.037228385
1707309211.575720,0.000153170,0.049107251,-0.001451421,0.136367276,-0.000202387,-0.078284207,0.000517005,0.333130591,0.001540996,0.616071793,0.001506201,0.793598485,6.605000000,0.000921061,-0.041353983
1707309211.576963,0.000217613,0.064443795,-0.001304079,0.147342832,-0.000294828,-0.092441077,0.000368038,-0.148967308,0.002044683,0.503686584,0.002570145,1.063944278,6.606000000,0.000875672,-0.045388758
1707309211.577533,0.000294014,0.076401105,-0.001156905,0.147174075,-0.000370166,-0.075338396,-0.000213842,-0.581879895,0.002361830,0.317147074,0.003873979,1.303833746,6.607000000,0.000826919,-0.048753139
1707309211.580290,0.000377180,0.083165152,-0.001022978,0.133926097,-0.000379045,-0.008879328,0.000841791,1.055632907,0.002371990,0.010160399,0.003387188,-0.486790594,6.608000000,0.000775651,-0.051268069
1707309211.581249,0.000464970,0.087790370,-0.000901278,0.121700712,-0.000339656,0.039389192,0.001493312,0.651521271,0.002125848,-0.246142605,0.003152054,-0.235134197,6.609000000,0.000722493,-0.053158507
1707309211.582165,0.000554184,0.089213809,-0.000789589,0.111688462,-0.000261346,0.078310597,0.001731508,0.238195639,0.001649306,-0.476541778,0.003191075,0.039020982,6.610000000,0.000668151,-0.054341943
1707309211.584185,0.000641768,0.087584248,-0.000681714,0.107875230,-0.000165529,0.095816177,0.001527177,-0.204331010,0.000998192,-0.651114163,0.003546462,0.355386795,6.611000000,0.000613314,-0.054836578
1707309211.584900,0.000724881,0.083112956,-0.000569662,0.112052473,-0.000079079,0.086450659,0.000839276,-0.687900605,0.000241723,-0.756468740,0.004271096,0.724634777,6.612000000,0.000558645,-0.054669460
1707309211.587739,0.000799873,0.074992389,-0.000444105,0.125556887,-0.000034163,0.044915678,-0.000381924,-1.221200728,-0.000499455,-0.741178442,0.005440372,1.169275788,6.613000000,0.000504860,-0.053785193
1707309211.589579,0.000858287,0.058413123,-0.000297180,0.146925100,-0.000048305,-0.014142282,0.000082376,0.464300618,-0.001028443,-0.528987807,0.004922661,-0.517711076,6.614000000,0.000453055,-0.051804712
1707309211.590774,0.000898575,0.040288068,-0.000129587,0.167592650,-0.000131366,-0.083060280,0.000740831,0.658454281,-0.001316654,-0.288210312,0.004210929,-0.711731777,6.615000000,0.000403730,-0.049324746
1707309211.594092,0.000919017,0.020442085,0.000049640,0.179226594,-0.000263915,-0.132549180,0.000829242,0.088411799,-0.001408533,-0.091879861,0.004077474,-0.133454971,6.616000000,0.000357353,-0.046377002
1707309211.594179,0.000917778,-0.001238526,0.000224959,0.175319084,-0.000401906,-0.137990915,0.000426315,-0.402927398,-0.001410899,-0.002365696,0.004454339,0.376864914,6.617000000,0.000314340,-0.043013571
1707309211.595481,0.000893599,-0.024179194,0.000380374,0.155415575,-0.000499877,-0.097971179,-0.000396237,-0.822551509,-0.001434342,-0.023442936,0.005278475,0.824136128,6.618000000,0.000274988,-0.039351138
1707309211.595960,0.000844247,-0.049351838,0.000500077,0.119702808,-0.000498821,0.001056095,0.000701895,1.098131390,-0.001626701,-0.192358666,0.004229006,-1.049468987,6.619000000,0.000239582,-0.035406383
1707309211.598083,0.000773237,-0.071009889,0.000586712,0.086634374,-0.000423292,0.075529103,0.001413083,0.711188382,-0.001924317,-0.297616495,0.003588839,-0.640167070,6.620000000,0.000207812,-0.031769665
1707309211.600348,0.000683558,-0.089679080,0.000646597,0.059885780,-0.000294635,0.128656239,0.001704225,0.291141349,-0.002275806,-0.351489308,0.003372099,-0.216740212,6.621000000,0.000179312,-0.028500464
1707309211.600589,0.000579420,-0.104137763,0.000691655,0.045057905,-0.000150814,0.143821210,0.001525097,-0.179127261,-0.002589721,-0.313914154,0.003601578,0.229478983,6.622000000,0.000153527,-0.025784645
1707309211.602310,0.000465612,-0.113808538,0.000735532,0.043877118,-0.000034810,0.116004072,0.000809167,-0.715930162,-0.002762568,-0.172847106,0.004314134,0.712556221,6.623000000,0.000129798,-0.023729017
1707309211.603297,0.000347070,-0.118541569,0.000789130,0.053597426,0.000018885,0.053695440,-0.000496517,-1.305684192,-0.002712396,0.050171843,0.005532626,1.218491597,6.624000000,0.000107424,-0.022373845
1707309211.604636,0.000107589,-0.118503980,0.000927616,0.074627267,-0.000034837,-0.055980895,0.001285039,1.410973286,-0.002026391,0.445784456,0.003266324,-1.713850905,6.626000000,0.000064614,-0.021312857
1707309211.607053,-0.000003023,-0.110612143,0.001009515,0.081898584,-0.000150069,-0.115232125,0.002083946,0.798907505,-0.001371888,0.654502284,0.002014303,-1.252021027,6.627000000,0.000042777,-0.021836195
1707309211.609140,-0.000102646,-0.099623406,0.001086218,0.076703103,-0.000288063,-0.137993898,0.002329271,0.245324800,-0.000600542,0.771346796,0.001150838,-0.863465160,6.628000000,0.000019951,-0.022826227
1707309211.612894,-0.000190282,-0.087635750,0.001143234,0.057016117,-0.000406209,-0.118146211,0.002017939,-0.311332370,0.000183580,0.784121354,0.000690726,-0.460112384,6.629000000,-0.000004118,-0.024069538
1707309211.614118,-0.000265114,-0.074831328,0.001161678,0.018444134,-0.000445092,-0.038882602,0.001039148,-0.978790993,0.000724782,0.541202313,0.000756378,0.065652495,6.630000000,-0.000029643,-0.025524894
1707309211.618209,-0.000322383,-0.057269163,0.001132842,-0.028836518,-0.000375903,0.069189065,-0.000527335,-1.566483008,0.000871513,0.146730706,0.001218035,0.461657097,6.631000000,-0.000057133,-0.027489921
1707309211.619773,-0.000382396,-0.025129722,0.000962880,-0.096569300,0.000037913,0.229898469,0.000824548,1.031770100,0.000093644,-0.501943446,-0.002880268,-2.422049467,6.633000000,-0.000118558,-0.031475685
1707309211.621119,-0.000404966,-0.022570129,0.000879929,-0.082951248,0.000185186,0.147272867,-0.000015916,-0.840464128,-0.000163392,-0.257036158,-0.003326532,-0.446264128,6.634000000,-0.000151032,-0.032474641
1707309211.621598,-0.000425247,-0.020281122,0.000827342,-0.052587497,0.000205884,0.020697602,-0.001588815,-1.572898876,-0.000015855,0.147536405,-0.002923768,0.402763961,6.635000000,-0.000184497,-0.033464788
1707309211.623106,-0.000443469,-0.018221306,0.000805877,-0.021464640,0.000105311,-0.100572206,-0.002817464,-1.228649159,0.000520739,0.536594662,-0.002746208,0.177559779,6.636000000,-0.000218889,-0.034392219
1707309211.623597,-0.000455302,-0.011833432,0.000794295,-0.011581594,-0.000045242,-0.150553302,-0.003592498,-0.775033324,0.001077645,0.556905901,-0.002968381,-0.222173039,6.637000000,-0.000254471,-0.035581591
1707309211.624903,-0.000461626,-0.006323576,0.000777858,-0.016437307,-0.000200168,-0.154926050,-0.003844060,-0.251562350,0.001542693,0.465047661,-0.003650044,-0.681663498,6.638000000,-0.000291034,-0.036562866
1707309211.627239,-0.000463563,-0.001937743,0.000741475,-0.036383097,-0.000312663,-0.112494667,-0.003504361,0.339699176,0.001800898,0.258205689,-0.004847048,-1.197003557,6.639000000,-0.000328329,-0.037295254
1707309211.630543,-0.000462207,0.001356117,0.000674541,-0.066934331,-0.000349270,-0.036607739,-0.002523094,0.981266601,0.001770394,-0.030503925,-0.006599463,-1.752415183,6.640000000,-0.000366104,-0.037774446
1707309211.632324,-0.000458162,0.004045149,0.000574385,-0.100156125,-0.000300318,0.048952088,-0.000887310,1.635784135,0.001427170,-0.343224929,-0.008916068,-2.316604957,6.641000000,-0.000404165,-0.038061706
1707309211.634651,-0.000451533,0.006629074,0.000447196,-0.127188988,-0.000182735,0.117582758,0.001374356,2.261666192,0.000812359,-0.614810155,-0.011770583,-2.854514469,6.642000000,-0.000442384,-0.038218344
1707309211.637678,-0.000440091,0.011442379,0.000310416,-0.136779455,-0.000061325,0.121410730,0.001902198,0.527842063,0.000087406,-0.724953661,-0.012831232,-1.060649790,6.643000000,-0.000480826,-0.038442868
1707309211.639602,-0.000426553,0.013537879,0.000186380,-0.124036367,-0.000005937,0.055387772,0.000604299,-1.297899629,-0.000433377,-0.520783043,-0.011960766,0.870466526,6.644000000,-0.000519151,-0.038324185
1707309211.642796,-0.000412198,0.014354586,0.000085184,-0.101195715,-0.000046362,-0.040425528,-0.002554839,-3.159137884,-0.000626249,-0.192871231,-0.009105557,2.855209121,6.645000000,-0.000557107,-0.037956263
1707309211.643562,-0.000400131,0.012067516,0.000000009,-0.085174824,-0.000145540,-0.099177918,-0.005248176,-2.693336322,-0.000586377,0.039871873,-0.006568434,2.537122586,6.646000000,-0.000594265,-0.037157911
1707309211.646385,-0.000391850,0.008280756,-0.000077835,-0.077843827,-0.000274879,-0.129338905,-0.007431374,-2.183198540,-0.000384435,0.201941866,-0.004383573,2.184861642,6.647000000,-0.000630305,-0.036040272
1707309211.648164,-0.000388885,0.002965314,-0.000160110,-0.082275782,-0.000396503,-0.121623536,-0.009045728,-1.614354049,-0.000113743,0.270692141,-0.002597148,1.786424176,6.648000000,-0.000664913,-0.034607611
1707309211.651815,-0.000392363,-0.003478559,-0.000257746,-0.097635650,-0.000475020,-0.078516871,-0.010036692,-0.990963420,0.000138373,0.252115456,-0.001252738,1.344409899,6.649000000,-0.000697837,-0.032924389
1707309211.662994,-0.000399972,-0.007609036,-0.000382316,-0.124569866,-0.000470195,0.004825104,-0.010303025,-0.266333751,0.000186028,0.047655530,-0.000487267,0.765471727,6.650000000,-0.000729147,-0.031309883
1707309211.663088,-0.000451771,-0.017852285,-0.001091108,-0.107048926,-0.000082806,-0.008883990,0.000048136,3.061638664,0.000105408,0.359449300,-0.006804143,-1.943422643,6.655000000,-0.000863364,-0.023325944
1707309211.664367,-0.000469629,-0.017857953,-0.001171292,-0.080184584,-0.000165322,-0.082516282,0.002207386,2.159250126,0.000665337,0.559929168,-0.007723990,-0.919846867,6.656000000,-0.000885205,-0.021841091
1707309211.665887,-0.000483449,-0.013820113,-0.001237841,-0.066549227,-0.000281001,-0.115679189,0.002610580,0.403194336,0.001195504,0.530166420,-0.006822234,0.901755795,6.657000000,-0.000905845,-0.020640106
1707309211.666865,-0.000493773,-0.010323519,-0.001301328,-0.063486086,-0.000395796,-0.114794783,0.001326362,-1.284218887,0.001610863,0.415359774,-0.004164128,2.658106497,6.658000000,-0.000925170,-0.019324185
1707309211.670724,-0.000501261,-0.007488512,-0.001372266,-0.070938688,-0.000475916,-0.080119465,-0.001581104,-2.907465142,0.001827225,0.216361573,0.000190826,4.354953377,6.659000000,-0.000943051,-0.017881765
1707309211.670903,-0.000494178,0.007083463,-0.001463202,-0.090935646,-0.000465030,0.010886096,-0.003051836,-1.470731987,0.001677056,-0.150169507,0.002992085,2.801259201,6.660000000,-0.000960371,-0.017319126
1707309211.673854,-0.000462427,0.031750166,-0.001572924,-0.109722281,-0.000363195,0.101834951,-0.002578130,0.473705340,0.001141758,-0.535297947,0.003576000,0.583915672,6.661000000,-0.000977862,-0.017491736
1707309211.675002,-0.000406800,0.055627264,-0.001689879,-0.116954422,-0.000203684,0.159510702,-0.000227010,2.351120016,0.000303870,-0.837887515,0.002011222,-1.564778051,6.662000000,-0.000995345,-0.017483023
1707309211.680259,-0.000328550,0.078250599,-0.001796370,-0.106491292,-0.000039705,0.163978510,0.003708138,3.935147934,-0.000704930,-1.008799897,-0.001410517,-3.421739562,6.663000000,-0.001012547,-0.017201742
1707309211.680918,-0.000256507,0.072042349,-0.001856814,-0.060444562,-0.000000820,0.038885709,0.005732667,2.024529573,-0.001323969,-0.619039121,-0.002760600,-1.350082657,6.664000000,-0.001026909,-0.014361768
1707309211.686801,-0.000192384,0.064122717,-0.001866648,-0.009833477,-0.000099628,-0.098808019,0.005844005,0.111338192,-0.001520646,-0.196677256,-0.002024799,0.735800781,6.665000000,-0.001038040,-0.011131418
1707309211.693451,-0.000139073,0.053311311,-0.001835623,0.031024881,-0.000305832,-0.206204459,0.004105251,-1.738754805,-0.001368438,0.152208241,0.000752466,2.777265137,6.666000000,-0.001045438,-0.007397906
1707309211.696610,-0.000081380,0.057693431,-0.001786683,0.048940447,-0.000546018,-0.240186180,0.001608519,-2.496731850,-0.001082525,0.285912929,0.004204952,3.452485843,6.667000000,-0.001050050,-0.004611941
1707309211.696723,0.000044675,0.062922215,-0.001734194,0.010623307,-0.000810606,-0.067243166,-0.002111690,-0.849468505,-0.000915791,-0.056044671,0.009468826,1.573845185,6.669000000,-0.001049605,0.002073176
1707309211.697759,0.000104608,0.059932771,-0.001761495,-0.027301857,-0.000727424,0.083181974,-0.000927881,1.183809294,-0.001298478,-0.382687752,0.008933979,-0.534846526,6.670000000,-0.001043397,0.006207583
1707309211.699229,0.000159768,0.055159554,-0.001818133,-0.056637070,-0.000519685,0.207738566,0.002237618,3.165499109,-0.001942874,-0.644395283,0.006348826,-2.585152895,6.671000000,-0.001032778,0.010619032
1707309211.699523,0.000211341,0.051573451,-0.001878712,-0.060579028,-0.000278058,0.241627665,0.004975693,2.738074077,-0.002621673,-0.678799788,0.004104544,-2.244282184,6.672000000,-0.001017785,0.014992623
1707309211.700778,0.000259388,0.048046562,-0.001918560,-0.039848905,-0.000077058,0.200999963,0.007172447,2.196753971,-0.003150805,-0.529131625,0.002310231,-1.794313288,6.673000000,-0.000998403,0.019382063
1707309211.702722,0.000303916,0.044527871,-0.001917321,0.001239678,0.000021608,0.098665795,0.008734478,1.562031292,-0.003377600,-0.226794911,0.001056983,-1.253248431,6.674000000,-0.000974624,0.023779326
1707309211.703923,0.000342057,0.038141514,-0.001865074,0.052247052,-0.000012916,-0.034524444,0.009498639,0.764161215,-0.003221134,0.156465567,0.000547236,-0.509746713,6.675000000,-0.000946198,0.028425958
1707309211.708215,0.000367951,0.025894251,-0.001765466,0.099607836,-0.000171311,-0.158394247,0.009256085,-0.242554069,-0.002694771,0.526362926,0.001069586,0.522350475,6.676000000,-0.000912622,0.033575717
1707309211.712348,0.000391081,0.006785522,-0.001501528,0.134525204,-0.000627917,-0.227083985,0.006968178,-1.367806740,-0.001129660,0.806536589,0.003787031,1.554190191,6.678000000,-0.000830582,0.043503893
1707309211.715266,0.000386642,-0.004438801,-0.001386139,0.115388668,-0.000780849,-0.152931844,0.005265676,-1.702502682,-0.000450968,0.678691692,0.005631480,1.844449575,6.679000000,-0.000782027,0.048554292
1707309211.717080,0.000342774,-0.027520798,-0.001266674,0.039856461,-0.000707447,0.103423028,0.001102476,-2.202502675,0.000138546,0.158198977,0.009963625,2.267100165,6.681000000,-0.000670259,0.058233117
1707309211.722475,0.000308206,-0.034567476,-0.001261943,0.004731423,-0.000483244,0.224202898,-0.001360070,-2.462546092,-0.000029666,-0.168212478,0.012408759,2.445133687,6.682000000,-0.000607986,0.062273660
1707309211.723743,0.000220060,-0.046005326,-0.001260160,0.009046332,0.000060558,0.258777054,-0.000738808,1.182717079,-0.000446528,-0.150738643,0.011562993,-1.334784548,6.684000000,-0.000473133,0.068894294
1707309211.724969,0.000173930,-0.046130086,-0.001209301,0.050859082,0.000214422,0.153863590,0.002053688,2.792496662,-0.000289920,0.156607927,0.008513875,-3.049118299,6.685000000,-0.000402072,0.071060727
1707309211.725544,0.000132730,-0.041199384,-0.001097970,0.111330989,0.000191081,-0.023340645,0.004075465,2.021776260,0.000354545,0.644465508,0.006097169,-2.416705823,6.686000000,-0.000329695,0.072376608
1707309211.727387,0.000102895,-0.029835158,-0.000941543,0.156426885,0.000040952,-0.150129404,0.005410793,1.335328577,0.001170128,0.815582582,0.004151171,-1.945998063,6.687000000,-0.000256893,0.072802070
1707309211.728348,0.000084849,-0.018045892,-0.000756968,0.184574784,-0.000187203,-0.228154707,0.006136682,0.725889309,0.002036692,0.866563853,0.002599371,-1.551800348,6.688000000,-0.000183981,0.072912031
1707309211.729353,0.000077951,-0.006898003,-0.000569284,0.187684826,-0.000420287,-0.233084381,0.006367659,0.230976833,0.002774469,0.737777313,0.001334596,-1.264774533,6.689000000,-0.000111123,0.072857980
1707309211.730009,0.000081004,0.003052853,-0.000404045,0.165238423,-0.000583592,-0.163304912,0.006223940,-0.143718922,0.003199912,0.425442938,0.000247388,-1.087208235,6.690000000,-0.000038396,0.072727324
1707309211.731770,0.000083320,0.002316291,-0.000278522,0.125522852,-0.000629192,-0.045600142,0.005288308,-0.935631870,0.003213341,0.013428563,-0.000086017,-0.333405434,6.691000000,0.000034882,0.073277589
1707309211.734678,0.000082022,-0.001298034,-0.000198506,0.080016133,-0.000542436,0.086756578,0.003437370,-1.850938758,0.002785042,-0.428299051,0.000504904,0.590921614,6.692000000,0.000108708,0.073826188
1707309211.735622,0.000083648,0.001625686,-0.000157081,0.041424619,-0.000345391,0.197044694,0.000913089,-2.524280387,0.001960298,-0.824744150,0.001689304,1.184399610,6.693000000,0.000182276,0.073567665
1707309211.737010,0.000097541,0.013893352,-0.000136129,0.020952616,-0.000093530,0.251861595,-0.001995853,-2.908942493,0.000862801,-1.097496516,0.003052463,1.363159203,6.694000000,0.000254516,0.072240494
1707309211.738391,0.000123735,0.026194100,-0.000115120,0.021008741,0.000163122,0.256651662,-0.003115460,-1.119606998,-0.000386562,-1.249362556,0.002426892,-0.625570952,6.695000000,0.000325127,0.070611328
1707309211.739506,0.000158548,0.034813071,-0.000057345,0.057775278,0.000305531,0.142408835,-0.002650545,0.464915550,-0.001302734,-0.916172452,0.000071275,-2.355617601,6.696000000,0.000394180,0.069052107
1707309211.740368,0.000190610,0.032061749,0.000051732,0.109076666,0.000285860,-0.019671226,-0.001260750,1.389794648,-0.001746728,-0.443994086,-0.003184858,-3.256132608,6.697000000,0.000462408,0.068228474
1707309211.744953,0.000206240,0.015629535,0.000210083,0.158351091,0.000105901,-0.179958892,0.000399467,1.660217247,-0.001697495,0.049232949,-0.006481026,-3.296168356,6.698000000,0.000530776,0.068368134
1707309211.745659,0.000206174,-0.000065953,0.000401877,0.191794154,-0.000202722,-0.308623200,0.000124163,-0.275304193,-0.001227127,0.470367843,-0.007613061,-1.132034216,6.699000000,0.000599092,0.068316123
1707309211.747861,0.000187884,-0.018289536,0.000592846,0.190968564,-0.000534759,-0.332036656,-0.001286218,-1.410381352,-0.000594032,0.633094965,-0.007358733,0.254327322,6.700000000,0.000667439,0.068346583
1707309211.751815,0.000148107,-0.039777313,0.000744635,0.151788936,-0.000766182,-0.231423083,-0.002001600,-0.715381578,-0.000104427,0.489605188,-0.007514456,-0.155722807,6.701000000,0.000735907,0.068468327
1707309211.755405,0.000086900,-0.061206576,0.000832393,0.087758090,-0.000823712,-0.057529922,-0.001915653,0.085946696,0.000061936,0.166362988,-0.008176426,-0.661969532,6.702000000,0.000804217,0.068309418
1707309211.756940,0.000007274,-0.079626290,0.000847369,0.014976047,-0.000681341,0.142370561,-0.000992231,0.923422098,-0.000192876,-0.254811842,-0.009400777,-1.224351830,6.703000000,0.000871722,0.067505776
1707309211.759728,-0.000087239,-0.094513433,0.000805512,-0.041856456,-0.000389483,0.291858170,0.000683776,1.676006847,-0.000713299,-0.520423220,-0.011117991,-1.717213409,6.704000000,0.000937621,0.065898584
1707309211.760651,-0.000188376,-0.101136814,0.000740362,-0.065150735,-0.000064372,0.325110873,0.000677701,-0.006074912,-0.001213471,-0.500172100,-0.010956367,0.161623983,6.705000000,0.001000634,0.063012817
1707309211.762403,-0.000289125,-0.100749202,0.000684954,-0.055407746,0.000193634,0.258006825,-0.001158839,-1.836539430,-0.001449950,-0.236479002,-0.008813893,2.142474013,6.706000000,0.001059553,0.058919064
1707309211.766618,-0.000385375,-0.096250063,0.000661449,-0.023504840,0.000331329,0.137694329,-0.002642893,-1.484054503,-0.001299356,0.150594726,-0.006897452,1.916441295,6.707000000,0.001113442,0.053888856
1707309211.767287,-0.000472254,-0.086878641,0.000683763,0.022313709,0.000306288,-0.025040993,-0.003843217,-1.200323766,-0.000660798,0.638557156,-0.005169546,1.727905966,6.708000000,0.001161380,0.047937826
1707309211.769984,-0.000546565,-0.074311193,0.000749148,0.065385263,0.000126382,-0.179905326,-0.004749135,-0.905917949,0.000443924,1.104722192,-0.003657204,1.512341871,6.709000000,0.001202687,0.041307417
1707309211.770178,-0.000601964,-0.055398419,0.000827367,0.078218862,-0.000111368,-0.237750276,-0.005206666,-0.457531230,0.001581608,1.137684579,-0.002586336,1.070867866,6.710000000,0.001236535,0.033847662
1707309211.771686,-0.000637992,-0.036028654,0.000893886,0.066519581,-0.000333164,-0.221796627,-0.005106531,0.100135314,0.002570373,0.988764294,-0.002058185,0.528150621,6.711000000,0.001262684,0.026149754
1707309211.772171,-0.000654900,-0.016907481,0.000925927,0.032040733,-0.000470276,-0.137111602,-0.004349235,0.757295584,0.003241276,0.670903570,-0.002159962,-0.101776510,6.712000000,0.001281035,0.018350412
1707309211.774111,-0.000653056,0.001844152,0.000909572,-0.016354573,-0.000480422,-0.010146278,-0.002871981,1.477253758,0.003490350,0.249073822,-0.002946369,-0.786406899,6.713000000,0.001291555,0.010520657
1707309211.777025,-0.000632628,0.020427956,0.000844126,-0.065446048,-0.000361092,0.119330048,-0.000674417,2.197564745,0.003311763,-0.178587173,-0.004416579,-1.470210840,6.714000000,0.001294232,0.002676269
1707309211.780888,-0.000593636,0.038991597,0.000742272,-0.101854326,-0.000149975,0.211117110,0.002181085,2.855501966,0.002798330,-0.513433304,-0.006513584,-2.097004277,6.715000000,0.001289081,-0.005150268
1707309211.787308,-0.000534483,0.059153334,0.000630357,-0.111915526,0.000060169,0.210143838,0.003290306,1.109221014,0.002180909,-0.617420324,-0.006863538,-0.349954331,6.716000000,0.001276045,-0.013035996
1707309211.798237,-0.000455387,0.079095471,0.000530601,-0.099755215,0.000203374,0.143205410,0.002569399,-0.720907879,0.001622557,-0.558352109,-0.005387346,1.476192484,6.717000000,0.001255286,-0.020759737
1707309211.801392,0.000251857,0.186544999,0.000337537,-0.031814157,-0.000267086,-0.129454167,-0.002447869,2.038023955,-0.000056735,-0.526547710,0.001874139,-2.040663916,6.722000000,0.001047826,-0.053712678
1707309211.802741,0.000442887,0.191029878,0.000293898,-0.043638381,-0.000370607,-0.103520653,0.001375473,3.823342526,-0.000589256,-0.532520962,-0.002054139,-3.928277351,6.723000000,0.000990953,-0.056873246
1707309211.804952,0.000607919,0.165031251,0.000235459,-0.058438835,-0.000456006,-0.085398863,0.003483282,2.107808526,-0.001055516,-0.466260232,-0.003965154,-1.911015606,6.724000000,0.000934163,-0.056790395
1707309211.806003,0.000740358,0.132439139,0.000154472,-0.080987800,-0.000498014,-0.042007896,0.003932873,0.449591098,-0.001513953,-0.458436353,-0.003879140,0.086013939,6.725000000,0.000878714,-0.055448558
1707309211.811242,0.000834956,0.094598745,0.000047836,-0.106636082,-0.000485224,0.012789393,0.002758202,-1.174671287,-0.001989868,-0.475915201,-0.001800828,2.078312571,6.726000000,0.000825636,-0.053078464
1707309211.814052,0.000888244,0.053287779,-0.000081808,-0.129643155,-0.000423422,0.061801754,-0.000037614,-2.795815487,-0.002467507,-0.477639127,0.002285002,4.085830020,6.727000000,0.000775667,-0.049968570
1707309211.818483,0.000932272,0.011069504,-0.000389773,-0.158164762,-0.000161502,0.144973347,-0.001976197,-0.050659443,-0.003549949,-0.540812141,0.006887256,1.398266970,6.729000000,0.000681344,-0.046107619
1707309211.822993,0.000890327,-0.031358754,-0.000667300,-0.127480240,0.000029221,0.065081550,0.003089617,3.370035314,-0.004182881,-0.208411798,0.004584877,-1.979881674,6.731000000,0.000595812,-0.041651108
1707309211.825963,0.000699634,-0.078295976,-0.000863706,-0.042627983,-0.000353931,-0.197415339,0.009344821,1.489204564,-0.002976111,0.640205563,0.002458428,-0.124286429,6.734000000,0.000481987,-0.036210368
1707309211.828738,0.000608416,-0.091217274,-0.000906851,-0.043144498,-0.000547960,-0.194029017,0.010362875,1.018053892,-0.002280740,0.695371322,0.002787148,0.328720736,6.735000000,0.000447305,-0.034682200
1707309211.832753,0.000506051,-0.102365533,-0.000969093,-0.062242544,-0.000680591,-0.132631606,0.011003646,0.640771606,-0.001675600,0.605140161,0.003467387,0.680238673,6.736000000,0.000413913,-0.033391469
1707309211.834132,0.000279547,-0.115639319,-0.001189438,-0.126766728,-0.000637142,0.075740227,0.011358393,0.027710507,-0.001054869,0.204707937,0.005616196,1.194139722,6.738000000,0.000349381,-0.032064110
1707309211.834725,0.000163825,-0.115722424,-0.001340175,-0.150736593,-0.000479009,0.158132686,0.011052737,-0.305655962,-0.001001713,0.053155612,0.007057101,1.440905131,6.739000000,0.000317068,-0.032313301
1707309211.836258,0.000053303,-0.110521811,-0.001497194,-0.157019139,-0.000289678,0.189331150,0.010336316,-0.716420567,-0.000977395,0.024317705,0.008791631,1.734529757,6.740000000,0.000283773,-0.033294876
1707309211.838336,-0.000046742,-0.100044695,-0.001639639,-0.142445113,-0.000129941,0.159736991,0.009117163,-1.219152924,-0.000835471,0.141924582,0.010881005,2.089373916,6.741000000,0.000248770,-0.035002562
1707309211.840748,-0.000131704,-0.084961951,-0.001749775,-0.110136559,-0.000051290,0.078651011,0.007318316,-1.798847889,-0.000452192,0.383278975,0.013374958,2.493952872,6.742000000,0.000211436,-0.037334451
1707309211.843858,-0.000198207,-0.066503368,-0.001818371,-0.068595471,-0.000079776,-0.028485853,0.004902916,-2.415399413,0.000233914,0.686105799,0.016289703,2.914745607,6.743000000,0.000171330,-0.040106131
1707309211.847689,-0.000241014,-0.042807040,-0.001856272,-0.037901188,-0.000176290,-0.096514599,0.001938878,-2.964038650,0.000976318,0.742404023,0.019492255,3.202551364,6.744000000,0.000127967,-0.043362475
1707309211.847832,-0.000258534,-0.017519990,-0.001875143,-0.018871435,-0.000302885,-0.126595207,-0.001510433,-3.449310946,0.001636962,0.660643947,0.022900475,3.408219929,6.745000000,0.000081268,-0.046698729
1707309211.855085,-0.000252846,0.005687705,-0.001891359,-0.016215825,-0.000395075,-0.092189991,-0.003085172,-1.574738763,0.002053889,0.416926890,0.024176720,1.276245419,6.746000000,0.000031552,-0.049716785
1707309211.855366,-0.000224883,0.027963197,-0.001913775,-0.022415422,-0.000425374,-0.030298331,-0.002761758,0.323414449,0.002160263,0.106373710,0.023308782,-0.867937794,6.747000000,-0.000020889,-0.052440198
1707309211.858891,-0.000176187,0.048696315,-0.001945009,-0.031234112,-0.000385309,0.040064346,-0.000537765,2.223992553,0.001936369,-0.223894188,0.020304565,-3.004217798,6.748000000,-0.000075653,-0.054763933
1707309211.862007,-0.000108916,0.067270764,-0.001980680,-0.035671521,-0.000287754,0.097554934,0.003555948,4.093712929,0.001414753,-0.521615057,0.015204366,-5.100199022,6.749000000,-0.000132243,-0.056590629
1707309211.862091,-0.000024097,0.084819291,-0.002006569,-0.025888574,-0.000189473,0.098281378,0.007163877,3.607929323,0.000738977,-0.675776260,0.010354558,-4.849807425,6.750000000,-0.000190203,-0.057959621
1707309211.866879,0.000075500,0.099597281,-0.002012655,-0.006085756,-0.000120747,0.068725744,0.010241413,3.077535675,-0.000015028,-0.754005349,0.005811327,-4.543231092,6.751000000,-0.000248879,-0.058675999
1707309211.868029,0.000291490,0.109391553,-0.001913133,0.067464590,-0.000249969,-0.106460891,0.014528583,1.837495706,-0.000734077,-0.233497046,-0.001796477,-3.554775845,6.753000000,-0.000364145,-0.056992106
1707309211.873287,0.000374904,0.083413900,-0.001819097,0.094036153,-0.000418865,-0.168896663,0.014566578,0.037994837,-0.000720810,0.013266418,-0.003262436,-1.465959181,6.754000000,-0.000416970,-0.052825794
1707309211.875757,0.000427919,0.053015772,-0.001716533,0.102563904,-0.000596493,-0.177628053,0.012908390,-1.658187925,-0.000590286,0.130524084,-0.002719295,0.543141289,6.755000000,-0.000464769,-0.047798872
1707309211.877006,0.000439790,-0.007132374,-0.001557949,0.066472885,-0.000762228,-0.035721315,0.005382607,-4.269293170,-0.000519399,-0.040172498,0.003430724,3.675989531,6.757000000,-0.000543619,-0.036762960
1707309211.878020,0.000420376,-0.019413950,-0.001523059,0.034889990,-0.000684158,0.078070208,0.000856560,-4.526046914,-0.000784194,-0.264794985,0.007333954,3.903229613,6.758000000,-0.000576052,-0.032433343
1707309211.879261,0.000389865,-0.030511392,-0.001512493,0.010565811,-0.000515429,0.168729445,-0.003961963,-4.818522673,-0.001216182,-0.431987848,0.011493782,4.159828247,6.759000000,-0.000604228,-0.028175873
1707309211.880925,0.000348573,-0.041291849,-0.001513783,-0.001289350,-0.000280882,0.234546332,-0.006854699,-2.892735591,-0.001757803,-0.541621175,0.013692978,2.199196247,6.760000000,-0.000628225,-0.023996479
1707309211.882038,0.000299468,-0.049105479,-0.001503720,0.010062275,-0.000052004,0.228878703,-0.007945473,-1.090774694,-0.002234328,-0.476524946,0.014031933,0.338955018,6.761000000,-0.000648392,-0.020167622
1707309211.882076,0.000245543,-0.053924750,-0.001459750,0.043969876,0.000101543,0.153546645,-0.007363501,0.581972191,-0.002475849,-0.241520526,0.012616219,-1.415714493,6.762000000,-0.000665122,-0.016729459
1707309211.883324,0.000189587,-0.055955351,-0.001367251,0.092499057,0.000133823,0.032279931,-0.005191846,2.171655585,-0.002371123,0.104725699,0.009508443,-3.107775853,6.763000000,-0.000678793,-0.013671252
1707309211.885376,0.000133728,-0.055859482,-0.001224272,0.142978863,0.000036763,-0.097060100,-0.001454335,3.737510624,-0.001900856,0.470266818,0.004721567,-4.786876550,6.764000000,-0.000689714,-0.010920693
1707309211.886386,0.000079272,-0.054455528,-0.001042307,0.181965903,-0.000157521,-0.194283685,0.003887751,5.342085674,-0.001143605,0.757251704,-0.001783421,-6.504987060,6.765000000,-0.000698096,-0.008381712
1707309211.888940,0.000005013,-0.074259341,-0.000836246,0.206060791,-0.000425379,-0.267858123,0.007378252,3.490500801,-0.000107792,1.035812197,-0.006184359,-4.400938530,6.766000000,-0.000702326,-0.004230130
1707309211.889477,-0.000088292,-0.093305321,-0.000635342,0.200903858,-0.000681217,-0.255837642,0.009159928,1.781676080,0.000995472,1.103264280,-0.008624678,-2.440319439,6.767000000,-0.000702566,-0.000240527
1707309211.890774,-0.000194835,-0.106542837,-0.000479138,0.156203827,-0.000801992,-0.120775346,0.009436631,0.276703743,0.001668137,0.672665580,-0.009385989,-0.761310779,6.768000000,-0.000699475,0.003091055
1707309211.891810,-0.000311714,-0.116878907,-0.000381587,0.097550886,-0.000747909,0.054083280,0.008285905,-1.150726841,0.001809571,0.141433840,-0.008564396,0.821593487,6.769000000,-0.000693564,0.005911376
1707309211.892489,-0.000434175,-0.122460750,-0.000338593,0.042994148,-0.000533666,0.214242398,0.005690891,-2.595013043,0.001454048,-0.355523601,-0.006171041,2.393354558,6.770000000,-0.000685605,0.007958711
1707309211.894701,-0.000555815,-0.121640273,-0.000329541,0.009052380,-0.000223777,0.309889327,0.001556818,-4.134073770,0.000758340,-0.695707820,-0.002148872,4.022169671,6.771000000,-0.000676596,0.009008957
1707309211.895833,-0.000669483,-0.113668098,-0.000323906,0.005634605,0.000087450,0.311227110,-0.004257216,-5.814033526,-0.000047628,-0.805967513,0.003600017,5.748888248,6.772000000,-0.000667638,0.008958049
1707309211.895992,-0.000750988,-0.081505189,-0.000286116,0.037789954,0.000302819,0.215368369,-0.008418812,-4.161595895,-0.000582857,-0.535229675,0.007413960,3.813943634,6.773000000,-0.000661149,0.006488757
1707309211.897695,-0.000795976,-0.044988027,-0.000195297,0.090819373,0.000357327,0.054508736,-0.011041177,-2.622365640,-0.000690815,-0.107957330,0.009370876,1.956915573,6.774000000,-0.000657809,0.003340464
1707309211.898984,-0.000802621,-0.006644298,-0.000047282,0.148015238,0.000236225,-0.121102589,-0.012158489,-1.117311589,-0.000337161,0.353653746,0.009489527,0.118651358,6.775000000,-0.000657907,-0.000097809
1707309211.899495,-0.000771827,0.030793202,0.000143997,0.191278283,-0.000020931,-0.257155923,-0.011728649,0.429840138,0.000381769,0.718929686,0.007737254,-1.752272813,6.776000000,-0.000661325,-0.003418814
1707309211.900745,-0.000701708,0.070119564,0.000338972,0.194975409,-0.000291149,-0.270217529,-0.009567033,2.161615919,0.000973743,0.591974627,0.003888097,-3.849157474,6.777000000,-0.000668025,-0.006699138
1707309211.901422,-0.000596948,0.104759880,0.000508316,0.169343606,-0.000488404,-0.197255248,-0.005551864,4.015168756,0.001230618,0.256874986,-0.002142372,-6.030469429,6.778000000,-0.000677286,-0.009261185
1707309211.903351,-0.000487530,0.109417547,0.000632880,0.124563873,-0.000561460,-0.073055967,-0.000839568,4.712296401,0.001075803,-0.154815248,-0.008785610,-6.643237121,6.779000000,-0.000686289,-0.009003668
1707309211.904594,-0.000382811,0.104719165,0.000704266,0.071386571,-0.000487693,0.073767262,0.004385374,5.224941562,0.000465051,-0.610752531,-0.015765610,-6.980000000,6.780000000,-0.000693886,-0.007596371
1707309211.905211,-0.000280410,0.102401196,0.000732441,0.028174734,-0.000312286,0.175407063,0.008007401,3.622026954,-0.000493145,-0.958195617,-0.021040205,-5.274595089,6.781000000,-0.000699926,-0.006040559
1707309211.908303,-0.000187106,0.093304226,0.000745894,0.013452863,-0.000129005,0.183280939,0.009884476,1.877075124,-0.001371021,-0.877875560,-0.024389458,-3.349253326,6.782000000,-0.000703575,-0.003648695
1707309211.921375,-0.000104300,0.082805446,0.000762510,0.016616181,0.000006929,0.135933484,0.009939603,0.055127395,-0.002029582,-0.658560955,-0.025731593,-1.342135391,6.783000000,-0.000704487,-0.000911483
1707309211.924987,-0.000033393,0.070907034,0.000795438,0.032927526,0.000054881,0.047952273,0.008128035,-1.811568178,-0.002366439,-0.336857380,-0.025017513,0.714080326,6.784000000,-0.000702349,0.002137425
1707309211.936288,0.000023548,0.056941423,0.000848864,0.053426046,0.000001439,-0.053442438,0.004439418,-3.688617338,-0.002346931,0.019507923,-0.022227728,2.789784910,6.785000000,-0.000696805,0.005544529
1707309211.936355,0.000046522,-0.029929597,0.001035600,0.011496064,-0.000451896,-0.047508255,-0.014173606,-3.716484055,-0.000607588,0.433304665,-0.004830370,3.807600068,6.789000000,-0.000632586,0.022868627
1707309211.946630,-0.000006755,-0.053276922,0.001010139,-0.025460544,-0.000414878,0.037018099,-0.017207178,-3.033571755,-0.000275437,0.332151229,-0.001436709,3.393661000,6.790000000,-0.000605373,0.027212488
1707309211.951252,-0.000147579,-0.066764690,0.000869514,-0.082230296,-0.000146039,0.159208669,-0.020105415,-0.525676360,0.000175424,0.192294474,0.002548021,0.996745142,6.792000000,-0.000541944,0.032348950
1707309211.954912,-0.000200292,-0.052713221,0.000773782,-0.095732917,0.000035643,0.181682261,-0.018843564,1.261850852,0.000255923,0.080498233,0.001548414,-0.999607895,6.793000000,-0.000509254,0.032690021
1707309211.959029,-0.000234076,-0.033783932,0.000680594,-0.093187346,0.000193884,0.158240989,-0.015875055,2.968508655,0.000280965,0.025042880,-0.001411609,-2.960022697,6.794000000,-0.000476963,0.032291406
1707309211.960109,-0.000270192,-0.036115540,0.000608436,-0.072158252,0.000270320,0.076435969,-0.012525063,3.349992232,0.000421845,0.140879804,-0.004657343,-3.245733652,6.795000000,-0.000443667,0.033295966
1707309211.960591,-0.000306161,-0.035968933,0.000565089,-0.043346654,0.000242821,-0.027499021,-0.008829145,3.695918176,0.000719355,0.297510011,-0.008170814,-3.513471094,6.796000000,-0.000409825,0.033841086
1707309211.965485,-0.000340614,-0.034452833,0.000548432,-0.016657694,0.000118786,-0.124035738,-0.004776773,4.052371807,0.001154490,0.435134504,-0.011966235,-3.795421443,6.797000000,-0.000375775,0.034050475
1707309211.967066,-0.000373034,-0.032419924,0.000546428,-0.002003080,-0.000064432,-0.183217876,-0.000310655,4.466117955,0.001635026,0.480535781,-0.016096032,-4.129796704,6.798000000,-0.000341744,0.034030643
1707309211.970579,-0.000403551,-0.030517554,0.000541002,-0.005426740,-0.000251145,-0.186712637,0.004654883,4.965537608,0.002023697,0.388671476,-0.020636251,-4.540218615,6.799000000,-0.000307882,0.033862512
1707309211.979582,-0.000430667,-0.027116005,0.000517902,-0.023099718,-0.000411121,-0.159976032,0.007909006,3.254122908,0.002247866,0.224169252,-0.023389560,-2.753309349,6.800000000,-0.000274445,0.033437271
1707309211.982078,-0.000454488,-0.023821223,0.000461652,-0.056250202,-0.000496107,-0.084985532,0.009538001,1.628995968,0.002187574,-0.060291827,-0.024438910,-1.049350000,6.801000000,-0.000241557,0.032887652
1707309211.984349,-0.000474496,-0.020007690,0.000364642,-0.097009779,-0.000481385,0.014721533,0.009596020,0.058018389,0.001780307,-0.407267469,-0.023841067,0.597843070,6.802000000,-0.000209415,0.032142339
1707309211.987813,-0.000489471,-0.014975156,0.000229619,-0.135023032,-0.000373336,0.108049017,0.008086941,-1.509079148,0.001040588,-0.739718820,-0.021606162,2.234905284,6.803000000,-0.000178299,0.031115246
1707309211.992905,-0.000497476,-0.008005306,0.000069055,-0.160563608,-0.000207571,0.165764880,0.004965297,-3.121643579,0.000055239,-0.985349299,-0.017699273,3.906888299,6.804000000,-0.000148574,0.029725342
1707309211.995913,-0.000500315,-0.002838097,-0.000088690,-0.157745584,-0.000072752,0.134818837,0.000099970,-4.865326832,-0.000793146,-0.848384879,-0.011939578,5.759695688,6.805000000,-0.000120292,0.028281949
1707309211.996486,-0.000497979,0.002335831,-0.000227777,-0.139087206,-0.000010632,0.062119983,-0.005843647,-5.943616938,-0.001375254,-0.582107978,-0.004985532,6.954045514,6.806000000,-0.000093621,0.026670894
1707309211.997592,-0.000491454,0.006525193,-0.000343066,-0.115288785,-0.000024562,-0.013929470,-0.011326014,-5.482367009,-0.001687137,-0.311882774,0.001629419,6.614951017,6.807000000,-0.000068597,0.025023901
1707309211.999891,-0.000457126,0.034327455,-0.000436987,-0.093921033,-0.000100508,-0.075946461,-0.015100121,-3.774107421,-0.001811200,-0.124063602,0.006281953,4.652534176,6.808000000,-0.000047155,0.021442334
1707309212.000545,-0.000396730,0.060395699,-0.000515817,-0.078829620,-0.000217094,-0.116586143,-0.017140509,-2.040387733,-0.001800109,0.011091119,0.008957985,2.676031822,6.809000000,-0.000029093,0.018061783
1707309212.001173,-0.000313243,0.083487790,-0.000590038,-0.074221114,-0.000340358,-0.123264050,-0.017402214,-0.261705109,-0.001735924,0.064185431,0.009633999,0.676014168,6.810000000,-0.000014010,0.015082866
1707309212.003342,-0.000210658,0.102584140,-0.000670838,-0.080800548,-0.000434313,-0.093955026,-0.015846045,1.556169118,-0.001704688,0.031235591,0.008299976,-1.334022672,6.811000000,-0.000001344,0.012666120
1707309212.003758,-0.000093481,0.117177327,-0.000766417,-0.095578966,-0.000471987,-0.037673486,-0.012438389,3.407656158,-0.001769808,-0.065120133,0.004951958,-3.348018663,6.812000000,0.000009561,0.010905619
1707309212.005020,0.000033507,0.126988214,-0.000879196,-0.112778353,-0.000443842,0.028145305,-0.007172973,5.265415279,-0.001952196,-0.182388044,-0.000388467,-5.340424924,6.813000000,0.000019414,0.009852607
1707309212.006927,0.000150281,0.116773534,-0.001002901,-0.123705132,-0.000370462,0.073379234,-0.001062973,6.110000000,-0.002169022,-0.216825807,-0.006443229,-6.054761563,6.814000000,0.000030142,0.010728255
1707309212.008239,0.000244819,0.094538339,-0.001127071,-0.124169753,-0.000284944,0.085518742,0.005047027,6.110000001,-0.002319666,-0.150644271,-0.012217447,-5.774217866,6.815000000,0.000042992,0.012849474
1707309212.010302,0.000316354,0.071535198,-0.001238505,-0.111434413,-0.000235692,0.049251226,0.009365767,4.318740116,-0.002281078,0.038587986,-0.015920576,-3.703129464,6.816000000,0.000058234,0.015242340
1707309212.014726,0.000363265,0.046911011,-0.001330927,-0.092421720,-0.000239574,-0.003881140,0.011879934,2.514166747,-0.002010823,0.270255812,-0.017530244,-1.609667846,6.817000000,0.000076151,0.017917356
1707309212.017060,0.000384328,0.021062625,-0.001403532,-0.072605578,-0.000297027,-0.057453782,0.012606771,0.726837785,-0.001507883,0.502939962,-0.017057702,0.472541898,6.818000000,0.000096927,0.020775598
1707309212.019792,0.000378595,-0.005732344,-0.001461067,-0.057534962,-0.000391868,-0.094840225,0.011587707,-1.019063959,-0.000812967,0.694915221,-0.014539396,2.518305854,6.819000000,0.000120645,0.023717499
1707309212.021581,0.000345553,-0.033042840,-0.001512158,-0.051090610,-0.000496333,-0.104465442,0.008878086,-2.709621780,0.000003823,0.816790758,-0.010028770,4.510626337,6.820000000,0.000147280,0.026634998
1707309212.027792,0.000285521,-0.060031303,-0.001566455,-0.054297227,-0.000579668,-0.083334937,0.004537334,-4.340751875,0.000864158,0.860334744,-0.003588445,6.440324907,6.821000000,0.000176648,0.029368312
1707309212.029683,0.000222196,-0.063324937,-0.001644953,-0.078498019,-0.000567449,0.012219159,-0.000400609,-4.937942699,0.001355121,0.490963432,0.003391555,6.980000001,6.822000000,0.000206578,0.029930506
1707309212.031198,0.000111824,-0.051224972,-0.001867506,-0.117356887,-0.000226222,0.209218689,-0.004291581,-0.973837773,0.001107197,-0.294183427,0.010902542,2.700564521,6.824000000,0.000264731,0.028579824
1707309212.032381,0.000072098,-0.039725346,-0.001974716,-0.107210004,-0.000006023,0.220198847,-0.003439671,0.851910144,0.000634120,-0.473077252,0.011587814,0.685271137,6.825000000,0.000291698,0.026966795
1707309212.036422,0.000046719,-0.025379215,-0.002048519,-0.073802746,0.000155834,0.161857488,-0.000885238,2.554432637,0.000151379,-0.482741025,0.010360832,-1.226981063,6.826000000,0.000316528,0.024829382
1707309212.036502,0.000035246,-0.011472886,-0.002065926,-0.017407630,0.000187359,0.031524826,0.003247798,4.133035979,-0.000066012,-0.217390635,0.007366675,-2.994157030,6.827000000,0.000339034,0.022506727
1707309212.037636,0.000057267,0.019306170,-0.001916831,0.097102521,-0.000231298,-0.263748236,0.009311594,2.707339687,0.000671156,0.454928897,0.003021835,-1.953892753,6.829000000,0.000376448,0.017371924
1707309212.039400,0.000091989,0.034722386,-0.001805387,0.111443851,-0.000509655,-0.278356501,0.011520578,2.208984016,0.001012264,0.341108561,0.001352093,-1.669742395,6.830000000,0.000391343,0.014894515
1707309212.039992,0.000138851,0.046861494,-0.001708638,0.096748598,-0.000715586,-0.205931540,0.013368857,1.848279656,0.001026349,0.014084358,-0.000150507,-1.502599552,6.831000000,0.000404188,0.012844992
1707309212.041254,0.000181359,0.042508835,-0.001646746,0.061892403,-0.000791561,-0.075974344,0.014271592,0.902735252,0.000597608,-0.428740710,-0.000675526,-0.525019601,6.832000000,0.000416489,0.012301490
1707309212.043371,0.000212836,0.031476267,-0.001627506,0.019240525,-0.000715762,0.075798368,0.014034039,-0.237553706,-0.000317935,-0.915543020,0.000055309,0.730834712,6.833000000,0.000428904,0.012414179
1707309212.045337,0.000235208,0.022371904,-0.001632827,-0.005321382,-0.000548628,0.167134059,0.012902247,-1.131792063,-0.001389605,-1.071669946,0.001765132,1.709823541,6.834000000,0.000441305,0.012401149
1707309212.047579,0.000260430,0.025222681,-0.001647411,-0.014583963,-0.000334965,0.213663240,0.011392425,-1.509821903,-0.002527016,-1.137410369,0.003755486,1.990353831,6.835000000,0.000452697,0.011392644
1707309212.050871,0.000289283,0.028852319,-0.001649950,-0.002539202,-0.000139956,0.195008988,0.009404417,-1.988008255,-0.003568803,-1.041787200,0.006120566,2.365080548,6.836000000,0.000462979,0.010281353
1707309212.057380,0.000322215,0.032931962,-0.001621164,0.028786193,-0.000022774,0.117182141,0.006847901,-2.556515326,-0.004368582,-0.799778935,0.008946100,2.825533507,6.837000000,0.000472096,0.009117166
1707309212.067606,0.000397815,0.038949884,-0.001436573,0.113277690,-0.000126276,-0.107951792,-0.000123664,-3.794511608,-0.004982183,-0.142435760,0.016136118,3.852357480,6.839000000,0.000487220,0.007111755
1707309212.070685,0.000434980,0.037164927,-0.001296533,0.140039617,-0.000292291,-0.166014778,-0.002814881,-2.691217543,-0.004931704,0.050479473,0.018802189,2.666070762,6.840000000,0.000493910,0.006690129
1707309212.071834,0.000467174,0.032194449,-0.001149156,0.147377094,-0.000455898,-0.163607367,-0.003693043,-0.878161525,-0.004836338,0.095365398,0.019591031,0.788842311,6.841000000,0.000500601,0.006690440
1707309212.075478,0.000492020,0.024845690,-0.001012559,0.136596844,-0.000564676,-0.108777858,-0.002696656,0.996386526,-0.004822732,0.013606261,0.018459015,-1.132016716,6.842000000,0.000507624,0.007023439
1707309212.078163,0.000507761,0.015741642,-0.000899287,0.113272668,-0.000583062,-0.018386469,0.000217724,2.914380182,-0.004976276,-0.153544159,0.015375086,-3.083928718,6.843000000,0.000515217,0.007592407
1707309212.078313,0.000515559,0.007797180,-0.000808943,0.090343659,-0.000527042,0.056020314,0.002994822,2.777097582,-0.005252700,-0.276423861,0.012389505,-2.985580791,6.844000000,0.000523305,0.008088369
1707309212.080480,0.000515755,0.000196630,-0.000736776,0.072166779,-0.000414595,0.112447133,0.005367123,2.372301705,-0.005606757,-0.354056885,0.009766152,-2.623353579,6.845000000,0.000531844,0.008538802
1707309212.082308,0.000509273,-0.006482155,-0.000672648,0.064128545,-0.000278403,0.136192464,0.007284147,1.917023723,-0.005957801,-0.351043514,0.007548196,-2.217955659,6.846000000,0.000540690,0.008846430
1707309212.084872,0.000497427,-0.011846121,-0.000603959,0.068688730,-0.000158522,0.119880280,0.008684122,1.399975191,-0.006207147,-0.249346201,0.005788256,-1.759939915,6.847000000,0.000549645,0.008954980
1707309212.086831,0.000481645,-0.015781898,-0.000519779,0.084180115,-0.000089980,0.068542265,0.009513398,0.829275407,-0.006268561,-0.061414403,0.004530811,-1.257445005,6.848000000,0.000558489,0.008843506
1707309212.089452,0.000463120,-0.018524891,-0.000414517,0.105261933,-0.000091723,-0.001742725,0.009743641,0.230242781,-0.006095691,0.172869631,0.003796791,-0.734019651,6.849000000,0.000567026,0.008537735
1707309212.091424,0.000442570,-0.020550385,-0.000289762,0.124754784,-0.000161101,-0.069378234,0.009383922,-0.359718717,-0.005694927,0.400764727,0.003572781,-0.224010852,6.850000000,0.000575121,0.008094306
1707309212.095834,0.000420324,-0.022246003,-0.000154058,0.135703990,-0.000274541,-0.113440057,0.008477258,-0.906663675,-0.005124246,0.570680573,0.003812847,0.240066426,6.851000000,0.000582686,0.007564925
1707309212.101705,0.000396308,-0.024015896,-0.000020438,0.133619853,-0.000394934,-0.120393093,0.007082489,-1.394768821,-0.004474723,0.649523086,0.004458847,0.646000079,6.852000000,0.000589681,0.006994800
1707309212.103167,0.000343016,-0.027436768,0.000189208,0.091796912,-0.000510003,-0.026892888,0.003059758,-2.201642338,-0.003299134,0.543410730,0.006739981,1.289952021,6.854000000,0.000601747,0.005684528
1707309212.105812,0.000314793,-0.028223422,0.000251119,0.061910932,-0.000465807,0.044195528,0.000493126,-2.566632244,-0.002868673,0.430460838,0.008309099,1.569118583,6.855000000,0.000606580,0.004833075
1707309212.108637,0.000287135,-0.027658214,0.000286697,0.035577529,-0.000362788,0.103019573,-0.002457344,-2.950469361,-0.002521239,0.347433728,0.010168067,1.858968218,6.856000000,0.000610338,0.003757405
1707309212.112181,0.000259570,-0.027564438,0.000301562,0.014865383,-0.000205269,0.157518619,-0.003546371,-1.089026861,-0.002250230,0.271009097,0.010075940,-0.092127842,6.857000000,0.000612933,0.002595731
1707309212.117448,0.000234324,-0.025245953,0.000311132,0.009569361,-0.000041082,0.164186620,-0.002864354,0.682016687,-0.001938360,0.311870112,0.008109500,-1.966439295,6.858000000,0.000614044,0.001111112
1707309212.117930,0.000213474,-0.020849884,0.000331546,0.020414032,0.000079836,0.120918872,-0.000500767,2.363586898,-0.001463256,0.475104031,0.004344688,-3.764811992,6.859000000,0.000613374,-0.000670650
1707309212.119512,0.000198656,-0.014818529,0.000374519,0.042973520,0.000120894,0.041057774,0.003476276,3.977042997,-0.000734959,0.728297495,-0.001159367,-5.504055266,6.860000000,0.000610682,-0.002692044
1707309212.120633,0.000170493,-0.028162524,0.000450085,0.075565495,0.000032349,-0.088545508,0.005578547,2.102271270,0.000415114,1.150072452,-0.004582532,-3.423165580,6.861000000,0.000607449,-0.003233213
1707309212.121220,0.000132413,-0.038080128,0.000537031,0.086946585,-0.000116916,-0.149264668,0.005846964,0.268416988,0.001627115,1.212001501,-0.006015137,-1.432604442,6.862000000,0.000603356,-0.004092259
1707309212.123750,0.000084533,-0.047879753,0.000619404,0.082372959,-0.000279508,-0.162592187,0.004374335,-1.472629309,0.002783057,1.155941506,-0.005553957,0.461180250,6.863000000,0.000598358,-0.004998111
1707309212.123853,0.000027066,-0.057467201,0.000680025,0.060620534,-0.000404161,-0.124652508,0.001250434,-3.123900681,0.003755320,0.972263252,-0.003291148,2.262809134,6.864000000,0.000592373,-0.005984688
1707309212.126251,-0.000039074,-0.066139858,0.000705770,0.025744939,-0.000451608,-0.047447512,-0.003454094,-4.704528260,0.004445751,0.690430468,0.000697684,3.988831507,6.865000000,0.000585219,-0.007154035
1707309212.130501,-0.000094538,-0.055464808,0.000685576,-0.020193955,-0.000371254,0.080354187,-0.006457556,-3.003461642,0.004692006,0.246255256,0.002858220,2.160536418,6.866000000,0.000575173,-0.010046726
1707309212.133326,-0.000130754,-0.036215690,0.000627140,-0.058435644,-0.000185529,0.185725301,-0.007525873,-1.068317719,0.004538663,-0.153342464,0.002858220,-0.000000000,6.867000000,0.000561384,-0.013789190
1707309212.134727,-0.000145043,-0.014288836,0.000549661,-0.077479116,0.000047524,0.233052967,-0.006765360,0.760513438,0.004127411,-0.411252688,0.000785237,-2.072983151,6.868000000,0.000543510,-0.017873854
1707309212.136245,-0.000140392,0.004651004,0.000477772,-0.071889351,0.000252748,0.205223866,-0.004547192,2.218168006,0.003650859,-0.476551345,-0.002934695,-3.719931954,6.869000000,0.000521732,-0.021777407
1707309212.137335,-0.000135248,0.005144035,0.000434842,-0.042930006,0.000356370,0.103621694,-0.001973348,2.573843617,0.003325957,-0.324902200,-0.006915327,-3.980632468,6.870000000,0.000497539,-0.024193581
1707309212.139395,-0.000129086,0.006162173,0.000431664,-0.003177559,0.000326074,-0.030295696,0.000904142,2.877490267,0.003232228,-0.093729103,-0.011111046,-4.195718394,6.871000000,0.000470947,-0.026591652
1707309212.140033,-0.000120804,0.008281776,0.000469337,0.037673015,0.000144747,-0.181327392,0.001800999,0.896856627,0.003414183,0.181954589,-0.013256211,-2.145165801,6.872000000,0.000441999,-0.028948349
1707309212.141831,-0.000112097,0.008707071,0.000529361,0.060024303,-0.000131346,-0.276092552,0.000820295,-0.980703378,0.003733904,0.319720834,-0.013439740,-0.183528540,6.873000000,0.000411022,-0.030976648
1707309212.143511,-0.000105601,0.006495406,0.000583569,0.054207913,-0.000416588,-0.285241702,-0.001888057,-2.708352441,0.003981074,0.247170597,-0.011791340,1.648400143,6.874000000,0.000378462,-0.032560276
1707309212.144089,-0.000105574,0.000027567,0.000598913,0.015343667,-0.000596436,-0.179848575,-0.003878594,-1.990536855,0.003872896,-0.108177731,-0.010708608,1.082731676,6.875000000,0.000344876,-0.033585443
1707309212.145541,-0.000113428,-0.007854154,0.000557461,-0.041451577,-0.000615887,-0.019451048,-0.005068546,-1.189951970,0.003274684,-0.598212633,-0.010257741,0.450867289,6.876000000,0.000310548,-0.034328212
1707309212.147131,-0.000129268,-0.015839884,0.000457914,-0.099546990,-0.000470128,0.145759369,-0.005458912,-0.390365914,0.002174817,-1.099866904,-0.010434384,-0.176643539,6.877000000,0.000275584,-0.034964429
1707309212.149914,-0.000151612,-0.022344525,0.000316019,-0.141895199,-0.000205731,0.264396436,-0.005129531,0.329380785,0.000687002,-1.487815047,-0.011173309,-0.738924557,6.878000000,0.000239884,-0.035699416
1707309212.151600,-0.000177864,-0.026251382,0.000159807,-0.156211858,0.000093802,0.299533022,-0.004213970,0.915561691,-0.000985146,-1.672148244,-0.012367695,-1.194385956,6.879000000,0.000203203,-0.036681017
1707309212.163298,-0.000209850,-0.031986534,0.000032570,-0.127237633,0.000292949,0.199147000,-0.002930578,1.283391756,-0.002316811,-1.331664162,-0.013757967,-1.390272047,6.880000000,0.000165644,-0.037559362
1707309212.170171,-0.000244942,-0.035091666,-0.000044259,-0.076828944,0.000328560,0.035611279,-0.001379539,1.551039208,-0.003154938,-0.838127750,-0.015266363,-1.508395812,6.881000000,0.000126951,-0.038692402
1707309212.176108,-0.000281681,-0.036738645,-0.000066146,-0.021886493,0.000188417,-0.140142688,0.000419308,1.798846850,-0.003470893,-0.315954191,-0.016881526,-1.615163031,6.882000000,0.000087016,-0.039935908
1707309212.181328,-0.000317475,-0.035793844,-0.000042622,0.023523254,-0.000111496,-0.299913125,0.000242638,-0.176670756,-0.003301089,0.169803881,-0.016391842,0.489683600,6.883000000,0.000045689,-0.041326528
1707309212.181413,-0.000353789,-0.036314780,-0.000003952,0.038669982,-0.000477688,-0.366192266,-0.001614174,-1.856811106,-0.002875807,0.425281353,-0.014074636,2.317205735,6.884000000,0.000003228,-0.042461305
1707309212.189267,-0.000394889,-0.041100050,0.000009265,0.013217194,-0.000773026,-0.295337618,-0.002805808,-1.191633928,-0.002536147,0.339660009,-0.012238040,1.836596568,6.885000000,-0.000039855,-0.043082581
1707309212.189633,-0.000494256,-0.052390833,-0.000141174,-0.108906047,-0.000841752,0.065847076,-0.002722340,0.471329423,-0.002876511,-0.372919317,-0.010422758,0.580472307,6.887000000,-0.000127232,-0.043886360
1707309212.191429,-0.000549947,-0.055691467,-0.000309443,-0.168268793,-0.000597952,0.243800288,-0.001435555,1.286785703,-0.003601630,-0.725119223,-0.010466717,-0.043958338,6.888000000,-0.000171719,-0.044486956
1707309212.192395,-0.000605244,-0.055296612,-0.000510711,-0.201268070,-0.000253896,0.344055808,0.000541493,1.977047880,-0.004490885,-0.889255502,-0.011040584,-0.573867365,6.889000000,-0.000217212,-0.045492710
1707309212.193067,-0.000653027,-0.047782797,-0.000704161,-0.193450013,0.000055209,0.309105179,0.000742654,0.201160922,-0.005211301,-0.720415646,-0.009731973,1.308610812,6.890000000,-0.000264436,-0.047223504
1707309212.194341,-0.000688868,-0.035840970,-0.000856645,-0.152484783,0.000231584,0.176375114,-0.000970371,-1.713024625,-0.005525351,-0.314049727,-0.006433985,3.297987641,6.891000000,-0.000313856,-0.049420355
1707309212.195564,-0.000712773,-0.023905463,-0.000952811,-0.096165913,0.000245187,0.013602656,-0.002375913,-1.405541993,-0.005366631,0.158720102,-0.003375073,3.058911977,6.892000000,-0.000365475,-0.051619126
1707309212.197123,-0.000724167,-0.011393636,-0.000990069,-0.037257968,0.000090093,-0.155094030,-0.003483328,-1.107415908,-0.004722344,0.644286672,-0.000551174,2.823899919,6.893000000,-0.000419243,-0.053767754
1707309212.197755,-0.000717307,0.006859744,-0.000984094,0.005975232,-0.000183613,-0.273706361,-0.003850957,-0.367628618,-0.003729628,0.992715597,0.001494815,2.045988123,6.894000000,-0.000475402,-0.056158807
1707309212.199113,-0.000678092,0.039215233,-0.000963896,0.020198399,-0.000484025,-0.300411119,-0.002477480,1.373477288,-0.002645520,1.084108340,0.001519639,0.024824795,6.895000000,-0.000534758,-0.059356177
1707309212.200223,-0.000610485,0.067606884,-0.000959450,0.004445892,-0.000719437,-0.235412352,0.000766461,3.243940629,-0.001692392,0.953127731,-0.000570353,-2.089992293,6.896000000,-0.000596568,-0.061809966
1707309212.201694,-0.000533918,0.076566955,-0.000988078,-0.028628047,-0.000853368,-0.133931008,0.002800208,2.033747398,-0.000921175,0.771217138,-0.001409246,-0.838892884,6.897000000,-0.000658789,-0.062221187
1707309212.202552,-0.000459439,0.074478993,-0.001061869,-0.073790932,-0.000849079,0.004289100,0.003341589,0.541380304,-0.000408351,0.512823608,-0.000586995,0.822250603,6.898000000,-0.000720033,-0.061243680
1707309212.204476,-0.000383371,0.076067781,-0.001180197,-0.118328641,-0.000705567,0.143512228,0.002752208,-0.589381062,-0.000168608,0.239743827,0.001440520,2.027515661,6.899000000,-0.000780150,-0.060117783
1707309212.207415,-0.000182821,0.107719632,-0.001482738,-0.153501159,-0.000188883,0.270787154,0.000550676,-1.310570579,-0.000138151,0.004507812,0.005952261,2.372445925,6.901000000,-0.000898945,-0.058975077
1707309212.209516,-0.000062516,0.120304644,-0.001611925,-0.129187757,0.000021643,0.210526137,-0.001308710,-1.859385889,0.000056213,0.194363991,0.008691890,2.739629590,6.902000000,-0.000956460,-0.057515130
1707309212.212091,0.000065953,0.128469446,-0.001700185,-0.088259896,0.000138261,0.116618150,-0.001507918,-0.199207739,0.000492518,0.436304586,0.009607253,0.915362548,6.903000000,-0.001011671,-0.055211420
1707309212.224132,0.000202183,0.136229834,-0.001744611,-0.044426125,0.000158599,0.020338166,-0.000064496,1.443421781,0.001016888,0.524370521,0.008679613,-0.927640030,6.904000000,-0.001064011,-0.052339434
1707309212.226764,0.000479433,0.137757240,-0.001696515,0.044620954,-0.000127886,-0.193678584,0.003674290,1.552519164,0.002443810,0.768247460,0.005462180,-1.368896148,6.906000000,-0.001156175,-0.043651277
